yixianl/unity_handgesture/BIUBIUBIU/Assets/Data/fight_fist_2.txt
frame right_handpalm right_thumb_tip right_index_tip right_middle_tip right_ring_tip right_pinky_tip right_thumb_joint right_index_joint right_middle_joint right_ring_joint right_pinky_joint 
0 0.01827684 1.555213 0.2292607 -0.05012391 1.63621 0.2662296 -0.03380574 1.592355 0.2613936 -0.02765344 1.595477 0.2690452 -0.01718605 1.602263 0.2750413 -0.008215595 1.608045 0.2727471 -0.05607224 1.618062 0.2534892 -0.0561806 1.622073 0.2640459 -0.04671694 1.632448 0.2704933 -0.0290852 1.641804 0.2717246 -0.009123731 1.640016 0.2704381
1 0.01877809 1.555288 0.2302742 -0.05038466 1.636132 0.2672979 -0.03389535 1.592439 0.2618684 -0.0277217 1.595006 0.2691326 -0.01806335 1.602406 0.2755057 -0.009150367 1.608765 0.2731755 -0.05577911 1.617783 0.2546178 -0.05693934 1.621827 0.263245 -0.04724313 1.631691 0.2696387 -0.02991457 1.641782 0.2708284 -0.01007528 1.640574 0.2696316
2 0.01916889 1.555385 0.2312702 -0.05160773 1.635792 0.2674472 -0.03407157 1.592651 0.2619098 -0.0274702 1.59429 0.2688596 -0.01829785 1.601828 0.2753816 -0.009762449 1.609309 0.2730543 -0.05634439 1.617158 0.2549154 -0.05767621 1.621596 0.2624629 -0.04767404 1.630769 0.2689095 -0.03062258 1.641119 0.27019 -0.01101063 1.640998 0.2689793
3 0.01945599 1.555463 0.2320476 -0.05306232 1.635395 0.2671064 -0.03429688 1.592793 0.2618353 -0.02718834 1.593702 0.2684831 -0.0181739 1.601186 0.2750487 -0.01001319 1.609539 0.2727783 -0.0571404 1.616512 0.2547153 -0.05816182 1.62145 0.2619025 -0.04791856 1.630107 0.2684435 -0.03104895 1.640436 0.2698301 -0.01164881 1.641175 0.2685789
4 0.01971395 1.555499 0.2327574 -0.05442859 1.635144 0.2663201 -0.03436314 1.592916 0.261456 -0.02682025 1.593296 0.2678845 -0.01773552 1.600668 0.2743486 -0.009794446 1.60947 0.2722236 -0.05788969 1.616038 0.2540861 -0.0583037 1.621411 0.2615314 -0.04787335 1.629696 0.2681338 -0.03111056 1.639891 0.269596 -0.01192174 1.641088 0.2682862
5 0.02004181 1.555417 0.2333812 -0.0554 1.635165 0.2646177 -0.03407896 1.593093 0.2604482 -0.02619927 1.593199 0.2669466 -0.01683318 1.600355 0.2732075 -0.009059164 1.609197 0.271206 -0.05835796 1.615866 0.2525642 -0.05788423 1.62158 0.2612275 -0.04738022 1.629685 0.2678296 -0.03062874 1.639628 0.269343 -0.01156791 1.640855 0.2680217
6 0.02023299 1.555221 0.2338773 -0.05558809 1.63575 0.2625977 -0.03377244 1.593355 0.2593541 -0.02561751 1.593369 0.2659668 -0.01583173 1.600125 0.2719404 -0.008177239 1.608788 0.27025 -0.05826732 1.616236 0.2508575 -0.05719735 1.622067 0.2608711 -0.04665364 1.630061 0.2674336 -0.02978184 1.639503 0.2690014 -0.01086464 1.640574 0.2676421
7 0.02024731 1.554919 0.234251 -0.05537689 1.636605 0.2601734 -0.0335459 1.593669 0.2580239 -0.0251374 1.593639 0.2647775 -0.01499321 1.599955 0.2705239 -0.007545281 1.608463 0.2692676 -0.05800027 1.616839 0.2488758 -0.05641404 1.622747 0.2603138 -0.04583782 1.630595 0.2668595 -0.02880275 1.63949 0.2685307 -0.01000109 1.64037 0.2671844
8 0.02015743 1.554515 0.2344523 -0.05478945 1.637372 0.2580853 -0.0333502 1.593871 0.2569255 -0.02478439 1.593748 0.2637073 -0.01445378 1.59971 0.2694008 -0.007123322 1.608094 0.2687251 -0.05757308 1.617446 0.2471308 -0.05564466 1.623339 0.2597753 -0.04502558 1.63096 0.2663817 -0.02785534 1.639409 0.2682267 -0.00915762 1.640107 0.2669471
9 0.02002589 1.553992 0.2343772 -0.05393673 1.637998 0.2559434 -0.03304785 1.594023 0.25588 -0.02432179 1.593746 0.2626051 -0.01385423 1.59934 0.2682757 -0.006648282 1.607544 0.2680109 -0.05706598 1.617987 0.2452336 -0.05473069 1.623904 0.2591996 -0.04404045 1.631224 0.2658868 -0.0267425 1.639236 0.2679109 -0.008121044 1.639695 0.266717
10 0.01982961 1.553356 0.2340496 -0.05290345 1.638452 0.2540455 -0.0326686 1.594099 0.2549062 -0.02379246 1.593653 0.2614941 -0.01314893 1.598902 0.2671047 -0.006034144 1.606951 0.2671303 -0.05649356 1.618395 0.2435546 -0.05378489 1.624358 0.2585923 -0.04299245 1.631396 0.265312 -0.02558123 1.639003 0.2674235 -0.007030802 1.639236 0.2662421
11 0.01959208 1.552772 0.2337564 -0.05196634 1.638784 0.252535 -0.0324974 1.594117 0.2541221 -0.02348813 1.593601 0.2605944 -0.01276679 1.59873 0.2664002 -0.005713874 1.606696 0.2665777 -0.05603967 1.618682 0.2423225 -0.05314167 1.624706 0.2578602 -0.04228903 1.631573 0.2645944 -0.02484149 1.639026 0.2667179 -0.006272621 1.639029 0.2655865
12 0.01935931 1.552267 0.2338041 -0.05116701 1.63912 0.2517007 -0.03247305 1.594125 0.2536834 -0.02336583 1.593543 0.2600788 -0.01272734 1.598695 0.2661958 -0.00559732 1.606727 0.2664514 -0.05556373 1.61898 0.2417261 -0.05276727 1.624975 0.2572124 -0.04186203 1.631683 0.2639726 -0.02441874 1.639137 0.2661019 -0.005837516 1.639027 0.2650391
13 0.0192347 1.551782 0.2338148 -0.05056807 1.639299 0.2509973 -0.03241705 1.59406 0.253271 -0.02326741 1.593405 0.2596604 -0.01273143 1.598622 0.2659772 -0.005589822 1.606699 0.2662222 -0.0550935 1.619121 0.241186 -0.05252152 1.62508 0.2564306 -0.04158888 1.631689 0.2632256 -0.02415523 1.639173 0.2653725 -0.005541398 1.638975 0.2644027
14 0.01913561 1.551274 0.233833 -0.05018668 1.639268 0.2502766 -0.03243217 1.593937 0.2529126 -0.02326286 1.593199 0.2593397 -0.01278477 1.598484 0.2657419 -0.005687574 1.606553 0.2659302 -0.05474276 1.619068 0.240539 -0.05241373 1.625079 0.2555924 -0.04146269 1.631634 0.2624286 -0.02402878 1.63912 0.2645995 -0.005373628 1.638842 0.2637378
15 0.0189686 1.550743 0.2338678 -0.04998658 1.639164 0.2496295 -0.03250635 1.593848 0.2525665 -0.02339188 1.592956 0.2590736 -0.0129468 1.598313 0.2654389 -0.005849321 1.606339 0.2655786 -0.05454261 1.618934 0.2399649 -0.05244179 1.62504 0.2547348 -0.04145399 1.631547 0.2616182 -0.02400406 1.638997 0.2638223 -0.00532551 1.63863 0.2630647
16 0.0186878 1.550177 0.2339544 -0.04986368 1.639074 0.2491549 -0.03257403 1.593786 0.2522635 -0.02352991 1.592738 0.2588267 -0.01311922 1.598166 0.2651093 -0.005959343 1.606061 0.2651527 -0.05445639 1.618816 0.2395746 -0.05245788 1.625024 0.2540554 -0.04140304 1.631458 0.2609653 -0.02392607 1.638877 0.2631706 -0.00523253 1.638322 0.2624898
17 0.01833508 1.549646 0.2338636 -0.04968284 1.63907 0.2490979 -0.0325232 1.593809 0.2521464 -0.02353332 1.592566 0.2586521 -0.01317248 1.598061 0.2648765 -0.005936845 1.605809 0.2647477 -0.05444596 1.618818 0.2395913 -0.05228684 1.625149 0.253738 -0.04109647 1.631435 0.2606323 -0.02357832 1.638834 0.2627519 -0.00487346 1.638002 0.2620614
18 0.01807109 1.549271 0.233766 -0.04948216 1.639086 0.2492112 -0.03244326 1.593874 0.2521814 -0.02344687 1.592464 0.2585878 -0.01313472 1.598011 0.2647962 -0.00587403 1.605665 0.2645763 -0.05440747 1.618863 0.2397282 -0.05207826 1.62533 0.2535409 -0.04076567 1.631458 0.260425 -0.02322631 1.638875 0.2624533 -0.004505778 1.637839 0.2617414
19 0.01784229 1.548904 0.2336186 -0.04934195 1.639032 0.2492666 -0.03239342 1.593895 0.2522341 -0.02337494 1.592376 0.2585361 -0.0130781 1.597965 0.26467 -0.005784943 1.605525 0.2643332 -0.05440334 1.618831 0.2398075 -0.05190429 1.625466 0.2532788 -0.04049607 1.631483 0.2601304 -0.02292947 1.638906 0.2620546 -0.004193574 1.637697 0.2613127
20 0.01756632 1.54859 0.233447 -0.04925289 1.639082 0.2493265 -0.03240027 1.593963 0.2522815 -0.02333845 1.592433 0.258491 -0.01298882 1.597958 0.264497 -0.005651754 1.60539 0.2640125 -0.0544294 1.618883 0.2399296 -0.05173504 1.62568 0.2530455 -0.04025139 1.63165 0.2598152 -0.02262627 1.638984 0.2616109 -0.003891916 1.637578 0.2608019
21 0.01733405 1.548446 0.2333223 -0.04919692 1.639232 0.2493656 -0.03245885 1.594132 0.2523688 -0.02336286 1.592669 0.2585457 -0.01292616 1.598066 0.2644466 -0.005564378 1.605395 0.2638395 -0.05444113 1.619042 0.2399876 -0.05158871 1.625992 0.2529363 -0.04006962 1.631981 0.2596231 -0.02236832 1.63918 0.2613206 -0.003629662 1.637604 0.2604551
22 0.01717526 1.548357 0.233208 -0.04914194 1.639381 0.2494202 -0.03250295 1.594297 0.2525003 -0.02338969 1.592956 0.2586866 -0.01282943 1.598172 0.2644287 -0.005444246 1.605409 0.2637138 -0.05442217 1.619191 0.240059 -0.05143727 1.626287 0.2528996 -0.03990929 1.632349 0.2595011 -0.0221184 1.639357 0.2611295 -0.003380259 1.63764 0.2602109
23 0.01717689 1.548342 0.2331975 -0.04907002 1.639512 0.249489 -0.03247908 1.594447 0.2527401 -0.02336078 1.593264 0.2589183 -0.01260073 1.598243 0.2644086 -0.005189071 1.6054 0.2636137 -0.05434647 1.619302 0.2401678 -0.05126613 1.626542 0.2529928 -0.03973766 1.632717 0.2594952 -0.02185504 1.63948 0.2610662 -0.003133627 1.637668 0.2600733
24 0.0171895 1.548323 0.2332438 -0.04890352 1.639699 0.2496395 -0.03240046 1.594597 0.2530202 -0.02326894 1.593565 0.2591789 -0.01228948 1.598283 0.2644011 -0.004851451 1.605367 0.2635262 -0.05419995 1.619456 0.2404012 -0.0510344 1.626792 0.2532433 -0.03948508 1.633071 0.2596218 -0.02150864 1.639567 0.261112 -0.002819541 1.637668 0.2600065
25 0.01717206 1.548312 0.2333003 -0.04867675 1.639926 0.2497577 -0.03233227 1.594724 0.2531762 -0.02316321 1.593796 0.2593181 -0.01198061 1.598264 0.2643442 -0.00454669 1.605305 0.2634563 -0.05402921 1.619659 0.2406003 -0.05077477 1.627019 0.2535486 -0.03919522 1.633356 0.2598155 -0.02114373 1.639593 0.2612357 -0.002503253 1.637631 0.2600091
26 0.01710615 1.548284 0.2333425 -0.04852514 1.640061 0.2497936 -0.03237197 1.594769 0.2532276 -0.02315594 1.593943 0.2593703 -0.01182272 1.598219 0.2643031 -0.004406475 1.605233 0.2634538 -0.05394832 1.619788 0.2406829 -0.05063052 1.627154 0.2537857 -0.03904041 1.63353 0.2599821 -0.02094066 1.639578 0.261371 -0.002333261 1.637575 0.2600711
27 0.01707554 1.548245 0.2334692 -0.04834527 1.640155 0.2499192 -0.03238759 1.594781 0.253347 -0.02312324 1.594028 0.2594812 -0.01169491 1.598149 0.2643875 -0.004264048 1.60516 0.2635956 -0.05385508 1.619884 0.2408479 -0.05048025 1.627243 0.2540729 -0.03888179 1.633626 0.2602316 -0.02074983 1.639528 0.2616172 -0.002175271 1.637509 0.2602714
28 0.0171411 1.54822 0.233625 -0.04808037 1.64027 0.2501034 -0.03227014 1.594824 0.2534892 -0.02294159 1.594088 0.2595941 -0.01144232 1.598091 0.2645017 -0.00400755 1.605079 0.2637798 -0.05366416 1.62 0.2410661 -0.05019866 1.627353 0.2544129 -0.03857727 1.633692 0.2605518 -0.02042644 1.639479 0.2619343 -0.001886384 1.637439 0.2605466
29 0.01742551 1.548219 0.2339855 -0.04761504 1.640411 0.2501098 -0.03200731 1.594867 0.2535854 -0.02254409 1.59409 0.2596546 -0.01093039 1.598004 0.2645514 -0.003648025 1.604843 0.2640295 -0.05323824 1.620153 0.241059 -0.04969041 1.627502 0.2547648 -0.03804667 1.633712 0.2609327 -0.01990185 1.639367 0.2623655 -0.001401277 1.637245 0.2609857
30 0.01759842 1.54817 0.2343938 -0.04732884 1.640442 0.2499555 -0.03193139 1.594835 0.2536222 -0.02230303 1.59403 0.2596848 -0.01058848 1.597854 0.2646081 -0.003542679 1.604519 0.26427 -0.05298268 1.620205 0.2408636 -0.04933216 1.627593 0.2550563 -0.03769129 1.633668 0.261286 -0.01955921 1.639207 0.2628095 -0.001078571 1.636978 0.2614866
31 0.01753958 1.548115 0.234685 -0.04731111 1.640456 0.2495953 -0.03209367 1.59485 0.2536425 -0.02228474 1.594044 0.2596707 -0.01048668 1.597739 0.264621 -0.003619437 1.604262 0.2644295 -0.05300428 1.620228 0.2404928 -0.04921317 1.627747 0.2551642 -0.03758286 1.633703 0.2614605 -0.01945137 1.639116 0.2630837 -0.0009822403 1.636786 0.2618355
32 0.01749197 1.548078 0.234899 -0.04733085 1.64047 0.2491191 -0.03227432 1.594906 0.2537028 -0.02227653 1.594105 0.25967 -0.01037902 1.597655 0.2646362 -0.003623924 1.604114 0.2645628 -0.05304087 1.620228 0.2400486 -0.04914274 1.627938 0.2551775 -0.03751478 1.633795 0.2615256 -0.01937683 1.639083 0.2632245 -0.0009148692 1.636705 0.2620336
33 0.01754429 1.548085 0.235158 -0.0472224 1.640595 0.2485967 -0.03231483 1.595067 0.2538175 -0.02213347 1.594251 0.259719 -0.01010546 1.597608 0.2646436 -0.003435284 1.604055 0.2647212 -0.0529217 1.620316 0.2395962 -0.04894664 1.628228 0.2552137 -0.03730384 1.633986 0.2615964 -0.01914672 1.639096 0.2633575 -0.0007069827 1.636711 0.2621927
34 0.01774933 1.548163 0.2353563 -0.04687096 1.640862 0.2480562 -0.03215226 1.595359 0.253874 -0.02181589 1.594464 0.2597248 -0.009653211 1.597606 0.2646194 -0.003014697 1.604107 0.2648814 -0.05254586 1.620546 0.2391215 -0.04855802 1.62862 0.2552337 -0.03688475 1.634259 0.2616587 -0.01870226 1.639154 0.263489 -0.0002963049 1.636804 0.262329
35 0.0179271 1.54817 0.235486 -0.04648426 1.641069 0.2479447 -0.03202055 1.595524 0.254136 -0.0215548 1.594487 0.2598576 -0.009314865 1.59742 0.2647893 -0.002596049 1.604113 0.2652893 -0.05216249 1.620743 0.2390413 -0.04823002 1.62888 0.2554424 -0.0365059 1.634327 0.261947 -0.01830527 1.639017 0.2638673 5.576415E-05 1.636812 0.2626885
36 0.01794835 1.54818 0.2354938 -0.04621154 1.64126 0.2482889 -0.03200087 1.595624 0.2545208 -0.02144121 1.594464 0.2600254 -0.009205835 1.597243 0.2650071 -0.002336608 1.604154 0.2657292 -0.05194826 1.620952 0.2393861 -0.04806562 1.629074 0.2557437 -0.03627939 1.634308 0.2623224 -0.01806454 1.638868 0.2643078 0.0002524655 1.636831 0.2630901
37 0.01794853 1.548225 0.2354861 -0.0460193 1.641416 0.2490606 -0.03201217 1.595715 0.255038 -0.02136012 1.594406 0.2603031 -0.00916998 1.597106 0.2653112 -0.002144085 1.60424 0.2661853 -0.05183215 1.621145 0.2401307 -0.04798103 1.629235 0.2561346 -0.03612255 1.634244 0.262774 -0.0179022 1.638749 0.2647896 0.0003806753 1.63688 0.263517
38 0.01797679 1.548314 0.2354315 -0.04579002 1.641611 0.2500618 -0.03192769 1.595868 0.2556033 -0.02119614 1.594411 0.2606378 -0.009043 1.597059 0.265606 -0.001884612 1.604356 0.2665449 -0.051679 1.621381 0.2410917 -0.04781012 1.629445 0.2566149 -0.03586636 1.634264 0.2632635 -0.01762924 1.638733 0.2652426 0.0006238324 1.636971 0.2638738
39 0.01800518 1.54841 0.2353326 -0.04543227 1.641857 0.2514084 -0.03171372 1.596054 0.2563297 -0.02089504 1.594459 0.2610645 -0.008746924 1.597064 0.2659295 -0.001417032 1.604467 0.2669025 -0.05146045 1.621703 0.2423579 -0.04741843 1.629735 0.2573687 -0.03536422 1.634357 0.2639689 -0.01709641 1.638769 0.2658348 0.001112266 1.637043 0.2642977
40 0.01799211 1.548465 0.2351759 -0.04499144 1.642097 0.2527136 -0.03144307 1.59622 0.2569595 -0.02053668 1.59452 0.2614531 -0.008373698 1.597082 0.2662513 -0.0008640216 1.604506 0.2672539 -0.05120315 1.622052 0.2435309 -0.04686211 1.630025 0.258243 -0.03471376 1.634475 0.264765 -0.01641436 1.638821 0.2664923 0.001743141 1.637049 0.2647748
41 0.01790285 1.548447 0.2349754 -0.04447028 1.642308 0.2537988 -0.03116979 1.596293 0.2573697 -0.02013523 1.594569 0.2616668 -0.007966103 1.597063 0.2664832 -0.0003050738 1.604379 0.2675225 -0.05091326 1.622427 0.2443971 -0.04614763 1.630272 0.2591222 -0.03394459 1.634559 0.2655569 -0.01561953 1.638836 0.267156 0.002486504 1.636889 0.265283
42 0.01775285 1.548391 0.2348171 -0.04404845 1.642487 0.2544282 -0.03103494 1.596331 0.2573997 -0.01985905 1.594596 0.2616385 -0.007684046 1.596929 0.2665291 9.313494E-05 1.604164 0.2676542 -0.05068695 1.622773 0.2447894 -0.04554059 1.630461 0.2596818 -0.03333848 1.6346 0.2660888 -0.01499718 1.638733 0.2676743 0.003054024 1.63665 0.265737
43 0.01747067 1.548284 0.2346487 -0.04388246 1.642553 0.2547522 -0.0311316 1.596253 0.2572525 -0.01983356 1.594547 0.2614978 -0.007615377 1.596683 0.2664906 0.0002225246 1.603832 0.2677781 -0.05066463 1.623011 0.2448422 -0.04516546 1.630535 0.2600517 -0.03300965 1.63455 0.2664943 -0.01466333 1.638496 0.2681663 0.003347241 1.636306 0.2662479
44 0.01704001 1.548074 0.2344634 -0.04382703 1.642394 0.2553493 -0.03134923 1.596038 0.2572121 -0.02001602 1.59438 0.2615206 -0.00780498 1.596333 0.2667491 0.0001160912 1.603347 0.2682626 -0.05081274 1.623125 0.2450269 -0.04491685 1.630464 0.2605414 -0.03283896 1.634348 0.2670986 -0.01449163 1.638126 0.2689553 0.003502482 1.635778 0.2671416
45 0.01658504 1.547792 0.2343777 -0.04371126 1.642089 0.2561499 -0.03153875 1.595759 0.2572721 -0.02029073 1.594124 0.2617245 -0.00818169 1.595981 0.2673453 -0.0001337482 1.602827 0.2691255 -0.0509479 1.623181 0.2453192 -0.04472108 1.630287 0.2610785 -0.0327392 1.634037 0.2678142 -0.01440091 1.63773 0.2699274 0.003598782 1.635177 0.268293
46 0.01626071 1.547554 0.2343781 -0.04356174 1.641869 0.2567618 -0.03163131 1.595569 0.2573666 -0.02049335 1.593898 0.2619598 -0.008535214 1.595723 0.2680051 -0.0004145803 1.602431 0.2700063 -0.05094205 1.623267 0.2454861 -0.04454086 1.630159 0.2614609 -0.03264571 1.633752 0.2683944 -0.01432714 1.637418 0.2707793 0.003690511 1.634688 0.2693556
47 0.01601805 1.547391 0.234466 -0.04342674 1.641779 0.2568372 -0.03175767 1.595515 0.257245 -0.02071756 1.593711 0.2620412 -0.008954188 1.595477 0.2684764 -0.0008301771 1.602074 0.2705874 -0.05085661 1.623465 0.2451192 -0.04445809 1.630126 0.2615186 -0.03265853 1.633492 0.2686973 -0.01437489 1.637104 0.2714307 0.003668096 1.634234 0.2702928
48 0.01564198 1.547191 0.2343744 -0.04313455 1.64163 0.2567106 -0.03188874 1.595478 0.2569543 -0.02101836 1.593509 0.2619728 -0.009418828 1.595188 0.2686951 -0.001301014 1.601732 0.2708076 -0.05077028 1.623698 0.2445262 -0.04441101 1.630124 0.2613775 -0.03270001 1.633274 0.2687925 -0.01444828 1.63676 0.2718664 0.003620358 1.633772 0.2710064
49 0.01520383 1.5469 0.2341432 -0.04222808 1.641337 0.2572191 -0.03199992 1.595368 0.2567697 -0.02140438 1.593239 0.2619493 -0.009943902 1.594876 0.2689249 -0.001792352 1.601425 0.2710081 -0.05037662 1.624001 0.2444999 -0.04430495 1.630096 0.2612052 -0.03266801 1.633075 0.268837 -0.01443318 1.636418 0.2722053 0.003668511 1.633306 0.271584
50 0.01466685 1.546602 0.2336745 -0.04057824 1.64107 0.2585758 -0.03210544 1.595343 0.2567005 -0.02191802 1.593162 0.262148 -0.01065984 1.594852 0.2694544 -0.00242909 1.601299 0.271477 -0.04947118 1.624593 0.2452215 -0.04408642 1.630204 0.2609438 -0.03254393 1.633116 0.2688002 -0.01429248 1.636368 0.2724561 0.003870827 1.632943 0.2720985
51 0.01394857 1.546471 0.2331002 -0.03876842 1.641019 0.2608471 -0.03234195 1.59573 0.2571213 -0.02261805 1.59362 0.2629151 -0.01159988 1.595332 0.2706083 -0.003142342 1.601451 0.2723719 -0.04839383 1.625509 0.2468542 -0.04364365 1.630765 0.2609362 -0.03220332 1.633711 0.2690149 -0.01386244 1.636802 0.272936 0.004352378 1.63273 0.2728472
52 0.01307576 1.546496 0.2325788 -0.03733253 1.641206 0.2633491 -0.03281868 1.596517 0.2577693 -0.02348199 1.594517 0.2637547 -0.01257264 1.595665 0.2716654 -0.003876383 1.601377 0.2732536 -0.04734873 1.626624 0.2486363 -0.04310509 1.631755 0.2609351 -0.03181928 1.634641 0.2693529 -0.01341794 1.637017 0.2737448 0.004743902 1.632269 0.2740352
53 0.01230247 1.546569 0.2322275 -0.03681775 1.641361 0.2649431 -0.033523 1.597323 0.2581153 -0.0248572 1.595285 0.2643103 -0.01367087 1.595419 0.2719614 -0.004566682 1.600937 0.2736845 -0.04668479 1.627567 0.2493958 -0.04276313 1.632778 0.2603869 -0.03169895 1.635436 0.2693194 -0.01342819 1.636605 0.2744546 0.004592703 1.631596 0.2752996
54 0.01122602 1.546747 0.2314942 -0.03628305 1.641104 0.2669153 -0.03420122 1.598043 0.2579929 -0.0261763 1.595992 0.2645448 -0.01446098 1.595061 0.2717402 -0.004810239 1.600382 0.2739182 -0.0463157 1.628385 0.2505672 -0.04237524 1.633604 0.2603874 -0.03146745 1.636012 0.2696817 -0.01338056 1.636001 0.2753014 0.004454018 1.630864 0.2764289
55 0.009987104 1.547258 0.2301881 -0.03595693 1.640567 0.2695746 -0.03504049 1.598828 0.2579481 -0.02769883 1.597194 0.2650127 -0.01523226 1.595104 0.2713627 -0.005113187 1.600094 0.2738974 -0.0462741 1.629048 0.2525166 -0.04209553 1.634548 0.2604929 -0.03126763 1.637002 0.270018 -0.01333445 1.635776 0.2758854 0.004339157 1.630424 0.277118
56 0.008912285 1.547922 0.228776 -0.03574969 1.640072 0.272047 -0.03585654 1.599519 0.2581661 -0.02924223 1.598496 0.2659278 -0.01582988 1.595312 0.2710133 -0.00539368 1.599944 0.2739328 -0.04631571 1.629487 0.2545331 -0.04198023 1.635393 0.2607169 -0.0311306 1.638125 0.2703556 -0.013314 1.635741 0.2762585 0.00424202 1.630273 0.2774377
57 0.00781622 1.548504 0.2275047 -0.03518916 1.639625 0.2738744 -0.03647478 1.599993 0.2581235 -0.0305229 1.599249 0.2663826 -0.01657297 1.595357 0.2706762 -0.005920888 1.599763 0.2741239 -0.04610535 1.630013 0.2560067 -0.04187089 1.63603 0.2610051 -0.03101146 1.638796 0.2707895 -0.01333207 1.635555 0.2767299 0.00410853 1.62999 0.2778814
58 0.006694193 1.548933 0.226394 -0.03468899 1.639102 0.2749513 -0.03704487 1.600259 0.2577401 -0.03164046 1.599503 0.2663152 -0.01772951 1.595372 0.2705889 -0.006877546 1.599655 0.2743422 -0.04594538 1.630499 0.2567623 -0.04188022 1.636445 0.2610889 -0.03109071 1.639037 0.2710699 -0.01354493 1.635369 0.2771494 0.003794013 1.629606 0.2783955
59 0.00566891 1.549445 0.2255657 -0.03454061 1.63809 0.2755376 -0.03804033 1.600339 0.2569101 -0.03334141 1.599391 0.2658659 -0.01975667 1.595671 0.2708349 -0.008675132 1.599833 0.274756 -0.04616029 1.630832 0.2569721 -0.04249113 1.636654 0.2608328 -0.03190323 1.638934 0.2711053 -0.01449555 1.635401 0.27753 0.002758368 1.629357 0.279049
60 0.005034334 1.550129 0.2250903 -0.03513516 1.637264 0.2756276 -0.03914989 1.600214 0.2557161 -0.03485857 1.598988 0.2647814 -0.02162044 1.595891 0.2705954 -0.01047591 1.600265 0.274938 -0.04683553 1.630961 0.2567489 -0.04388229 1.636536 0.2603211 -0.03359885 1.63853 0.2708549 -0.01631828 1.635504 0.2777141 0.0009518982 1.629582 0.2795933
61 0.005085342 1.550767 0.2247088 -0.03591643 1.637087 0.2745897 -0.03968609 1.599797 0.254151 -0.03524666 1.598512 0.2631837 -0.02229374 1.595969 0.2695933 -0.01142224 1.600543 0.2741303 -0.04760893 1.63091 0.2556551 -0.0456863 1.635858 0.2595946 -0.03561955 1.637975 0.270201 -0.01834298 1.63565 0.2772637 -0.0009616851 1.630023 0.2793114
62 0.005579625 1.551245 0.2246219 -0.03700919 1.636799 0.2733894 -0.03999889 1.599074 0.2528469 -0.03518146 1.59795 0.2616835 -0.02250855 1.596077 0.2687578 -0.01212168 1.600692 0.2731636 -0.04863919 1.630375 0.2544912 -0.04765537 1.634681 0.2589967 -0.0377431 1.637159 0.2696038 -0.02041015 1.635795 0.2767518 -0.002872115 1.630374 0.2788634
63 0.006093589 1.551549 0.2246931 -0.03778582 1.636485 0.272331 -0.04007353 1.598371 0.2519805 -0.03487178 1.597313 0.2606391 -0.02242636 1.596094 0.2682061 -0.01243566 1.600798 0.2723789 -0.04940176 1.62982 0.2535 -0.04920682 1.633495 0.2587622 -0.03938477 1.636245 0.2693212 -0.02200226 1.635817 0.2764825 -0.00428581 1.630606 0.2786063
64 0.006462706 1.5518 0.2248324 -0.03801218 1.636344 0.2715184 -0.0400008 1.597956 0.2513744 -0.03440621 1.596798 0.2598941 -0.02204172 1.596086 0.2677358 -0.01234283 1.600871 0.2717936 -0.04975095 1.62958 0.2527919 -0.05021019 1.632626 0.2589275 -0.04039547 1.635491 0.2693902 -0.02297642 1.635767 0.2764614 -0.005116859 1.630764 0.2784906
65 0.00682349 1.55213 0.2247376 -0.03798125 1.636111 0.2709694 -0.03975662 1.597477 0.251031 -0.03389437 1.596166 0.2594146 -0.0216837 1.596223 0.2674872 -0.01222339 1.601077 0.2712892 -0.04991325 1.629305 0.2523744 -0.0510293 1.631784 0.2591699 -0.04116099 1.634737 0.2694845 -0.02367958 1.6359 0.2763956 -0.005650116 1.631042 0.2782348
66 0.007276755 1.552572 0.2245059 -0.0384637 1.636252 0.270292 -0.03967047 1.597028 0.2507101 -0.03348856 1.595555 0.2589316 -0.02154068 1.59649 0.2673812 -0.01233017 1.601395 0.2707539 -0.05034814 1.629003 0.2518372 -0.05189685 1.630935 0.2593165 -0.04196258 1.634024 0.2694657 -0.02442952 1.636248 0.2761822 -0.006208379 1.631459 0.2778082
67 0.007869604 1.553081 0.2243885 -0.03964819 1.636904 0.2692837 -0.03964892 1.596627 0.2505963 -0.03279447 1.595009 0.2584776 -0.02100501 1.596501 0.2671143 -0.01212059 1.601458 0.2701815 -0.05116502 1.628805 0.25096 -0.05257169 1.630086 0.2598499 -0.04256142 1.633187 0.2698072 -0.02502226 1.636214 0.2762948 -0.006652236 1.631629 0.2776605
68 0.008513496 1.553559 0.2243545 -0.04126858 1.637468 0.2681371 -0.03965766 1.596212 0.2511237 -0.03204662 1.594607 0.2585982 -0.02024056 1.596401 0.2670556 -0.01173356 1.601277 0.2698726 -0.0523708 1.62849 0.2499735 -0.05291568 1.62933 0.2608548 -0.0427924 1.632449 0.2705981 -0.0252136 1.635952 0.2767882 -0.006733761 1.631548 0.2777983
69 0.009297932 1.55394 0.2241395 -0.04307606 1.637268 0.2670932 -0.03956198 1.59551 0.2518254 -0.03161912 1.594264 0.2592705 -0.01983542 1.596645 0.2674647 -0.01152516 1.601147 0.269774 -0.05389623 1.62762 0.249096 -0.05328916 1.62843 0.2616417 -0.04309552 1.631899 0.2711892 -0.02543896 1.636089 0.2770667 -0.006803965 1.631551 0.2777256
70 0.01003693 1.554268 0.2236738 -0.04442699 1.636217 0.2663351 -0.03910614 1.594522 0.2525105 -0.03113038 1.593703 0.2600497 -0.01990901 1.597851 0.2686815 -0.01156898 1.601204 0.270025 -0.05532255 1.626143 0.2486036 -0.05380787 1.627126 0.2622586 -0.04354797 1.631162 0.2715439 -0.02587864 1.637268 0.2769945 -0.006953427 1.631884 0.2772376
71 0.01080667 1.554871 0.2241554 -0.0458385 1.635656 0.2655816 -0.03887813 1.593979 0.2532143 -0.03108488 1.593221 0.2609472 -0.02105577 1.59963 0.2710217 -0.01212413 1.602431 0.2717807 -0.05650745 1.62509 0.2479891 -0.05478467 1.625999 0.2628771 -0.04460661 1.630529 0.2720852 -0.02715645 1.63916 0.2773096 -0.007859617 1.633283 0.2776076
72 0.01169032 1.555637 0.2246897 -0.04738698 1.635357 0.2648197 -0.03856719 1.593575 0.2539557 -0.0308315 1.592996 0.2617198 -0.02214542 1.601465 0.2729046 -0.0124293 1.604444 0.2733537 -0.05763244 1.624034 0.2474465 -0.05582675 1.624989 0.2631916 -0.04575245 1.630015 0.2722626 -0.02865106 1.641072 0.2771253 -0.008997855 1.635398 0.2775474
73 0.01275964 1.556305 0.2251526 -0.04893376 1.634924 0.2640036 -0.03816709 1.593034 0.2546999 -0.03063715 1.593006 0.2624941 -0.02303443 1.603075 0.2740676 -0.01282316 1.606398 0.2740131 -0.05862796 1.622632 0.2469879 -0.05693045 1.62393 0.2628404 -0.04705802 1.629779 0.2717169 -0.03038803 1.642709 0.275975 -0.01032068 1.637461 0.2765766
74 0.01398885 1.556846 0.225723 -0.05068998 1.63444 0.2635353 -0.03784677 1.592409 0.2556048 -0.0306862 1.593314 0.2637278 -0.0238816 1.604333 0.2750592 -0.01345086 1.608184 0.274284 -0.0594604 1.620837 0.2470639 -0.05823915 1.622641 0.262142 -0.04878243 1.629763 0.2707282 -0.03257588 1.643887 0.2741389 -0.01200576 1.639397 0.2749552
75 0.01517452 1.557313 0.2263024 -0.05197284 1.634196 0.263341 -0.03728036 1.591918 0.2564223 -0.03061287 1.593849 0.2650438 -0.02380897 1.604682 0.2753176 -0.01371353 1.609619 0.2738376 -0.05981433 1.619179 0.2477052 -0.05940568 1.621265 0.2616864 -0.05047204 1.629909 0.2697581 -0.03453734 1.644123 0.2722316 -0.01361345 1.641083 0.2728841
76 0.01622425 1.557794 0.2271234 -0.05226995 1.634396 0.263884 -0.03656692 1.591571 0.2576758 -0.03025917 1.594139 0.2659734 -0.02280896 1.604134 0.2752204 -0.01349694 1.61066 0.2732488 -0.05953777 1.618136 0.2492765 -0.06021376 1.620112 0.2619295 -0.05152056 1.629881 0.2693381 -0.03571204 1.643365 0.2709415 -0.01489489 1.64231 0.2708068
77 0.01682372 1.558299 0.2280622 -0.05270709 1.634166 0.2666616 -0.03634344 1.591284 0.2588208 -0.03073515 1.594143 0.2672738 -0.02333667 1.603837 0.2761272 -0.01402113 1.610911 0.2736979 -0.05932282 1.617188 0.2526295 -0.06103139 1.619187 0.2623511 -0.05251374 1.629624 0.2693163 -0.03664437 1.642789 0.2705698 -0.01627887 1.64254 0.2698582
78 0.01732358 1.558658 0.2291359 -0.05415359 1.633965 0.268059 -0.03615858 1.591159 0.2592574 -0.03106279 1.59409 0.2679459 -0.02374057 1.603424 0.2765356 -0.01445741 1.610139 0.273518 -0.05979251 1.616377 0.2544065 -0.06157594 1.618486 0.262719 -0.05323171 1.629278 0.2694912 -0.03724223 1.642148 0.2707653 -0.01708682 1.641868 0.2699503
79 0.01822237 1.558957 0.2299289 -0.05593364 1.633273 0.2681174 -0.03573237 1.590839 0.2589138 -0.03063976 1.593388 0.2675675 -0.02355514 1.602487 0.2761649 -0.01479113 1.60935 0.2728886 -0.06044793 1.615107 0.2548594 -0.06191324 1.61743 0.2626582 -0.05360823 1.628205 0.2693565 -0.03773014 1.64105 0.270707 -0.01772447 1.641118 0.2698348
80 0.01926947 1.559276 0.23029 -0.05782586 1.632104 0.2674657 -0.03529346 1.590432 0.2581384 -0.02996881 1.592528 0.2667265 -0.02305408 1.601422 0.2753674 -0.01495139 1.608865 0.272249 -0.06122113 1.613525 0.2544876 -0.06211489 1.616303 0.2621938 -0.05382147 1.626927 0.2689161 -0.03815261 1.639792 0.2704185 -0.01832952 1.640587 0.2695187
81 0.02032021 1.559605 0.2306428 -0.05950017 1.630653 0.2665324 -0.03499009 1.589986 0.2570639 -0.02921438 1.591529 0.2654704 -0.02243809 1.600371 0.2741129 -0.01503278 1.608597 0.2715917 -0.06203456 1.611859 0.2536778 -0.06229004 1.61521 0.2614979 -0.05392358 1.625476 0.2683512 -0.03857026 1.638438 0.2701182 -0.01901635 1.640157 0.2692578
82 0.02120417 1.559826 0.231051 -0.06051487 1.629268 0.2658503 -0.03478716 1.589487 0.2560771 -0.02844622 1.590511 0.264277 -0.02195409 1.599505 0.2729929 -0.01510518 1.608408 0.2711736 -0.06260441 1.610443 0.2529581 -0.06237486 1.61427 0.2609066 -0.05387115 1.624056 0.2679437 -0.03889644 1.637283 0.2699919 -0.01957786 1.639768 0.2692372
83 0.02183338 1.55986 0.2314201 -0.06095183 1.627975 0.265677 -0.03465746 1.588846 0.2553335 -0.02765114 1.589466 0.2633443 -0.02164323 1.598907 0.2722402 -0.01514566 1.608271 0.2709865 -0.06291659 1.609218 0.2526627 -0.0623741 1.613429 0.2605379 -0.05367958 1.622673 0.267744 -0.03918945 1.636422 0.2699934 -0.02002055 1.639424 0.2693713
84 0.02227812 1.55984 0.2317193 -0.0611316 1.626919 0.2660707 -0.03461672 1.588185 0.2550958 -0.02720486 1.58873 0.2630936 -0.02172667 1.598785 0.2722604 -0.01526192 1.608193 0.2711371 -0.06305005 1.60823 0.2529527 -0.0623357 1.612766 0.2605064 -0.05357179 1.621742 0.2677953 -0.03951278 1.636142 0.2700701 -0.02029957 1.639243 0.2695849
85 0.02256772 1.559874 0.231916 -0.0612368 1.626186 0.2667988 -0.03462394 1.587664 0.2554093 -0.02710132 1.588517 0.263557 -0.02198647 1.599133 0.2728345 -0.01528888 1.608196 0.2714357 -0.063119 1.6075 0.2536737 -0.06225874 1.612385 0.2608193 -0.05358111 1.621442 0.2680609 -0.0397734 1.636383 0.2701673 -0.02038758 1.639241 0.2697499
86 0.02288419 1.559981 0.2320016 -0.06121223 1.6256 0.2677284 -0.03455218 1.587209 0.256114 -0.02715988 1.5887 0.2644878 -0.02222069 1.599794 0.273668 -0.01515049 1.608225 0.2717542 -0.06305573 1.606853 0.2546899 -0.06211185 1.612103 0.2613311 -0.0536768 1.621559 0.2684139 -0.03997265 1.636888 0.2701904 -0.02033541 1.63931 0.2697741
87 0.02317567 1.560086 0.2320942 -0.06110574 1.625132 0.2685949 -0.03454004 1.586795 0.2567599 -0.027416 1.58896 0.2653926 -0.0225695 1.600351 0.2744697 -0.01517067 1.608334 0.272095 -0.06291041 1.606323 0.2556417 -0.06208001 1.611803 0.261642 -0.05396602 1.621753 0.2685696 -0.04027471 1.637284 0.2700634 -0.02043961 1.639409 0.2696614
88 0.02344646 1.560149 0.2322555 -0.06090886 1.624805 0.2693114 -0.0345292 1.58647 0.2572628 -0.02764787 1.589139 0.2661135 -0.02282133 1.600691 0.2750783 -0.01519004 1.60852 0.2723789 -0.06271807 1.605931 0.2564542 -0.06207339 1.611531 0.261838 -0.05422504 1.621891 0.2686241 -0.04051567 1.637497 0.2698947 -0.02059223 1.639532 0.2694692
89 0.02361489 1.560128 0.2324326 -0.06059252 1.624599 0.2699929 -0.03454995 1.586157 0.2576788 -0.02786478 1.589153 0.2666869 -0.02305878 1.600826 0.2755865 -0.01529047 1.608717 0.2727039 -0.06245452 1.605681 0.2572088 -0.06212096 1.611222 0.2619964 -0.05447472 1.621886 0.2686763 -0.04076432 1.637538 0.2697826 -0.0208176 1.63962 0.2693126
90 0.02370494 1.560061 0.2325196 -0.06037718 1.624416 0.2704702 -0.03456186 1.585898 0.257891 -0.02797672 1.589058 0.2670113 -0.02325326 1.600833 0.2758862 -0.01538946 1.60882 0.2728965 -0.06226294 1.605479 0.2577229 -0.06217236 1.610908 0.2621464 -0.0546547 1.621755 0.2687645 -0.04096137 1.637499 0.2697624 -0.02099954 1.639622 0.2692513
91 0.02381132 1.55995 0.2324967 -0.06014571 1.624252 0.2706819 -0.03447274 1.585675 0.2578676 -0.02792729 1.588869 0.2670785 -0.02330647 1.600772 0.2759506 -0.01533673 1.608741 0.2728937 -0.06206116 1.605309 0.2579526 -0.0621275 1.610584 0.2622652 -0.05467592 1.621528 0.2688516 -0.04103168 1.637415 0.2697655 -0.02103779 1.639482 0.269225
92 0.02389066 1.55981 0.2324792 -0.0599926 1.624121 0.2706853 -0.03434969 1.585527 0.2577326 -0.02779238 1.588617 0.2669855 -0.02327231 1.600658 0.2758835 -0.01521081 1.608535 0.2728224 -0.06193926 1.605185 0.2579538 -0.06203106 1.61034 0.2623701 -0.05457054 1.62128 0.2689609 -0.04098585 1.637316 0.2698371 -0.02095983 1.639255 0.2692861
93 0.02397942 1.559663 0.2324845 -0.05984323 1.624071 0.2705074 -0.03418165 1.585455 0.2575286 -0.02756873 1.588375 0.2667413 -0.02313447 1.600585 0.2756786 -0.01500151 1.608252 0.272643 -0.06183223 1.605139 0.2577773 -0.06187086 1.610202 0.2624369 -0.05433877 1.621064 0.2690485 -0.04083036 1.637262 0.2699015 -0.02075325 1.638988 0.269363
94 0.02408505 1.559466 0.2325085 -0.05968204 1.624143 0.2700818 -0.03397358 1.58547 0.257282 -0.02728493 1.588216 0.2663851 -0.02281896 1.600534 0.2753291 -0.01469048 1.607939 0.2723247 -0.06171718 1.605187 0.2573937 -0.06162808 1.610229 0.2623791 -0.05398327 1.620981 0.2689995 -0.04051277 1.637235 0.2698303 -0.02038989 1.63874 0.2693052
95 0.02415694 1.559123 0.2325099 -0.05949622 1.624591 0.2691674 -0.033747 1.585696 0.2568915 -0.02693941 1.588283 0.2658388 -0.02220516 1.600501 0.2747335 -0.01423275 1.607642 0.271739 -0.06152761 1.605527 0.2566439 -0.06125828 1.6106 0.262066 -0.05344043 1.621229 0.2686452 -0.03987316 1.637272 0.2694289 -0.01973511 1.638583 0.2688837
96 0.02417472 1.558625 0.2325717 -0.05947272 1.625432 0.2677456 -0.03354144 1.586141 0.2565766 -0.02662752 1.58865 0.2654001 -0.0213888 1.600508 0.2741832 -0.01363997 1.607414 0.2711374 -0.06130311 1.606158 0.2555271 -0.06078351 1.611355 0.2616398 -0.0527681 1.621897 0.2681261 -0.03892072 1.637428 0.2688434 -0.01879658 1.638564 0.2682491
97 0.02405729 1.558007 0.2327515 -0.05928481 1.626505 0.2661975 -0.03338285 1.586711 0.2564763 -0.02650743 1.589177 0.2652644 -0.0206778 1.600609 0.2738836 -0.01302474 1.607192 0.2707649 -0.06101336 1.60703 0.2542968 -0.06029825 1.612311 0.2613189 -0.05209401 1.622825 0.2677025 -0.03785741 1.637719 0.2683672 -0.01773901 1.638553 0.2677459
98 0.0237189 1.557244 0.2327411 -0.05890418 1.627555 0.2651431 -0.03331064 1.587267 0.2565602 -0.02664527 1.589729 0.2653971 -0.02014777 1.600638 0.2738441 -0.0124424 1.606735 0.2706629 -0.06063579 1.607981 0.2534159 -0.05980966 1.613302 0.261196 -0.05143411 1.623839 0.267522 -0.03670853 1.637995 0.2682112 -0.01655542 1.638318 0.2675821
99 0.02321813 1.556348 0.2323878 -0.05846293 1.62842 0.2649329 -0.03317238 1.587818 0.2569667 -0.02690614 1.590423 0.2658746 -0.01961793 1.600539 0.2739803 -0.0117628 1.606094 0.2705926 -0.06019127 1.608832 0.25325 -0.05923342 1.6143 0.2613043 -0.05072762 1.624979 0.2675658 -0.03536463 1.63821 0.2683243 -0.0151532 1.637883 0.2676426
100 0.02262066 1.555351 0.2320371 -0.05794621 1.629172 0.2652881 -0.03308404 1.588366 0.25776 -0.02720002 1.591311 0.2666491 -0.01909757 1.600495 0.274262 -0.01100109 1.605561 0.270546 -0.05968701 1.609565 0.2536618 -0.05867495 1.615357 0.2614687 -0.05004841 1.626253 0.2675977 -0.03400223 1.638471 0.268379 -0.0137588 1.637509 0.2676105
101 0.02172496 1.553927 0.2315054 -0.05692118 1.630137 0.2659734 -0.0332123 1.588996 0.258969 -0.02761401 1.592141 0.267856 -0.0188875 1.600521 0.275149 -0.01018616 1.605024 0.2711301 -0.05887903 1.610572 0.2543283 -0.05792953 1.616768 0.2617794 -0.04895803 1.627712 0.2677964 -0.0321552 1.638905 0.268553 -0.01192522 1.637012 0.267682
102 0.02070467 1.552598 0.2312931 -0.05575214 1.631292 0.2665426 -0.03352964 1.589622 0.2600301 -0.02794253 1.592566 0.2686995 -0.01911833 1.600621 0.2760329 -0.009851216 1.604733 0.2719697 -0.05799901 1.61182 0.2548071 -0.05736348 1.61812 0.2619196 -0.04791601 1.628699 0.2679976 -0.03061039 1.639321 0.268809 -0.01044322 1.636589 0.2679766
103 0.01964162 1.551337 0.230988 -0.05460685 1.632464 0.266981 -0.03369276 1.590286 0.2609199 -0.02784704 1.592512 0.2691289 -0.01916618 1.600463 0.2766757 -0.009574844 1.604565 0.2727641 -0.0570672 1.613066 0.2551807 -0.0566641 1.619391 0.2621086 -0.04658995 1.629212 0.2683372 -0.02893403 1.6395 0.2691996 -0.008910746 1.636181 0.268322
104 0.01867533 1.550273 0.230428 -0.05357514 1.633491 0.267417 -0.03384531 1.590913 0.2617071 -0.02750086 1.592142 0.2691945 -0.0189295 1.6 0.2769858 -0.009258823 1.604338 0.2734061 -0.05613016 1.61415 0.2555552 -0.05589614 1.620585 0.2622716 -0.04515231 1.629418 0.2686742 -0.02723572 1.639373 0.2695852 -0.007400133 1.635729 0.2685513
105 0.01767264 1.549236 0.2295029 -0.05225761 1.634715 0.2672494 -0.03411569 1.591472 0.2618669 -0.026994 1.591526 0.2683033 -0.01840795 1.599059 0.2763981 -0.008812969 1.603677 0.2735108 -0.05498036 1.615437 0.2553284 -0.05493844 1.621875 0.2620893 -0.04350029 1.629375 0.2687275 -0.02536565 1.638829 0.2698178 -0.005815268 1.634936 0.2686028
106 0.01676124 1.54826 0.228486 -0.05089141 1.635897 0.2663141 -0.0341964 1.591862 0.2613814 -0.02631368 1.591063 0.2669745 -0.01747804 1.59787 0.2750155 -0.008031799 1.602665 0.2727666 -0.05390061 1.61661 0.2544742 -0.05383522 1.622974 0.2617814 -0.04188834 1.629326 0.2685219 -0.02353788 1.638073 0.2697635 -0.004299225 1.633981 0.2683138
107 0.01557989 1.547332 0.2278753 -0.04948621 1.637357 0.2642369 -0.03447351 1.592316 0.2600589 -0.02597917 1.59094 0.2651656 -0.01650095 1.596538 0.2727364 -0.007309086 1.60129 0.27131 -0.05323704 1.618097 0.2525428 -0.05267026 1.624211 0.2613471 -0.0404184 1.629587 0.2681442 -0.02184824 1.637186 0.2696196 -0.002984764 1.632821 0.2679874
108 0.01441349 1.546604 0.2273994 -0.04840712 1.638608 0.2616113 -0.03470101 1.592772 0.2579471 -0.02568055 1.59099 0.263096 -0.0157004 1.595508 0.2702692 -0.006753029 1.600129 0.269527 -0.05300447 1.619453 0.2500131 -0.05156979 1.625215 0.2607083 -0.03923108 1.629886 0.267536 -0.02054501 1.636508 0.2692337 -0.001991269 1.631877 0.2675245
109 0.01367061 1.54608 0.2269892 -0.04770007 1.639373 0.2590159 -0.03468478 1.593108 0.2559544 -0.02515882 1.591064 0.2612218 -0.01471889 1.59471 0.2679158 -0.006068861 1.599269 0.2676401 -0.05304058 1.620325 0.2475171 -0.05050121 1.625922 0.2600024 -0.03816589 1.630155 0.2667927 -0.01944839 1.636011 0.2685953 -0.001111473 1.631245 0.266821
110 0.0132914 1.54553 0.2262992 -0.04692106 1.639654 0.255951 -0.03442362 1.593114 0.2539533 -0.0244084 1.59102 0.2591026 -0.01326164 1.593668 0.2650074 -0.00502056 1.598425 0.2650495 -0.05309766 1.620748 0.2445794 -0.04937412 1.626337 0.2588976 -0.03705994 1.630332 0.2655823 -0.01836372 1.635285 0.2673875 -0.0001901018 1.630652 0.2654835
111 0.01296741 1.54484 0.2252803 -0.04578265 1.639233 0.2535198 -0.03437401 1.59263 0.2519977 -0.02400487 1.59061 0.2570175 -0.01221317 1.592535 0.2624954 -0.00421784 1.597562 0.2626627 -0.05297953 1.620746 0.2419913 -0.04853878 1.626215 0.2576758 -0.03629629 1.630135 0.2643232 -0.01765017 1.63434 0.2661556 0.0004459646 1.629893 0.2641842
112 0.01245133 1.543987 0.2242161 -0.04467516 1.638524 0.2518765 -0.034531 1.591858 0.2503042 -0.02395361 1.589889 0.2552615 -0.01187009 1.591521 0.2608701 -0.003875274 1.59668 0.2611762 -0.05271874 1.620586 0.2399779 -0.04800039 1.625745 0.2565672 -0.0358633 1.629552 0.2632991 -0.01728107 1.633386 0.2652677 0.0007886234 1.628989 0.2633727
113 0.01184064 1.543145 0.2234034 -0.04375748 1.637632 0.2511961 -0.03483606 1.590924 0.2490587 -0.02427648 1.58903 0.2541149 -0.01238244 1.590797 0.2603849 -0.00417512 1.595894 0.260753 -0.05244257 1.620402 0.2386747 -0.04780339 1.625052 0.2557182 -0.03583577 1.628722 0.2626828 -0.01731175 1.632605 0.2649685 0.0007861727 1.628021 0.2633594
114 0.011158 1.542369 0.2231685 -0.04280129 1.636912 0.2510304 -0.0351105 1.590255 0.2481945 -0.02469132 1.588416 0.2534365 -0.013101 1.590269 0.2603936 -0.004681869 1.595322 0.2609241 -0.05205727 1.620422 0.2379031 -0.04758798 1.624598 0.2550865 -0.03579588 1.628107 0.2623189 -0.01731453 1.631978 0.2650029 0.0007792628 1.627187 0.2637441
115 0.01048461 1.541727 0.2231493 -0.04182107 1.63649 0.2510847 -0.03531815 1.589928 0.2475066 -0.02506813 1.588112 0.253121 -0.01377673 1.589918 0.2605913 -0.005290695 1.594889 0.2612611 -0.05152167 1.620679 0.2374308 -0.04727932 1.624434 0.2546158 -0.03565773 1.627792 0.2621094 -0.01719148 1.631504 0.26521 0.0008817072 1.626447 0.2643123
116 0.009669567 1.54111 0.2235798 -0.04060282 1.636401 0.2512134 -0.0354996 1.59006 0.2472284 -0.0255318 1.588289 0.2533717 -0.01435268 1.589737 0.261093 -0.005779777 1.594472 0.2618817 -0.05074839 1.621322 0.2370438 -0.04670947 1.624737 0.2544848 -0.03526503 1.62802 0.2622725 -0.01677958 1.631189 0.2658464 0.001212543 1.625691 0.2653536
117 0.008560038 1.540743 0.2240063 -0.03915324 1.636377 0.2525342 -0.03589676 1.590872 0.2475879 -0.02619337 1.58917 0.2542403 -0.01479282 1.589534 0.2618916 -0.006091777 1.593896 0.2629544 -0.04982562 1.622438 0.2375783 -0.04583085 1.62565 0.2551189 -0.03456289 1.628796 0.2632905 -0.01608135 1.6307 0.2674412 0.001748074 1.624677 0.2673451
118 0.007575899 1.540693 0.2242773 -0.03820165 1.636208 0.2546099 -0.03631303 1.59184 0.2484403 -0.02687487 1.590142 0.255382 -0.01514998 1.589289 0.2628405 -0.006352229 1.593264 0.2642441 -0.0491214 1.623496 0.2387225 -0.04502711 1.626723 0.2560447 -0.03394591 1.629521 0.2646788 -0.0155906 1.630079 0.2694755 0.002072169 1.623625 0.2698135
119 0.007174563 1.540912 0.2236713 -0.0372532 1.635308 0.2574329 -0.0367121 1.592667 0.2484137 -0.02797197 1.591035 0.2559269 -0.01572997 1.588959 0.262862 -0.006781888 1.592389 0.2647355 -0.04822703 1.624194 0.240412 -0.04459578 1.627526 0.2560533 -0.03378303 1.630044 0.2652705 -0.01569701 1.629277 0.2708195 0.001787807 1.622428 0.2716862
120 0.006736016 1.541548 0.2229914 -0.03583309 1.635035 0.2614471 -0.03675932 1.593803 0.2490593 -0.02869259 1.592312 0.2568963 -0.0157645 1.588879 0.2630599 -0.00633479 1.591954 0.2656713 -0.046849 1.625137 0.2437327 -0.04369925 1.628611 0.2569277 -0.03294853 1.630954 0.2665069 -0.01510884 1.628751 0.2723255 0.002194268 1.621827 0.2733021
121 0.006256957 1.542421 0.2222041 -0.03421916 1.635573 0.2642255 -0.03659321 1.595055 0.2497369 -0.02900583 1.59369 0.2577284 -0.01555335 1.589017 0.2631287 -0.005807258 1.591903 0.2664853 -0.04528461 1.626525 0.2461031 -0.04234044 1.630087 0.2576801 -0.0315787 1.632259 0.2675001 -0.01399191 1.628642 0.2733676 0.003135966 1.621679 0.2743449
122 0.005763414 1.543323 0.2213707 -0.03255076 1.635349 0.2671314 -0.03639873 1.595961 0.2510275 -0.02951862 1.59451 0.2591639 -0.01600882 1.589365 0.2642514 -0.005757969 1.592185 0.2679864 -0.04385286 1.627617 0.2485549 -0.04079722 1.63136 0.2587261 -0.03003727 1.633199 0.2688121 -0.01264387 1.628731 0.274757 0.00435443 1.621564 0.275768
123 0.005198051 1.544325 0.2203629 -0.03121412 1.634556 0.2702462 -0.03636542 1.59687 0.2526195 -0.03076993 1.595136 0.2612154 -0.01745684 1.590187 0.2664604 -0.006321211 1.593019 0.2703124 -0.0426658 1.628476 0.2511479 -0.03901491 1.632735 0.2594704 -0.02833493 1.633982 0.2698645 -0.01111809 1.629204 0.2760761 0.005759464 1.621757 0.2772744
124 0.004729768 1.545357 0.2189902 -0.03030069 1.633332 0.2730948 -0.03666617 1.597607 0.254298 -0.03244916 1.595621 0.2633231 -0.01937418 1.59116 0.268949 -0.007264971 1.593978 0.2725874 -0.0417665 1.628853 0.2535453 -0.03734314 1.633943 0.2598064 -0.02680206 1.634467 0.2704598 -0.009714301 1.629683 0.277009 0.007055835 1.621938 0.2784409
125 0.004432163 1.546408 0.2178143 -0.02833893 1.630903 0.2758167 -0.037198 1.598171 0.2561284 -0.03411904 1.595906 0.2654605 -0.02139997 1.592482 0.271879 -0.007832181 1.596134 0.2753745 -0.04035375 1.628819 0.256166 -0.03570221 1.634855 0.2604764 -0.02535894 1.634451 0.2712451 -0.008232026 1.630067 0.2781712 0.008905178 1.622712 0.279961
126 0.004058158 1.547439 0.2170236 -0.02630157 1.628753 0.2780236 -0.03797362 1.599265 0.2575678 -0.03581029 1.596575 0.2667567 -0.02322369 1.5941 0.2738904 -0.007878592 1.600413 0.2778306 -0.03878702 1.62874 0.2585365 -0.03412902 1.636188 0.2603122 -0.0240789 1.634668 0.2710546 -0.00698663 1.630735 0.2784746 0.01153103 1.62483 0.281198
127 0.003877019 1.548435 0.2165518 -0.02535485 1.627594 0.2801944 -0.03861743 1.60061 0.2584519 -0.03695485 1.597609 0.2673114 -0.02486929 1.596083 0.2755957 -0.008313014 1.604163 0.2797678 -0.03781401 1.628541 0.2607099 -0.03297827 1.637458 0.2599321 -0.02326629 1.635043 0.270637 -0.006166393 1.631639 0.2786171 0.01346685 1.626392 0.2822857
128 0.003754565 1.549429 0.2161281 -0.02505417 1.627723 0.2814189 -0.03841091 1.601835 0.258496 -0.03725712 1.598773 0.2676397 -0.02578489 1.598115 0.2772983 -0.008623731 1.60645 0.2815312 -0.03729253 1.629045 0.2618273 -0.03203415 1.638431 0.2601689 -0.02257503 1.635511 0.2708882 -0.005374946 1.632561 0.279332 0.01469177 1.627063 0.2835281
129 0.003649562 1.550345 0.215565 -0.02559019 1.628745 0.2817092 -0.03813142 1.603002 0.2585815 -0.03781513 1.600495 0.2687898 -0.02663593 1.600339 0.2793743 -0.008932328 1.607691 0.283123 -0.03737453 1.630069 0.2618601 -0.03124724 1.63926 0.2605657 -0.02190343 1.636329 0.2714306 -0.004603836 1.633531 0.2802022 0.01530563 1.627167 0.2845628
130 0.00356227 1.551106 0.2147809 -0.02683883 1.629721 0.2818454 -0.03808424 1.603978 0.2590621 -0.03884932 1.602476 0.2706761 -0.02746451 1.602085 0.281027 -0.009381701 1.607998 0.2838773 -0.03801462 1.630783 0.2616467 -0.03061448 1.639961 0.2606796 -0.02125558 1.637262 0.271718 -0.004004566 1.634181 0.2806547 0.01541275 1.62688 0.2849854
131 0.00351017 1.55161 0.2137734 -0.0286234 1.63063 0.281633 -0.03835629 1.604829 0.259832 -0.04053375 1.604736 0.2730915 -0.02866232 1.603516 0.282346 -0.01014132 1.607861 0.2840518 -0.03903396 1.631236 0.2610295 -0.03000309 1.640571 0.2603876 -0.02055676 1.638148 0.2716352 -0.003514438 1.634318 0.280643 0.0152854 1.626095 0.2848935
132 0.003467671 1.551999 0.2126882 -0.02953933 1.630964 0.281297 -0.03849944 1.605449 0.2602787 -0.04165199 1.606314 0.2744228 -0.02948166 1.604407 0.2829143 -0.01067508 1.607544 0.2838951 -0.03947284 1.631525 0.2604613 -0.0292485 1.64105 0.2600883 -0.01975885 1.638715 0.2715346 -0.002923715 1.63411 0.2805375 0.01532715 1.625142 0.2846614
133 0.003364559 1.552219 0.2119352 -0.02974211 1.630745 0.2811321 -0.03876289 1.605936 0.2607634 -0.04249842 1.607584 0.275509 -0.03006171 1.605436 0.2836741 -0.01076171 1.60788 0.2843336 -0.03949203 1.631648 0.2602128 -0.02854162 1.641367 0.2600234 -0.01902053 1.639145 0.2716637 -0.002263441 1.634001 0.2806672 0.0158274 1.624558 0.284785
134 0.003296294 1.552355 0.211553 -0.02979274 1.630361 0.2810502 -0.03909403 1.606336 0.2612486 -0.04339414 1.608834 0.2766545 -0.03062271 1.606577 0.2846363 -0.01092666 1.608408 0.2850935 -0.03945148 1.631717 0.260097 -0.02808229 1.641596 0.2600861 -0.01849872 1.63966 0.2719702 -0.001785892 1.634116 0.2809753 0.0161857 1.624231 0.2851292
135 0.003326457 1.552389 0.2112003 -0.03010093 1.629859 0.280834 -0.03966497 1.60658 0.2614918 -0.04493594 1.610529 0.2782544 -0.03171625 1.607862 0.2858441 -0.01185932 1.608586 0.2857666 -0.03955941 1.631594 0.2598021 -0.02804178 1.641674 0.2599505 -0.01833514 1.640248 0.2721615 -0.00175568 1.634279 0.281184 0.01573126 1.623815 0.2852858
136 0.003354167 1.55232 0.210661 -0.03068795 1.62934 0.2804029 -0.04046534 1.606683 0.2615468 -0.04703446 1.612931 0.280484 -0.03319551 1.609231 0.2871399 -0.01322553 1.608507 0.2862451 -0.03983023 1.63133 0.2592434 -0.02831088 1.641602 0.2595922 -0.01839564 1.640897 0.2721829 -0.002049353 1.634394 0.2812059 0.01477631 1.623299 0.2851821
137 0.003393208 1.55225 0.2097808 -0.03166328 1.628833 0.2799186 -0.04164907 1.606806 0.2619806 -0.04953168 1.616442 0.2836702 -0.03494789 1.61087 0.2887751 -0.01423219 1.60897 0.2869741 -0.04031603 1.630859 0.2585595 -0.0288424 1.641422 0.2591144 -0.01858714 1.641654 0.2721691 -0.002477554 1.634566 0.2811008 0.01417232 1.623158 0.285033
138 0.003457946 1.55238 0.2092186 -0.03252755 1.628939 0.2798327 -0.04263907 1.606837 0.2625779 -0.05105706 1.619772 0.2865209 -0.03591732 1.612641 0.2904626 -0.01360228 1.61084 0.2886429 -0.04061383 1.630726 0.258247 -0.02937193 1.641303 0.2591855 -0.01872642 1.642676 0.2727036 -0.002583583 1.635263 0.2815273 0.01506851 1.623989 0.2857737
139 0.003566451 1.552594 0.2088824 -0.03289992 1.629077 0.2798809 -0.04294198 1.606625 0.2623038 -0.05159949 1.621054 0.287278 -0.03626531 1.613399 0.2909504 -0.01275934 1.612195 0.2896929 -0.04055887 1.630719 0.258145 -0.0298804 1.641189 0.2593044 -0.01895202 1.643571 0.2732354 -0.002728477 1.636018 0.281981 0.01591773 1.624783 0.2865651
140 0.003602764 1.552837 0.2085329 -0.03308377 1.629226 0.2799047 -0.04287212 1.606348 0.2614897 -0.05191383 1.621351 0.2870161 -0.03653535 1.613834 0.2909456 -0.01234266 1.61288 0.2901156 -0.04035216 1.630804 0.258047 -0.03033932 1.641111 0.2592995 -0.01923157 1.644261 0.2735903 -0.002909654 1.636679 0.2823225 0.01630529 1.625274 0.2871401
141 0.003544481 1.552948 0.2081064 -0.03317236 1.629152 0.2798769 -0.04274925 1.606006 0.2603883 -0.05227074 1.62097 0.2861839 -0.03692573 1.613803 0.2905187 -0.01253215 1.612703 0.2898329 -0.04009574 1.630768 0.2579244 -0.0307026 1.640946 0.2591025 -0.01958472 1.644442 0.273651 -0.003222023 1.63692 0.2824333 0.0160669 1.625263 0.2873591
142 0.003444772 1.552955 0.2077286 -0.03315312 1.62896 0.2798176 -0.04259323 1.605629 0.2592947 -0.05260706 1.62022 0.2851954 -0.03730001 1.613363 0.2898633 -0.0129808 1.612071 0.2892763 -0.03981733 1.630703 0.2578036 -0.03092081 1.640715 0.2589025 -0.01991769 1.64422 0.2736085 -0.00358371 1.636786 0.2824741 0.01554084 1.624939 0.2874304
143 0.003318543 1.552988 0.2074325 -0.03299941 1.628628 0.2796848 -0.04230843 1.605286 0.2578852 -0.05294856 1.619307 0.283912 -0.03762785 1.61259 0.2887628 -0.01360798 1.611156 0.2883875 -0.03948518 1.630716 0.2576515 -0.03109284 1.640525 0.258678 -0.02029814 1.643862 0.2734972 -0.004082961 1.636506 0.2824855 0.01468295 1.624501 0.2874127
144 0.003301198 1.553046 0.2071922 -0.03272688 1.62805 0.2794544 -0.04188415 1.604895 0.2563697 -0.05324823 1.618533 0.2827684 -0.03779204 1.611694 0.2875472 -0.01428139 1.610086 0.2874213 -0.03916784 1.630704 0.2574648 -0.03127254 1.640269 0.2585089 -0.02066158 1.64353 0.2734468 -0.004604656 1.636208 0.2825393 0.01362299 1.624012 0.2873192
145 0.003358805 1.553111 0.206936 -0.03238337 1.627316 0.2791038 -0.04126776 1.604481 0.2547165 -0.05347988 1.618005 0.2818289 -0.03773938 1.61081 0.2862944 -0.01472108 1.609034 0.286453 -0.03884941 1.630675 0.2572092 -0.03142868 1.639945 0.2583672 -0.02093114 1.643274 0.2734599 -0.005040919 1.635955 0.2826279 0.01265103 1.623546 0.2871986
146 0.003511115 1.55315 0.2066549 -0.03195509 1.626602 0.278607 -0.04051526 1.604155 0.2529685 -0.05364916 1.617805 0.2810094 -0.03752508 1.610051 0.2850105 -0.01501868 1.60798 0.2854804 -0.03841035 1.630701 0.2568244 -0.03145608 1.639614 0.2581779 -0.02102662 1.64313 0.2734889 -0.005322995 1.635746 0.2827444 0.01177408 1.62301 0.2870943
147 0.00371959 1.553185 0.2065305 -0.03161291 1.626168 0.278096 -0.03970813 1.60406 0.2513595 -0.05373796 1.61794 0.2803248 -0.03729437 1.609641 0.2839701 -0.01540649 1.607039 0.284694 -0.03797119 1.630882 0.2563961 -0.03138779 1.639426 0.2580352 -0.02098665 1.643211 0.2736132 -0.005478354 1.635698 0.2829764 0.01089059 1.622486 0.2871127
148 0.004044464 1.553176 0.2064733 -0.0312093 1.625559 0.2772427 -0.03877454 1.604159 0.2494385 -0.05401522 1.618484 0.2792939 -0.03725445 1.609741 0.2828445 -0.01615501 1.606083 0.2837679 -0.03733638 1.631162 0.2556702 -0.03121732 1.639361 0.2576122 -0.02089851 1.643475 0.2736231 -0.005590068 1.635862 0.2832439 0.009684668 1.621856 0.287125
149 0.004489653 1.552972 0.2063215 -0.03080903 1.624717 0.2759576 -0.03812414 1.604383 0.2471977 -0.05421475 1.618668 0.2769769 -0.03759207 1.610646 0.2816983 -0.01712254 1.605624 0.282717 -0.03656176 1.631285 0.2545396 -0.03102003 1.639457 0.256575 -0.02095019 1.6438 0.2730803 -0.005640088 1.636407 0.2831418 0.008407909 1.621505 0.2867742
150 0.005121998 1.552603 0.2058527 -0.03017982 1.623867 0.2743152 -0.03739186 1.604632 0.2444647 -0.05375716 1.617706 0.2730026 -0.03788549 1.611768 0.2801939 -0.01800037 1.605197 0.2811894 -0.03545621 1.631238 0.2530298 -0.03074282 1.639577 0.2549766 -0.02114832 1.643897 0.271879 -0.005578137 1.637133 0.2824689 0.007119098 1.621303 0.2857121
151 0.005912396 1.552187 0.2050489 -0.0296042 1.623405 0.2725577 -0.03684002 1.605 0.2412326 -0.05271318 1.615853 0.2674139 -0.03837686 1.61144 0.2771296 -0.02021633 1.603173 0.2785822 -0.03397699 1.631256 0.2512437 -0.03029723 1.63971 0.2529985 -0.02161544 1.643499 0.2701948 -0.006405925 1.636851 0.2813029 0.004484794 1.619905 0.283856
152 0.006697605 1.551687 0.2033952 -0.02944941 1.622522 0.2708931 -0.03685368 1.605592 0.2376635 -0.05141468 1.614654 0.2613349 -0.03923909 1.609674 0.2725129 -0.02397713 1.6 0.2748036 -0.03226708 1.630816 0.2495007 -0.02938998 1.639741 0.2508212 -0.02182788 1.642732 0.2684731 -0.008094063 1.634793 0.279847 0.00102077 1.616451 0.2818793
153 0.00734299 1.550917 0.2019649 -0.02981497 1.621541 0.2697755 -0.03741212 1.606668 0.2352859 -0.04943131 1.615315 0.2568516 -0.03965989 1.608404 0.2683952 -0.02775391 1.597626 0.2710575 -0.030611 1.630134 0.2483545 -0.02768885 1.63998 0.2494516 -0.02096705 1.642436 0.2678876 -0.009336857 1.632065 0.2792115 -0.002018617 1.612086 0.2809834
154 0.007663324 1.550165 0.2017074 -0.030246 1.620951 0.2692108 -0.03782805 1.608177 0.2348481 -0.0473602 1.617656 0.2555041 -0.03924033 1.609362 0.2672041 -0.02967896 1.597495 0.2697347 -0.02933816 1.629876 0.2479311 -0.02560956 1.64057 0.2494041 -0.01914428 1.642934 0.2688 -0.009032932 1.630608 0.2802867 -0.003537484 1.609245 0.2817545
155 0.008166531 1.549443 0.2020002 -0.03044598 1.621216 0.2673981 -0.03543617 1.608846 0.2330813 -0.04279565 1.61774 0.2518974 -0.03556247 1.611352 0.2663972 -0.0284331 1.598235 0.2691891 -0.02769829 1.630745 0.2465479 -0.02387188 1.640914 0.2491238 -0.01844881 1.64292 0.2692673 -0.008150059 1.630499 0.2825765 -0.004638902 1.608141 0.2838401
156 0.008902205 1.548759 0.2021787 -0.03182563 1.619134 0.2651216 -0.03182092 1.608982 0.2303101 -0.03685266 1.615398 0.2467971 -0.03102689 1.612567 0.2659187 -0.02800999 1.597969 0.2686811 -0.02695335 1.630294 0.2454669 -0.02315293 1.640467 0.248667 -0.02004206 1.641631 0.2690318 -0.008498791 1.630419 0.2853907 -0.007542077 1.607386 0.285357
157 0.009939389 1.547932 0.2027446 -0.03260613 1.617297 0.2601879 -0.02559833 1.609338 0.2273105 -0.02870165 1.61254 0.2422704 -0.02687516 1.610577 0.2635775 -0.02972871 1.594907 0.2637317 -0.02498561 1.630777 0.2429366 -0.02277537 1.640064 0.2479404 -0.02285046 1.64023 0.2678947 -0.01276765 1.628982 0.2869482 -0.01488892 1.604666 0.2850631
158 0.01116951 1.546854 0.2041384 -0.03243073 1.614313 0.2545116 -0.01984503 1.609498 0.2265528 -0.02303261 1.610283 0.2405657 -0.02508304 1.60578 0.2596291 -0.03265275 1.592115 0.2579657 -0.02281284 1.630485 0.2407975 -0.02274251 1.639591 0.2476914 -0.02568478 1.638916 0.2670287 -0.02014899 1.62608 0.2861515 -0.02292974 1.601836 0.283258
159 0.01221208 1.545966 0.2050585 -0.03131492 1.613649 0.2497456 -0.01668514 1.608819 0.2265015 -0.0210798 1.607064 0.2387466 -0.02535721 1.600202 0.2545684 -0.0347953 1.589787 0.2543788 -0.02056245 1.631054 0.2384602 -0.02389742 1.638331 0.2478007 -0.02905101 1.636317 0.265588 -0.02752279 1.62211 0.2831734 -0.02883445 1.599298 0.281599
160 0.01319536 1.545128 0.2062872 -0.02988199 1.614532 0.2456488 -0.01495911 1.607953 0.2259392 -0.02153669 1.603508 0.235119 -0.0267575 1.596712 0.2507447 -0.03665743 1.588488 0.2531195 -0.01810414 1.632238 0.2358456 -0.02615057 1.636914 0.2468328 -0.03321788 1.63351 0.2623498 -0.03416631 1.619244 0.2796169 -0.03411531 1.597943 0.2806987
161 0.01447283 1.544661 0.207779 -0.02870315 1.616906 0.2430686 -0.01357881 1.606942 0.2245179 -0.02129177 1.599763 0.2303392 -0.02830975 1.595812 0.2481394 -0.03847997 1.588702 0.2526708 -0.01520686 1.63377 0.2340045 -0.02819197 1.635867 0.2439456 -0.03679303 1.630872 0.2562401 -0.03973186 1.618111 0.275374 -0.03919743 1.597829 0.279552
162 0.01519669 1.545054 0.2095755 -0.02722215 1.62017 0.2417907 -0.01143927 1.607643 0.2237685 -0.01984731 1.599148 0.2272768 -0.03072342 1.59814 0.2469862 -0.04269352 1.592491 0.2534123 -0.01148883 1.63578 0.2342353 -0.02865645 1.636368 0.2415285 -0.0385861 1.630427 0.2511545 -0.04431316 1.619202 0.2728053 -0.04473271 1.59877 0.2798858
163 0.01595497 1.545033 0.2111779 -0.02630725 1.621671 0.2400194 -0.009271109 1.607926 0.2229573 -0.0177261 1.59817 0.2248518 -0.03153747 1.598677 0.2432923 -0.04654305 1.595945 0.2543124 -0.009225341 1.636567 0.2341458 -0.02841979 1.636742 0.2385828 -0.03903664 1.630058 0.2458164 -0.04767882 1.620169 0.268077 -0.04916804 1.599679 0.2802817
164 0.01659194 1.544819 0.2128392 -0.02652256 1.622043 0.2375836 -0.00736006 1.608161 0.2217644 -0.01571724 1.598385 0.2228468 -0.03204561 1.599161 0.2381961 -0.05177151 1.599977 0.2542459 -0.008502667 1.6365 0.2338343 -0.02768316 1.637362 0.2351657 -0.03906069 1.630544 0.2406309 -0.05067629 1.621444 0.2620038 -0.05399987 1.6004 0.2799249
165 0.01647062 1.544876 0.2134299 -0.02768262 1.621679 0.2340568 -0.005774662 1.60873 0.2210534 -0.01378752 1.599014 0.2217138 -0.0317177 1.599855 0.2333773 -0.05693954 1.604055 0.2535538 -0.009380328 1.636165 0.2324981 -0.02641348 1.638557 0.232035 -0.03836734 1.631705 0.2358781 -0.0525365 1.623157 0.2556938 -0.05813991 1.600947 0.2789336
166 0.01613282 1.545355 0.2140018 -0.02857518 1.621768 0.2299231 -0.004331739 1.610026 0.2211961 -0.01221836 1.60047 0.2219553 -0.03103368 1.601394 0.2296248 -0.06315101 1.609809 0.2534137 -0.01033715 1.636427 0.2304534 -0.02471432 1.640514 0.2295124 -0.03719274 1.633798 0.2318483 -0.05368038 1.625648 0.2498822 -0.06148396 1.601625 0.2782099
167 0.01628952 1.546095 0.2149177 -0.0281368 1.621534 0.2257377 -0.002393815 1.611872 0.2228902 -0.01122657 1.604121 0.2274427 -0.02901641 1.602616 0.2284892 -0.06474203 1.61428 0.2503616 -0.01055374 1.636782 0.2280556 -0.02212807 1.642697 0.2280123 -0.03506948 1.636226 0.2290296 -0.05305972 1.628193 0.2444607 -0.0632678 1.604102 0.2754767
168 0.01663476 1.546273 0.2161867 -0.02690794 1.621718 0.222519 -0.0004034097 1.61399 0.2265606 -0.0122498 1.609512 0.2329598 -0.02671613 1.603771 0.22767 -0.06439753 1.617731 0.2471824 -0.009653567 1.637021 0.2262789 -0.01868305 1.644569 0.2277284 -0.03234475 1.638943 0.2278211 -0.05132724 1.630545 0.2405192 -0.06417885 1.606307 0.2726136
169 0.01650173 1.546634 0.2173982 -0.02455316 1.622417 0.2211859 0.0003271132 1.616014 0.230894 -0.01463739 1.613974 0.2356963 -0.02525329 1.605295 0.2275632 -0.0634508 1.619549 0.245509 -0.007751252 1.637729 0.2265337 -0.01573392 1.646101 0.2283146 -0.03081155 1.642516 0.2284181 -0.0501176 1.63285 0.2380594 -0.06515469 1.607559 0.2707539
170 0.01607062 1.546783 0.2186975 -0.02069891 1.624121 0.2201557 0.0006432256 1.61682 0.234073 -0.01586709 1.618278 0.2357319 -0.02585847 1.608784 0.2283866 -0.059767 1.619391 0.2426548 -0.004179449 1.639058 0.2271421 -0.01246808 1.647358 0.2288426 -0.030477 1.648202 0.2309577 -0.0499086 1.636269 0.2372655 -0.06582588 1.609773 0.2679065
171 0.01591336 1.546413 0.2195531 -0.01704497 1.626123 0.2197838 0.001113963 1.616652 0.2356778 -0.01710892 1.624413 0.234935 -0.02936327 1.614401 0.2313218 -0.05342083 1.617709 0.2364621 -0.0003618425 1.640076 0.2281958 -0.009237021 1.647967 0.2289774 -0.03191356 1.654637 0.2365356 -0.05106252 1.63992 0.2396659 -0.06516966 1.615002 0.261404
172 0.01595466 1.545691 0.2198404 -0.015266 1.627577 0.2191046 0.001768002 1.616585 0.236289 -0.01993809 1.633461 0.235463 -0.03181778 1.617789 0.2313098 -0.04489178 1.614546 0.2261818 0.001788059 1.640341 0.2285359 -0.006820701 1.648077 0.2286046 -0.03622057 1.660469 0.2486479 -0.05224444 1.641997 0.2423019 -0.06179179 1.622104 0.2491816
173 0.01567166 1.545294 0.2193124 -0.01503239 1.629528 0.218041 0.002402813 1.617891 0.2365409 -0.02701162 1.648703 0.2487157 -0.03103871 1.620614 0.2296623 -0.03507069 1.607298 0.2170409 0.00250196 1.640466 0.2286675 -0.004778272 1.64844 0.227436 -0.04065192 1.652864 0.2802167 -0.0517436 1.644006 0.2423616 -0.05243594 1.624338 0.2318049
174 0.01548619 1.544786 0.2190558 -0.0143111 1.632211 0.2183089 0.003047721 1.619836 0.2377258 -0.02913542 1.654591 0.261208 -0.02796637 1.619908 0.2279815 -0.03006104 1.60184 0.213605 0.003729343 1.640368 0.2303107 -0.001932638 1.648383 0.2265843 -0.03793048 1.643051 0.2885196 -0.0473677 1.646146 0.2375966 -0.0445071 1.62313 0.2217
175 0.01488702 1.544019 0.2198391 -0.01220699 1.636404 0.2211408 0.003257074 1.621225 0.2392028 -0.0240558 1.65206 0.2581074 -0.02401943 1.614787 0.2270171 -0.02809419 1.596071 0.214072 0.006374666 1.640548 0.2341387 0.001095634 1.647892 0.2267012 -0.03672375 1.64666 0.286218 -0.0393098 1.645561 0.228063 -0.03848486 1.621035 0.2160132
176 0.01383517 1.543646 0.2205686 -0.009209018 1.640089 0.2253526 0.003483459 1.621999 0.240211 -0.01613441 1.646569 0.2415932 -0.02106344 1.609803 0.2269292 -0.02185754 1.593302 0.2114993 0.009501177 1.640782 0.2387416 0.003319112 1.647704 0.2274606 -0.03301531 1.661855 0.266768 -0.03101798 1.642011 0.2202788 -0.03595431 1.620154 0.2138617
177 0.01303721 1.543566 0.2210594 -0.006799717 1.64212 0.2286187 0.004177132 1.622335 0.2407199 -0.01095943 1.63967 0.2310354 -0.01865681 1.60676 0.2272461 -0.01582316 1.594625 0.2095143 0.01178998 1.64081 0.2421774 0.004620541 1.647694 0.2281022 -0.02593472 1.667383 0.2451575 -0.02558483 1.63853 0.2162544 -0.03534283 1.62045 0.2131683
178 0.01244978 1.543413 0.2211967 -0.004600496 1.642997 0.2310162 0.005604574 1.622072 0.2405223 -0.007525832 1.632658 0.22742 -0.01603661 1.603593 0.2265836 -0.01390391 1.596424 0.2089605 0.01372905 1.64043 0.2447847 0.005819525 1.647533 0.2281729 -0.01910812 1.663692 0.234182 -0.02204053 1.636091 0.2141326 -0.03458226 1.621321 0.2126875
179 0.01191801 1.543005 0.2212919 -0.00333214 1.643372 0.2321883 0.007150818 1.62136 0.2401339 -0.005095777 1.628332 0.2272221 -0.0130647 1.600587 0.2250323 -0.01407563 1.596817 0.2094401 0.01480101 1.639802 0.2460147 0.006833126 1.647135 0.2279648 -0.01580039 1.661273 0.2306854 -0.02059616 1.635698 0.213489 -0.03386972 1.622104 0.2123694
180 0.01140888 1.542456 0.2214203 -0.00265054 1.643447 0.2324875 0.008519657 1.620481 0.2397884 -0.004157879 1.62747 0.2274871 -0.01014881 1.598562 0.222795 -0.01479051 1.596994 0.2102674 0.01531521 1.639112 0.2463133 0.007681714 1.646639 0.2277892 -0.01496581 1.660786 0.2304778 -0.02013428 1.636156 0.2134677 -0.03341715 1.622705 0.2121528
181 0.01107246 1.541974 0.221505 -0.002107869 1.643496 0.2327216 0.009693903 1.619643 0.2397353 -0.003708544 1.627722 0.2280022 -0.007657645 1.597409 0.2207923 -0.01556966 1.597006 0.2110274 0.01570354 1.638512 0.2465192 0.008426153 1.646199 0.2279753 -0.01454329 1.660765 0.2310953 -0.01972398 1.63658 0.2137638 -0.03288182 1.623129 0.212146
182 0.01086238 1.541669 0.2215785 -0.001590817 1.643659 0.2331672 0.01055797 1.618923 0.2399422 -0.003368608 1.627912 0.2285773 -0.006009555 1.596802 0.2197784 -0.0156548 1.596833 0.2114293 0.0161052 1.638125 0.2468903 0.008989247 1.645897 0.2284746 -0.01407645 1.66066 0.2316902 -0.0192246 1.636705 0.2141899 -0.03225908 1.623296 0.2123107
183 0.0107139 1.541471 0.221745 -0.001123081 1.64393 0.2337718 0.01100363 1.61837 0.2402753 -0.003279568 1.628258 0.2291123 -0.005340766 1.596555 0.2196005 -0.01551386 1.596663 0.2116553 0.01651713 1.637939 0.2473598 0.009246579 1.645687 0.2290417 -0.0141045 1.660731 0.2325728 -0.0189709 1.636697 0.2147132 -0.03190552 1.623274 0.2126701
184 0.01073287 1.54141 0.2222917 -0.001064206 1.644129 0.2338995 0.01088093 1.618068 0.2407296 -0.003887319 1.629019 0.2296345 -0.005811321 1.596509 0.2200831 -0.01630107 1.596072 0.2122071 0.0166553 1.638144 0.2473834 0.008715109 1.645588 0.2296091 -0.01529481 1.661065 0.2340848 -0.01950034 1.636547 0.215515 -0.03214635 1.622912 0.2134506
185 0.0108191 1.542005 0.2230994 -0.003334645 1.643014 0.2337291 0.009769928 1.618679 0.2415685 -0.005892107 1.630832 0.23094 -0.008282347 1.597242 0.2221207 -0.01768531 1.595394 0.2134817 0.01490333 1.638667 0.2472043 0.007048919 1.646114 0.230539 -0.01796861 1.662189 0.2374889 -0.02138449 1.636731 0.2172902 -0.03348078 1.622456 0.2153479
186 0.0110885 1.543113 0.223786 -0.006931169 1.640558 0.2324066 0.00806642 1.620057 0.2421291 -0.009113343 1.633866 0.2327908 -0.01218067 1.599339 0.2250862 -0.01890727 1.595002 0.2144845 0.01188414 1.639423 0.2458185 0.004580246 1.647094 0.2310337 -0.02189306 1.663853 0.2421847 -0.02457516 1.637424 0.2195198 -0.03574432 1.621931 0.2177456
187 0.0117588 1.544536 0.2244262 -0.01059673 1.636505 0.2303856 0.006169441 1.62199 0.2430171 -0.013339 1.639665 0.236833 -0.01762883 1.60388 0.2294798 -0.02000367 1.594846 0.2163585 0.008082276 1.639904 0.2437093 0.001816798 1.64835 0.2318255 -0.02734881 1.666118 0.2521174 -0.02849319 1.638941 0.2227604 -0.03811564 1.62132 0.2204367
188 0.01267599 1.545925 0.2249776 -0.01282803 1.632698 0.2289702 0.004374515 1.623871 0.2439107 -0.0202639 1.648986 0.2460391 -0.0230746 1.610563 0.2328445 -0.020999 1.59518 0.2184024 0.005036737 1.640219 0.2418039 -0.0009181515 1.649556 0.2326939 -0.03502778 1.663615 0.2718798 -0.03467229 1.642398 0.2284722 -0.04053017 1.620766 0.2232055
189 0.01397678 1.547134 0.2252817 -0.01379829 1.629511 0.2275327 0.00268839 1.625167 0.2444128 -0.02970342 1.657212 0.2614039 -0.02739532 1.617504 0.2345515 -0.02184014 1.595551 0.219983 0.002969467 1.640543 0.2395023 -0.003584544 1.650283 0.2330607 -0.03915305 1.650711 0.2942591 -0.04425762 1.646799 0.2388524 -0.04293805 1.61988 0.2258008
190 0.0157078 1.548609 0.2235265 -0.01581403 1.626667 0.2254035 0.00107699 1.626033 0.2431758 -0.04044371 1.664049 0.2774054 -0.0357099 1.627677 0.2375763 -0.0248419 1.595383 0.2222669 -0.0003230896 1.640537 0.2360765 -0.006964137 1.650836 0.2321225 -0.0359327 1.641364 0.298544 -0.05571633 1.645674 0.2583376 -0.0458748 1.618926 0.2279986
191 0.01727863 1.549332 0.2213093 -0.01921192 1.624663 0.223802 0.0003426989 1.626342 0.2414061 -0.04270419 1.662423 0.2846783 -0.04191484 1.630564 0.2421204 -0.03090643 1.597568 0.2263941 -0.003895761 1.639662 0.2330529 -0.009755434 1.65104 0.2314661 -0.03215228 1.637922 0.298986 -0.05846346 1.639772 0.2694045 -0.05011677 1.619138 0.2328145
192 0.01829612 1.550203 0.2181572 -0.02396595 1.622705 0.222517 -0.0001054889 1.626257 0.2391146 -0.04310697 1.662853 0.2875554 -0.04119201 1.627039 0.2419334 -0.03924431 1.603251 0.232827 -0.008465617 1.638356 0.2301875 -0.01247565 1.651167 0.2309587 -0.02926915 1.638151 0.2986961 -0.05746433 1.638068 0.2689354 -0.05678147 1.619896 0.2432956
193 0.01941381 1.551032 0.2164312 -0.02850905 1.620497 0.2226181 -0.0004896767 1.62537 0.2369945 -0.04393687 1.660004 0.2793625 -0.0369731 1.619738 0.2393733 -0.04385995 1.605678 0.2395304 -0.01310047 1.637102 0.2281001 -0.01584752 1.650499 0.2311126 -0.02953576 1.640681 0.2991465 -0.05576549 1.63699 0.26119 -0.05992119 1.617114 0.2543268
194 0.02081534 1.551626 0.2156383 -0.03099972 1.620559 0.2267023 -0.0009622483 1.622482 0.2339259 -0.04545932 1.652452 0.2597626 -0.02959017 1.610924 0.2364602 -0.04366441 1.602754 0.2445505 -0.01537179 1.637664 0.2288595 -0.02029346 1.648204 0.2319319 -0.03611758 1.648505 0.2899986 -0.05266962 1.631972 0.2533863 -0.05835641 1.612604 0.2625621
195 0.02246845 1.552459 0.2142699 -0.03183532 1.621455 0.2328347 -0.002594927 1.618699 0.2296589 -0.04138968 1.637477 0.243136 -0.02622016 1.603847 0.2375912 -0.04116908 1.598371 0.2513657 -0.01642464 1.638883 0.230665 -0.02533968 1.644994 0.233764 -0.04263792 1.651486 0.2737283 -0.04996736 1.625688 0.2541064 -0.05358501 1.607834 0.2717727
196 0.02259913 1.553347 0.2100272 -0.03172983 1.622674 0.2394722 -0.007351781 1.614315 0.224828 -0.03006512 1.622092 0.2359726 -0.02587064 1.600631 0.2415576 -0.03742218 1.59541 0.2573749 -0.01746872 1.6398 0.2324462 -0.02940343 1.641427 0.237487 -0.04283283 1.643351 0.2614422 -0.04615038 1.62156 0.2627777 -0.04455541 1.603628 0.2806252
197 0.02051152 1.555194 0.205567 -0.03275281 1.624056 0.2453183 -0.01352631 1.61293 0.2232616 -0.02789523 1.616466 0.2365631 -0.02755577 1.600592 0.2454471 -0.0375836 1.595309 0.2590028 -0.01999974 1.640551 0.2348074 -0.03234481 1.63992 0.241936 -0.04120361 1.639086 0.2622058 -0.04198065 1.620291 0.2709906 -0.0369254 1.601756 0.2846686
198 0.01732502 1.558115 0.2016342 -0.03448681 1.624812 0.2508213 -0.02020711 1.614916 0.224359 -0.03195205 1.620191 0.2439454 -0.03102512 1.603527 0.2507494 -0.04053529 1.597092 0.2611436 -0.02324677 1.640997 0.2382981 -0.03451889 1.641197 0.2473041 -0.03833711 1.640879 0.2710723 -0.03751494 1.621286 0.2794095 -0.03143759 1.601388 0.2868585
199 0.01433024 1.561809 0.1995984 -0.03837468 1.624442 0.2564464 -0.02552596 1.619027 0.2284764 -0.03662543 1.625074 0.2518522 -0.03271627 1.605754 0.2548625 -0.04010799 1.59757 0.2633123 -0.02850368 1.640312 0.2424843 -0.03683706 1.644032 0.252607 -0.03573734 1.643785 0.2790762 -0.03499594 1.622612 0.284028 -0.02849019 1.602436 0.2881154
200 0.01208776 1.565182 0.1991984 -0.04381964 1.62299 0.2636409 -0.03242741 1.621774 0.2337204 -0.04627972 1.630112 0.2629302 -0.03791815 1.60874 0.2618232 -0.03913287 1.598161 0.2684015 -0.03584256 1.637452 0.2473006 -0.04009032 1.646066 0.2581339 -0.03269969 1.646877 0.286743 -0.03148211 1.624924 0.2898017 -0.02449221 1.604323 0.2909496
201 0.009977116 1.567744 0.1998354 -0.04883119 1.623363 0.2709908 -0.04155141 1.622778 0.2396865 -0.05392017 1.635665 0.2759483 -0.04695999 1.613758 0.2737474 -0.03826857 1.600135 0.275187 -0.04248822 1.634838 0.2519525 -0.04203141 1.648253 0.2637037 -0.02975462 1.650098 0.2910732 -0.02644318 1.628538 0.2947028 -0.01965253 1.607374 0.2935898
202 0.008066162 1.569402 0.2001344 -0.05132929 1.62431 0.2759442 -0.05058407 1.622685 0.2451191 -0.05915235 1.638034 0.2838171 -0.05369564 1.616793 0.2827364 -0.03809581 1.60152 0.2788035 -0.04628782 1.633325 0.2553225 -0.04294318 1.649928 0.2672552 -0.02944484 1.651648 0.2917067 -0.02421415 1.630772 0.2958522 -0.01692847 1.609893 0.2938312
203 0.006691861 1.570215 0.1997313 -0.05180869 1.624048 0.2791074 -0.05742554 1.620415 0.2503832 -0.06840732 1.639728 0.2933523 -0.05561405 1.614262 0.2841198 -0.03710032 1.600499 0.278652 -0.04886713 1.631309 0.2574923 -0.04419996 1.649518 0.2681628 -0.03048708 1.652278 0.2896024 -0.0240027 1.631674 0.2936833 -0.01505609 1.611904 0.2913716
204 0.0053751 1.570547 0.1985504 -0.05148116 1.623263 0.2795957 -0.05894418 1.616775 0.251675 -0.06877369 1.642028 0.299311 -0.05257148 1.608421 0.2788667 -0.03531495 1.597464 0.2750728 -0.05085322 1.630307 0.2577238 -0.04538169 1.647481 0.2671553 -0.03043329 1.653291 0.2880484 -0.02452713 1.630977 0.2906963 -0.01423961 1.611958 0.2880725
205 0.004052823 1.571064 0.1994151 -0.05106733 1.622199 0.2802205 -0.05583677 1.6138 0.2505492 -0.06546865 1.64525 0.3036636 -0.04811542 1.605556 0.2760794 -0.03284536 1.596033 0.2731909 -0.05299304 1.630331 0.258757 -0.04641807 1.645498 0.2671987 -0.02827661 1.656912 0.2895359 -0.02449859 1.631306 0.2908879 -0.0136023 1.612273 0.2879139
206 0.003056961 1.571335 0.2015567 -0.05008715 1.620938 0.2809152 -0.05018331 1.611018 0.2477504 -0.06469744 1.642815 0.3026097 -0.04355436 1.603766 0.2736848 -0.02925187 1.595699 0.2716255 -0.0547934 1.630154 0.260235 -0.04781797 1.642965 0.2666587 -0.02869774 1.659371 0.2903344 -0.02496143 1.632275 0.2914838 -0.01311457 1.613851 0.2889759
207 0.002345759 1.571539 0.2044859 -0.0496582 1.621418 0.2819315 -0.04575045 1.609455 0.2465656 -0.06421348 1.636369 0.2982658 -0.03948759 1.602507 0.2717488 -0.02559823 1.596305 0.2706885 -0.05647194 1.630618 0.261738 -0.04908255 1.640929 0.2666143 -0.03123004 1.659904 0.2907989 -0.02585842 1.633094 0.2918918 -0.01280599 1.615945 0.2901755
208 0.001342213 1.572001 0.2071032 -0.0489233 1.621866 0.2840004 -0.04502007 1.608655 0.2478509 -0.06396863 1.627081 0.2923079 -0.03765266 1.600484 0.2699217 -0.02396458 1.597518 0.2701161 -0.05740201 1.630596 0.2641969 -0.05020606 1.63997 0.2674131 -0.03593851 1.656695 0.2904758 -0.02715992 1.632448 0.2916669 -0.01279317 1.617641 0.291073
209 0.0007830991 1.572343 0.2088858 -0.0471395 1.621272 0.2868055 -0.04631068 1.606963 0.2504418 -0.06305275 1.61779 0.2870174 -0.03756507 1.600811 0.2723434 -0.02426381 1.598982 0.2723138 -0.05709099 1.629238 0.2673562 -0.051618 1.639163 0.2685392 -0.04035257 1.651836 0.2892275 -0.02742443 1.633792 0.292423 -0.01218915 1.620013 0.2920807
210 0.0006919204 1.572488 0.2099169 -0.04405504 1.620199 0.2890784 -0.04772893 1.605065 0.25298 -0.0565355 1.608875 0.277098 -0.03749278 1.603176 0.2768431 -0.02402793 1.601451 0.2766518 -0.05553976 1.627407 0.2701965 -0.05285177 1.638125 0.2694294 -0.04349733 1.645542 0.2871902 -0.02697414 1.636858 0.2933973 -0.01080864 1.623741 0.2930992
211 0.0006224014 1.572511 0.2113394 -0.04171253 1.620345 0.2914967 -0.04892182 1.603807 0.2563153 -0.04961888 1.604924 0.2703842 -0.03572287 1.605177 0.2797348 -0.0223686 1.603729 0.2799796 -0.05434882 1.626335 0.2729547 -0.05358776 1.637275 0.2711231 -0.0446943 1.640373 0.2861096 -0.02645904 1.639158 0.2943913 -0.009539188 1.626993 0.2938405
212 0.0007195409 1.572461 0.2133157 -0.04114981 1.621982 0.2933083 -0.04902544 1.603823 0.2586869 -0.04480464 1.603862 0.2669321 -0.03274006 1.604596 0.2787209 -0.02028707 1.604328 0.2803464 -0.05433023 1.626573 0.2747694 -0.05410464 1.636752 0.273165 -0.04498065 1.637152 0.2860342 -0.02675932 1.638671 0.2948493 -0.009283835 1.628318 0.2941388
213 0.001025662 1.572409 0.2149574 -0.04162602 1.624131 0.2940723 -0.0487213 1.604496 0.2595852 -0.04167438 1.604145 0.2657148 -0.02973023 1.60333 0.2763215 -0.0181322 1.603849 0.2786322 -0.05500988 1.6274 0.2754021 -0.05445353 1.636247 0.2749682 -0.04498519 1.63565 0.2865703 -0.0270619 1.637014 0.2948843 -0.009399664 1.628199 0.2938349
214 0.00128561 1.572329 0.2163114 -0.04285432 1.626999 0.293782 -0.04798054 1.605111 0.2598356 -0.04006283 1.604857 0.266959 -0.02759859 1.603089 0.2754653 -0.01637097 1.603608 0.2771369 -0.05623954 1.628838 0.2749227 -0.05473496 1.635669 0.2766978 -0.04496561 1.635861 0.287904 -0.02691383 1.636277 0.2951922 -0.009281956 1.628088 0.293579
215 0.001730833 1.57209 0.2170415 -0.04372675 1.62983 0.29245 -0.04673935 1.605267 0.2590632 -0.03927382 1.604218 0.267395 -0.02629142 1.603095 0.2749779 -0.01536479 1.603494 0.2760441 -0.05694922 1.630385 0.2733918 -0.05507132 1.634888 0.2773429 -0.04508142 1.635693 0.2882187 -0.0269218 1.636172 0.294994 -0.009242598 1.628266 0.2929976
216 0.002200501 1.571654 0.2173992 -0.04424086 1.632721 0.2906707 -0.04605738 1.604912 0.2585694 -0.03850392 1.603184 0.2672124 -0.02522232 1.60289 0.2743571 -0.01476218 1.603214 0.27505 -0.05712999 1.631939 0.2713933 -0.05527364 1.634112 0.2774544 -0.04512074 1.63519 0.2879516 -0.02693173 1.636111 0.2943931 -0.009140447 1.628503 0.2921698
217 0.002743142 1.571041 0.2176571 -0.0450344 1.635856 0.2882954 -0.0457622 1.604036 0.2585751 -0.03785896 1.602531 0.2674429 -0.02409853 1.602744 0.2736777 -0.01422823 1.603023 0.2738733 -0.05737567 1.633409 0.2688065 -0.05551251 1.633304 0.2773266 -0.04526682 1.63502 0.2876131 -0.02703722 1.636213 0.293561 -0.009068136 1.628834 0.2911502
218 0.003211341 1.570334 0.2179933 -0.04598828 1.638455 0.2858535 -0.04531091 1.602881 0.2591068 -0.03760967 1.602394 0.2689035 -0.02325028 1.602804 0.2739532 -0.01365757 1.602718 0.2732302 -0.05776799 1.634473 0.2662754 -0.05565675 1.632395 0.2775148 -0.04543468 1.635522 0.2879417 -0.02704085 1.636663 0.2932355 -0.008901383 1.628998 0.2904809
219 0.003794466 1.569646 0.2185213 -0.04741562 1.63983 0.2837788 -0.04480619 1.6019 0.2595265 -0.03784286 1.602217 0.2705951 -0.02354035 1.603871 0.2760082 -0.01337178 1.602691 0.2737368 -0.05862455 1.634692 0.2641312 -0.05597674 1.631528 0.2775644 -0.04588654 1.636219 0.2882856 -0.02728175 1.638482 0.2934403 -0.008957519 1.629484 0.2902918
220 0.004866192 1.568897 0.2191844 -0.04857579 1.639503 0.2819746 -0.04350384 1.600296 0.2602904 -0.03736634 1.601063 0.2719787 -0.02468256 1.60738 0.2803598 -0.01329453 1.603097 0.2752613 -0.05958162 1.633406 0.2624966 -0.05643138 1.630265 0.2771513 -0.04656106 1.636257 0.2878129 -0.02776788 1.643338 0.2932785 -0.009050351 1.631033 0.2897935
221 0.006103737 1.56823 0.2196849 -0.04970603 1.638515 0.2811085 -0.04200617 1.598712 0.2613016 -0.0358404 1.599595 0.272224 -0.02573054 1.610732 0.2839535 -0.01305961 1.604152 0.2763194 -0.06050616 1.631023 0.2620209 -0.05684704 1.628795 0.2766288 -0.04704859 1.635315 0.2867452 -0.0284305 1.647987 0.2917877 -0.00910883 1.633134 0.288575
222 0.00728873 1.567696 0.2200306 -0.05109614 1.637213 0.2808201 -0.04067838 1.597262 0.2627196 -0.03392515 1.598578 0.2723438 -0.02632312 1.612378 0.2864238 -0.01262936 1.605806 0.2771715 -0.06166263 1.627859 0.2624588 -0.05735219 1.627251 0.2763569 -0.0474943 1.634306 0.285631 -0.02959056 1.650887 0.2893454 -0.009383137 1.635871 0.2865324
223 0.007877534 1.567277 0.2204482 -0.05168203 1.635519 0.281853 -0.03985794 1.595954 0.2647062 -0.03302058 1.597912 0.2736498 -0.02676023 1.612637 0.2886969 -0.01250501 1.607305 0.2786376 -0.06232509 1.624821 0.2643068 -0.0579406 1.625783 0.2768068 -0.04805505 1.633556 0.2853575 -0.03092839 1.651851 0.2876911 -0.0100664 1.638136 0.2849326
224 0.008393071 1.56673 0.2215202 -0.05174191 1.63386 0.2827607 -0.03948142 1.594887 0.266751 -0.03271813 1.597638 0.2750528 -0.0269857 1.611768 0.289666 -0.01294679 1.608476 0.2794981 -0.06273724 1.622164 0.2660957 -0.05906302 1.624514 0.2771233 -0.0493526 1.633148 0.2850835 -0.03281671 1.651312 0.2863793 -0.01151754 1.639815 0.2836161
225 0.009002204 1.566259 0.2221752 -0.0519216 1.632576 0.2840832 -0.03894348 1.593774 0.2685264 -0.03275444 1.596764 0.2768763 -0.02789958 1.611393 0.2910979 -0.01421016 1.610494 0.2816449 -0.06248631 1.619776 0.268001 -0.06038482 1.622728 0.2772236 -0.05098308 1.632171 0.2847544 -0.034935 1.650674 0.2852751 -0.01327926 1.641879 0.2826685
226 0.009574605 1.565795 0.2225745 -0.05253366 1.631706 0.2855285 -0.03828768 1.592841 0.2707371 -0.03332668 1.596582 0.2800597 -0.02809844 1.610653 0.292331 -0.01507975 1.612464 0.2838569 -0.06211615 1.617665 0.2699217 -0.06147231 1.621035 0.2776225 -0.05274217 1.632085 0.2847609 -0.03676724 1.649609 0.2843904 -0.01493121 1.643776 0.2816147
227 0.01013451 1.565078 0.2231001 -0.05352728 1.631085 0.2864243 -0.03796154 1.592296 0.2732276 -0.03430434 1.596776 0.2834831 -0.02855323 1.610538 0.2938021 -0.01619544 1.615742 0.2862879 -0.06189163 1.615853 0.2713051 -0.06259801 1.619938 0.2774655 -0.05453895 1.632508 0.2840826 -0.03854297 1.64884 0.2828583 -0.01708627 1.646239 0.2796614
228 0.01070014 1.564215 0.2239571 -0.05471178 1.630646 0.2871719 -0.03831028 1.592194 0.2752131 -0.03538983 1.597127 0.2859236 -0.02902832 1.610462 0.2945929 -0.01723799 1.618222 0.2876651 -0.06168432 1.614403 0.2724746 -0.06385228 1.619331 0.2768993 -0.05621397 1.632865 0.2829689 -0.04020682 1.648064 0.2811694 -0.0194051 1.647697 0.2774913
229 0.01084097 1.563151 0.2257394 -0.05742562 1.630289 0.2880572 -0.03928013 1.592056 0.277527 -0.03748907 1.598324 0.2888832 -0.02947807 1.610227 0.2955124 -0.01761137 1.617821 0.2875665 -0.06271426 1.613139 0.2737503 -0.06476748 1.619246 0.2771136 -0.05763694 1.634172 0.2826217 -0.04090264 1.647431 0.2806476 -0.0203806 1.647487 0.2769316
230 0.01107852 1.562158 0.2269535 -0.05990775 1.629578 0.2873769 -0.03931338 1.59127 0.2763411 -0.03763294 1.597204 0.2877475 -0.02911928 1.608503 0.2940373 -0.01732616 1.615067 0.2854638 -0.06421486 1.611911 0.2733915 -0.06495316 1.618356 0.2769508 -0.05771743 1.633299 0.2823909 -0.04084376 1.64601 0.2806125 -0.02044666 1.645643 0.2770842
231 0.01147679 1.56129 0.2276756 -0.06124178 1.62843 0.2861641 -0.03913188 1.590088 0.2736597 -0.0371114 1.594862 0.2849914 -0.0295374 1.607199 0.2925703 -0.01759099 1.612445 0.2838641 -0.0653617 1.610648 0.2722715 -0.06500527 1.616907 0.2762984 -0.05746847 1.631166 0.2820058 -0.04105261 1.644909 0.2804307 -0.02047348 1.643511 0.2773846
232 0.01207328 1.560539 0.2280758 -0.06190306 1.626939 0.2852226 -0.03900563 1.588803 0.2711821 -0.03644397 1.592331 0.2824008 -0.03016851 1.605956 0.2913536 -0.01810262 1.610407 0.2829613 -0.0659547 1.60924 0.2712096 -0.06516583 1.615185 0.2753659 -0.05737755 1.628539 0.2814182 -0.04167616 1.643721 0.2801175 -0.02079587 1.641583 0.2775944
233 0.01279589 1.559802 0.2283656 -0.0626242 1.625406 0.2841184 -0.03911182 1.587521 0.2687976 -0.03575843 1.589974 0.2797046 -0.03048585 1.603907 0.2897066 -0.01882359 1.608786 0.2821834 -0.06630678 1.607818 0.2698863 -0.06557712 1.613368 0.2739496 -0.05761572 1.625722 0.2803703 -0.04258353 1.641796 0.2796624 -0.02150644 1.639854 0.2775859
234 0.01355655 1.55895 0.2287897 -0.06302226 1.624003 0.2833565 -0.03918675 1.586266 0.2674226 -0.03527297 1.58838 0.2781188 -0.03072433 1.602363 0.2887515 -0.01939329 1.608154 0.282232 -0.06631333 1.60646 0.2690007 -0.065855 1.611849 0.2727512 -0.05789163 1.62365 0.2793857 -0.04327784 1.640219 0.2790848 -0.02224208 1.638912 0.2772707
235 0.01414812 1.55807 0.2293275 -0.06335782 1.622411 0.2831153 -0.0393664 1.58507 0.266702 -0.03508815 1.587106 0.2771056 -0.0312946 1.601332 0.2884519 -0.0200778 1.608097 0.2827942 -0.06639417 1.604946 0.268631 -0.06624467 1.61043 0.2718589 -0.05832256 1.621883 0.2786702 -0.0441448 1.639004 0.2785901 -0.02320263 1.638324 0.2769929
236 0.01459727 1.557287 0.2298657 -0.06379908 1.621017 0.282906 -0.03954948 1.584078 0.2659682 -0.03516039 1.586213 0.276134 -0.03169523 1.600405 0.2880501 -0.02049187 1.607848 0.2829714 -0.06655435 1.603587 0.2683465 -0.06667239 1.609129 0.2711397 -0.05887677 1.620496 0.2780978 -0.04506581 1.637871 0.2781499 -0.02418991 1.637635 0.2767494
237 0.01508862 1.55672 0.2303493 -0.06465011 1.619859 0.2823139 -0.03963226 1.58328 0.264953 -0.03500297 1.585322 0.2747911 -0.03165981 1.599316 0.2869979 -0.02058572 1.607239 0.2825265 -0.06686034 1.602351 0.2677817 -0.0670814 1.607869 0.2703995 -0.05934499 1.619097 0.2774718 -0.04589906 1.636628 0.2776713 -0.0251442 1.636762 0.2763873
238 0.01569357 1.556249 0.2304841 -0.06587173 1.618761 0.2816121 -0.03908045 1.582659 0.2641648 -0.03386355 1.584303 0.2735134 -0.03042955 1.598312 0.2851189 -0.01967398 1.606221 0.2811443 -0.06706312 1.600954 0.2673827 -0.06706847 1.60659 0.2700931 -0.05918272 1.617553 0.2770864 -0.04621516 1.635368 0.2771998 -0.02552117 1.635639 0.2757858
239 0.0162789 1.555619 0.230417 -0.0670022 1.617289 0.2809638 -0.03849662 1.581829 0.2637614 -0.03277071 1.583073 0.2728655 -0.02902954 1.597306 0.2835265 -0.01899813 1.605648 0.2803295 -0.06731651 1.599267 0.2670143 -0.06681961 1.605361 0.2699911 -0.05873471 1.616115 0.2768844 -0.04615704 1.634048 0.2768629 -0.02556751 1.634815 0.2751661
240 0.01663717 1.554784 0.2305657 -0.06817355 1.615786 0.2803088 -0.03848992 1.580779 0.2634562 -0.03230391 1.581783 0.2723655 -0.0284175 1.596342 0.2822641 -0.01891673 1.605231 0.2798901 -0.06776034 1.59765 0.2665526 -0.06691916 1.604229 0.2695821 -0.05865879 1.614726 0.2764521 -0.04640341 1.632791 0.2763978 -0.02598462 1.634053 0.27455
241 0.01688769 1.554105 0.2311382 -0.06932448 1.614284 0.280075 -0.03886982 1.579748 0.2634746 -0.03239451 1.580622 0.2721764 -0.02875289 1.595731 0.2815425 -0.01958207 1.60519 0.2799231 -0.06833981 1.596149 0.2663789 -0.06740948 1.603282 0.2690225 -0.05904263 1.61351 0.2759719 -0.04709244 1.631921 0.2759944 -0.02681034 1.633569 0.274215
242 0.01721794 1.553631 0.2316922 -0.06966325 1.612971 0.2802258 -0.03906945 1.578965 0.263689 -0.03241565 1.579629 0.2720849 -0.02920457 1.595373 0.28137 -0.02062936 1.606358 0.2805679 -0.06860895 1.594937 0.2664158 -0.06777062 1.60252 0.2685677 -0.05929064 1.612446 0.2756765 -0.0477258 1.631317 0.2757957 -0.02777508 1.633836 0.2739128
243 0.01766189 1.55322 0.2320792 -0.06966057 1.611787 0.2805579 -0.03899045 1.578218 0.2642184 -0.03216893 1.578734 0.2721243 -0.0291779 1.594945 0.2814467 -0.02111428 1.607658 0.2813914 -0.06858861 1.593871 0.2666076 -0.06780244 1.601825 0.2684873 -0.05917234 1.611451 0.275742 -0.04797782 1.630646 0.2759371 -0.02858624 1.634042 0.2736627
244 0.018096 1.552933 0.2321388 -0.06940533 1.610943 0.2806564 -0.03867747 1.57767 0.2646863 -0.03159497 1.578072 0.2720084 -0.02887578 1.594836 0.2812296 -0.02107894 1.608762 0.2818879 -0.06840785 1.59312 0.2665916 -0.06764225 1.601259 0.2685341 -0.05880843 1.610556 0.2758898 -0.0480392 1.630207 0.276089 -0.02917777 1.634124 0.2733535
245 0.01833201 1.552752 0.2319772 -0.0691655 1.610504 0.2804877 -0.03851841 1.577237 0.2648431 -0.03123412 1.577599 0.2716928 -0.02851694 1.594622 0.2807204 -0.02064522 1.608691 0.2818471 -0.06827737 1.592736 0.2663502 -0.06753527 1.600818 0.2685994 -0.05852896 1.609872 0.276018 -0.04798134 1.629755 0.2762935 -0.02932956 1.633781 0.2734097
246 0.01848704 1.552603 0.2317613 -0.0688838 1.610246 0.2801954 -0.03842067 1.576916 0.264684 -0.03103822 1.57729 0.2712826 -0.02803668 1.594023 0.2799591 -0.02003035 1.607447 0.2812525 -0.06818967 1.592512 0.2659955 -0.06743899 1.600461 0.2686058 -0.0583419 1.609388 0.2760629 -0.04765804 1.629092 0.2765842 -0.02890437 1.633077 0.2738893
247 0.01872285 1.552466 0.2315535 -0.06838529 1.610004 0.279925 -0.03826144 1.576593 0.2642803 -0.03084464 1.576984 0.2708193 -0.0274075 1.593004 0.2790386 -0.01935297 1.605448 0.2803868 -0.06798343 1.592311 0.2656438 -0.06728996 1.600016 0.268571 -0.05817675 1.608891 0.2760628 -0.04711951 1.628109 0.2769706 -0.02815551 1.631964 0.274598
248 0.01910877 1.55236 0.231303 -0.06779763 1.609661 0.2797409 -0.03801148 1.576228 0.2636933 -0.03051573 1.576611 0.2702444 -0.02662479 1.59161 0.2780034 -0.01875686 1.60315 0.2794183 -0.06758469 1.592046 0.2653446 -0.06709951 1.599439 0.2683855 -0.05800029 1.608252 0.2759339 -0.04645759 1.626749 0.2773395 -0.0273069 1.630554 0.2752978
249 0.01943536 1.552256 0.231077 -0.06738933 1.609382 0.2796912 -0.03780047 1.575907 0.2632448 -0.03023319 1.576308 0.2698094 -0.0258722 1.590286 0.2771389 -0.01830891 1.601096 0.2785363 -0.06718877 1.591818 0.2652287 -0.06694305 1.598943 0.2682334 -0.05785605 1.607718 0.2758082 -0.04583517 1.625444 0.2776111 -0.02654707 1.629227 0.2757998
250 0.01943536 1.552256 0.231077 -0.06738933 1.609382 0.2796912 -0.03780047 1.575907 0.2632448 -0.03023319 1.576308 0.2698094 -0.0258722 1.590286 0.2771389 -0.01830891 1.601096 0.2785363 -0.06718877 1.591818 0.2652287 -0.06694305 1.598943 0.2682334 -0.05785605 1.607718 0.2758082 -0.04583517 1.625444 0.2776111 -0.02654707 1.629227 0.2757998
251 0.01943536 1.552256 0.231077 -0.06738933 1.609382 0.2796912 -0.03780047 1.575907 0.2632448 -0.03023319 1.576308 0.2698094 -0.0258722 1.590286 0.2771389 -0.01830891 1.601096 0.2785363 -0.06718877 1.591818 0.2652287 -0.06694305 1.598943 0.2682334 -0.05785605 1.607718 0.2758082 -0.04583517 1.625444 0.2776111 -0.02654707 1.629227 0.2757998
252 0.01943536 1.552256 0.231077 -0.06738933 1.609382 0.2796912 -0.03780047 1.575907 0.2632448 -0.03023319 1.576308 0.2698094 -0.0258722 1.590286 0.2771389 -0.01830891 1.601096 0.2785363 -0.06718877 1.591818 0.2652287 -0.06694305 1.598943 0.2682334 -0.05785605 1.607718 0.2758082 -0.04583517 1.625444 0.2776111 -0.02654707 1.629227 0.2757998
253 0.01943536 1.552256 0.231077 -0.06738933 1.609382 0.2796912 -0.03780047 1.575907 0.2632448 -0.03023319 1.576308 0.2698094 -0.0258722 1.590286 0.2771389 -0.01830891 1.601096 0.2785363 -0.06718877 1.591818 0.2652287 -0.06694305 1.598943 0.2682334 -0.05785605 1.607718 0.2758082 -0.04583517 1.625444 0.2776111 -0.02654707 1.629227 0.2757998
254 0.01943536 1.552256 0.231077 -0.06738933 1.609382 0.2796912 -0.03780047 1.575907 0.2632448 -0.03023319 1.576308 0.2698094 -0.0258722 1.590286 0.2771389 -0.01830891 1.601096 0.2785363 -0.06718877 1.591818 0.2652287 -0.06694305 1.598943 0.2682334 -0.05785605 1.607718 0.2758082 -0.04583517 1.625444 0.2776111 -0.02654707 1.629227 0.2757998
255 0.01943536 1.552256 0.231077 -0.06738933 1.609382 0.2796912 -0.03780047 1.575907 0.2632448 -0.03023319 1.576308 0.2698094 -0.0258722 1.590286 0.2771389 -0.01830891 1.601096 0.2785363 -0.06718877 1.591818 0.2652287 -0.06694305 1.598943 0.2682334 -0.05785605 1.607718 0.2758082 -0.04583517 1.625444 0.2776111 -0.02654707 1.629227 0.2757998
256 0.01943536 1.552256 0.231077 -0.06738933 1.609382 0.2796912 -0.03780047 1.575907 0.2632448 -0.03023319 1.576308 0.2698094 -0.0258722 1.590286 0.2771389 -0.01830891 1.601096 0.2785363 -0.06718877 1.591818 0.2652287 -0.06694305 1.598943 0.2682334 -0.05785605 1.607718 0.2758082 -0.04583517 1.625444 0.2776111 -0.02654707 1.629227 0.2757998
257 0.01943536 1.552256 0.231077 -0.06738933 1.609382 0.2796912 -0.03780047 1.575907 0.2632448 -0.03023319 1.576308 0.2698094 -0.0258722 1.590286 0.2771389 -0.01830891 1.601096 0.2785363 -0.06718877 1.591818 0.2652287 -0.06694305 1.598943 0.2682334 -0.05785605 1.607718 0.2758082 -0.04583517 1.625444 0.2776111 -0.02654707 1.629227 0.2757998
258 0.01943536 1.552256 0.231077 -0.06738933 1.609382 0.2796912 -0.03780047 1.575907 0.2632448 -0.03023319 1.576308 0.2698094 -0.0258722 1.590286 0.2771389 -0.01830891 1.601096 0.2785363 -0.06718877 1.591818 0.2652287 -0.06694305 1.598943 0.2682334 -0.05785605 1.607718 0.2758082 -0.04583517 1.625444 0.2776111 -0.02654707 1.629227 0.2757998
259 0.01943536 1.552256 0.231077 -0.06738933 1.609382 0.2796912 -0.03780047 1.575907 0.2632448 -0.03023319 1.576308 0.2698094 -0.0258722 1.590286 0.2771389 -0.01830891 1.601096 0.2785363 -0.06718877 1.591818 0.2652287 -0.06694305 1.598943 0.2682334 -0.05785605 1.607718 0.2758082 -0.04583517 1.625444 0.2776111 -0.02654707 1.629227 0.2757998
260 0.01943536 1.552256 0.231077 -0.06738933 1.609382 0.2796912 -0.03780047 1.575907 0.2632448 -0.03023319 1.576308 0.2698094 -0.0258722 1.590286 0.2771389 -0.01830891 1.601096 0.2785363 -0.06718877 1.591818 0.2652287 -0.06694305 1.598943 0.2682334 -0.05785605 1.607718 0.2758082 -0.04583517 1.625444 0.2776111 -0.02654707 1.629227 0.2757998
261 0.01943536 1.552256 0.231077 -0.06738933 1.609382 0.2796912 -0.03780047 1.575907 0.2632448 -0.03023319 1.576308 0.2698094 -0.0258722 1.590286 0.2771389 -0.01830891 1.601096 0.2785363 -0.06718877 1.591818 0.2652287 -0.06694305 1.598943 0.2682334 -0.05785605 1.607718 0.2758082 -0.04583517 1.625444 0.2776111 -0.02654707 1.629227 0.2757998
262 0.01943536 1.552256 0.231077 -0.06738933 1.609382 0.2796912 -0.03780047 1.575907 0.2632448 -0.03023319 1.576308 0.2698094 -0.0258722 1.590286 0.2771389 -0.01830891 1.601096 0.2785363 -0.06718877 1.591818 0.2652287 -0.06694305 1.598943 0.2682334 -0.05785605 1.607718 0.2758082 -0.04583517 1.625444 0.2776111 -0.02654707 1.629227 0.2757998
263 0.01943536 1.552256 0.231077 -0.06738933 1.609382 0.2796912 -0.03780047 1.575907 0.2632448 -0.03023319 1.576308 0.2698094 -0.0258722 1.590286 0.2771389 -0.01830891 1.601096 0.2785363 -0.06718877 1.591818 0.2652287 -0.06694305 1.598943 0.2682334 -0.05785605 1.607718 0.2758082 -0.04583517 1.625444 0.2776111 -0.02654707 1.629227 0.2757998
264 0.01943536 1.552256 0.231077 -0.06738933 1.609382 0.2796912 -0.03780047 1.575907 0.2632448 -0.03023319 1.576308 0.2698094 -0.0258722 1.590286 0.2771389 -0.01830891 1.601096 0.2785363 -0.06718877 1.591818 0.2652287 -0.06694305 1.598943 0.2682334 -0.05785605 1.607718 0.2758082 -0.04583517 1.625444 0.2776111 -0.02654707 1.629227 0.2757998
265 0.01943536 1.552256 0.231077 -0.06738933 1.609382 0.2796912 -0.03780047 1.575907 0.2632448 -0.03023319 1.576308 0.2698094 -0.0258722 1.590286 0.2771389 -0.01830891 1.601096 0.2785363 -0.06718877 1.591818 0.2652287 -0.06694305 1.598943 0.2682334 -0.05785605 1.607718 0.2758082 -0.04583517 1.625444 0.2776111 -0.02654707 1.629227 0.2757998
266 0.01943536 1.552256 0.231077 -0.06738933 1.609382 0.2796912 -0.03780047 1.575907 0.2632448 -0.03023319 1.576308 0.2698094 -0.0258722 1.590286 0.2771389 -0.01830891 1.601096 0.2785363 -0.06718877 1.591818 0.2652287 -0.06694305 1.598943 0.2682334 -0.05785605 1.607718 0.2758082 -0.04583517 1.625444 0.2776111 -0.02654707 1.629227 0.2757998
267 0.01943536 1.552256 0.231077 -0.06738933 1.609382 0.2796912 -0.03780047 1.575907 0.2632448 -0.03023319 1.576308 0.2698094 -0.0258722 1.590286 0.2771389 -0.01830891 1.601096 0.2785363 -0.06718877 1.591818 0.2652287 -0.06694305 1.598943 0.2682334 -0.05785605 1.607718 0.2758082 -0.04583517 1.625444 0.2776111 -0.02654707 1.629227 0.2757998
268 0.01943536 1.552256 0.231077 -0.06738933 1.609382 0.2796912 -0.03780047 1.575907 0.2632448 -0.03023319 1.576308 0.2698094 -0.0258722 1.590286 0.2771389 -0.01830891 1.601096 0.2785363 -0.06718877 1.591818 0.2652287 -0.06694305 1.598943 0.2682334 -0.05785605 1.607718 0.2758082 -0.04583517 1.625444 0.2776111 -0.02654707 1.629227 0.2757998
269 0.01943536 1.552256 0.231077 -0.06738933 1.609382 0.2796912 -0.03780047 1.575907 0.2632448 -0.03023319 1.576308 0.2698094 -0.0258722 1.590286 0.2771389 -0.01830891 1.601096 0.2785363 -0.06718877 1.591818 0.2652287 -0.06694305 1.598943 0.2682334 -0.05785605 1.607718 0.2758082 -0.04583517 1.625444 0.2776111 -0.02654707 1.629227 0.2757998
270 0.01943536 1.552256 0.231077 -0.06738933 1.609382 0.2796912 -0.03780047 1.575907 0.2632448 -0.03023319 1.576308 0.2698094 -0.0258722 1.590286 0.2771389 -0.01830891 1.601096 0.2785363 -0.06718877 1.591818 0.2652287 -0.06694305 1.598943 0.2682334 -0.05785605 1.607718 0.2758082 -0.04583517 1.625444 0.2776111 -0.02654707 1.629227 0.2757998
271 0.01943536 1.552256 0.231077 -0.06738933 1.609382 0.2796912 -0.03780047 1.575907 0.2632448 -0.03023319 1.576308 0.2698094 -0.0258722 1.590286 0.2771389 -0.01830891 1.601096 0.2785363 -0.06718877 1.591818 0.2652287 -0.06694305 1.598943 0.2682334 -0.05785605 1.607718 0.2758082 -0.04583517 1.625444 0.2776111 -0.02654707 1.629227 0.2757998
272 0.01943536 1.552256 0.231077 -0.06738933 1.609382 0.2796912 -0.03780047 1.575907 0.2632448 -0.03023319 1.576308 0.2698094 -0.0258722 1.590286 0.2771389 -0.01830891 1.601096 0.2785363 -0.06718877 1.591818 0.2652287 -0.06694305 1.598943 0.2682334 -0.05785605 1.607718 0.2758082 -0.04583517 1.625444 0.2776111 -0.02654707 1.629227 0.2757998
273 0.01943536 1.552256 0.231077 -0.06738933 1.609382 0.2796912 -0.03780047 1.575907 0.2632448 -0.03023319 1.576308 0.2698094 -0.0258722 1.590286 0.2771389 -0.01830891 1.601096 0.2785363 -0.06718877 1.591818 0.2652287 -0.06694305 1.598943 0.2682334 -0.05785605 1.607718 0.2758082 -0.04583517 1.625444 0.2776111 -0.02654707 1.629227 0.2757998
274 0.01943536 1.552256 0.231077 -0.06738933 1.609382 0.2796912 -0.03780047 1.575907 0.2632448 -0.03023319 1.576308 0.2698094 -0.0258722 1.590286 0.2771389 -0.01830891 1.601096 0.2785363 -0.06718877 1.591818 0.2652287 -0.06694305 1.598943 0.2682334 -0.05785605 1.607718 0.2758082 -0.04583517 1.625444 0.2776111 -0.02654707 1.629227 0.2757998
275 0.01943536 1.552256 0.231077 -0.06738933 1.609382 0.2796912 -0.03780047 1.575907 0.2632448 -0.03023319 1.576308 0.2698094 -0.0258722 1.590286 0.2771389 -0.01830891 1.601096 0.2785363 -0.06718877 1.591818 0.2652287 -0.06694305 1.598943 0.2682334 -0.05785605 1.607718 0.2758082 -0.04583517 1.625444 0.2776111 -0.02654707 1.629227 0.2757998
276 0.01943536 1.552256 0.231077 -0.06738933 1.609382 0.2796912 -0.03780047 1.575907 0.2632448 -0.03023319 1.576308 0.2698094 -0.0258722 1.590286 0.2771389 -0.01830891 1.601096 0.2785363 -0.06718877 1.591818 0.2652287 -0.06694305 1.598943 0.2682334 -0.05785605 1.607718 0.2758082 -0.04583517 1.625444 0.2776111 -0.02654707 1.629227 0.2757998
277 0.01943536 1.552256 0.231077 -0.06738933 1.609382 0.2796912 -0.03780047 1.575907 0.2632448 -0.03023319 1.576308 0.2698094 -0.0258722 1.590286 0.2771389 -0.01830891 1.601096 0.2785363 -0.06718877 1.591818 0.2652287 -0.06694305 1.598943 0.2682334 -0.05785605 1.607718 0.2758082 -0.04583517 1.625444 0.2776111 -0.02654707 1.629227 0.2757998
278 0.01943536 1.552256 0.231077 -0.06738933 1.609382 0.2796912 -0.03780047 1.575907 0.2632448 -0.03023319 1.576308 0.2698094 -0.0258722 1.590286 0.2771389 -0.01830891 1.601096 0.2785363 -0.06718877 1.591818 0.2652287 -0.06694305 1.598943 0.2682334 -0.05785605 1.607718 0.2758082 -0.04583517 1.625444 0.2776111 -0.02654707 1.629227 0.2757998
279 0.01943536 1.552256 0.231077 -0.06738933 1.609382 0.2796912 -0.03780047 1.575907 0.2632448 -0.03023319 1.576308 0.2698094 -0.0258722 1.590286 0.2771389 -0.01830891 1.601096 0.2785363 -0.06718877 1.591818 0.2652287 -0.06694305 1.598943 0.2682334 -0.05785605 1.607718 0.2758082 -0.04583517 1.625444 0.2776111 -0.02654707 1.629227 0.2757998
280 0.01943536 1.552256 0.231077 -0.06738933 1.609382 0.2796912 -0.03780047 1.575907 0.2632448 -0.03023319 1.576308 0.2698094 -0.0258722 1.590286 0.2771389 -0.01830891 1.601096 0.2785363 -0.06718877 1.591818 0.2652287 -0.06694305 1.598943 0.2682334 -0.05785605 1.607718 0.2758082 -0.04583517 1.625444 0.2776111 -0.02654707 1.629227 0.2757998
281 0.01943536 1.552256 0.231077 -0.06738933 1.609382 0.2796912 -0.03780047 1.575907 0.2632448 -0.03023319 1.576308 0.2698094 -0.0258722 1.590286 0.2771389 -0.01830891 1.601096 0.2785363 -0.06718877 1.591818 0.2652287 -0.06694305 1.598943 0.2682334 -0.05785605 1.607718 0.2758082 -0.04583517 1.625444 0.2776111 -0.02654707 1.629227 0.2757998
282 0.01943536 1.552256 0.231077 -0.06738933 1.609382 0.2796912 -0.03780047 1.575907 0.2632448 -0.03023319 1.576308 0.2698094 -0.0258722 1.590286 0.2771389 -0.01830891 1.601096 0.2785363 -0.06718877 1.591818 0.2652287 -0.06694305 1.598943 0.2682334 -0.05785605 1.607718 0.2758082 -0.04583517 1.625444 0.2776111 -0.02654707 1.629227 0.2757998
283 0.01943536 1.552256 0.231077 -0.06738933 1.609382 0.2796912 -0.03780047 1.575907 0.2632448 -0.03023319 1.576308 0.2698094 -0.0258722 1.590286 0.2771389 -0.01830891 1.601096 0.2785363 -0.06718877 1.591818 0.2652287 -0.06694305 1.598943 0.2682334 -0.05785605 1.607718 0.2758082 -0.04583517 1.625444 0.2776111 -0.02654707 1.629227 0.2757998
284 0.01943536 1.552256 0.231077 -0.06738933 1.609382 0.2796912 -0.03780047 1.575907 0.2632448 -0.03023319 1.576308 0.2698094 -0.0258722 1.590286 0.2771389 -0.01830891 1.601096 0.2785363 -0.06718877 1.591818 0.2652287 -0.06694305 1.598943 0.2682334 -0.05785605 1.607718 0.2758082 -0.04583517 1.625444 0.2776111 -0.02654707 1.629227 0.2757998
285 0.01943536 1.552256 0.231077 -0.06738933 1.609382 0.2796912 -0.03780047 1.575907 0.2632448 -0.03023319 1.576308 0.2698094 -0.0258722 1.590286 0.2771389 -0.01830891 1.601096 0.2785363 -0.06718877 1.591818 0.2652287 -0.06694305 1.598943 0.2682334 -0.05785605 1.607718 0.2758082 -0.04583517 1.625444 0.2776111 -0.02654707 1.629227 0.2757998
286 0.01943536 1.552256 0.231077 -0.06738933 1.609382 0.2796912 -0.03780047 1.575907 0.2632448 -0.03023319 1.576308 0.2698094 -0.0258722 1.590286 0.2771389 -0.01830891 1.601096 0.2785363 -0.06718877 1.591818 0.2652287 -0.06694305 1.598943 0.2682334 -0.05785605 1.607718 0.2758082 -0.04583517 1.625444 0.2776111 -0.02654707 1.629227 0.2757998
287 0.01943536 1.552256 0.231077 -0.06738933 1.609382 0.2796912 -0.03780047 1.575907 0.2632448 -0.03023319 1.576308 0.2698094 -0.0258722 1.590286 0.2771389 -0.01830891 1.601096 0.2785363 -0.06718877 1.591818 0.2652287 -0.06694305 1.598943 0.2682334 -0.05785605 1.607718 0.2758082 -0.04583517 1.625444 0.2776111 -0.02654707 1.629227 0.2757998
288 0.01943536 1.552256 0.231077 -0.06738933 1.609382 0.2796912 -0.03780047 1.575907 0.2632448 -0.03023319 1.576308 0.2698094 -0.0258722 1.590286 0.2771389 -0.01830891 1.601096 0.2785363 -0.06718877 1.591818 0.2652287 -0.06694305 1.598943 0.2682334 -0.05785605 1.607718 0.2758082 -0.04583517 1.625444 0.2776111 -0.02654707 1.629227 0.2757998
289 0.01943536 1.552256 0.231077 -0.06738933 1.609382 0.2796912 -0.03780047 1.575907 0.2632448 -0.03023319 1.576308 0.2698094 -0.0258722 1.590286 0.2771389 -0.01830891 1.601096 0.2785363 -0.06718877 1.591818 0.2652287 -0.06694305 1.598943 0.2682334 -0.05785605 1.607718 0.2758082 -0.04583517 1.625444 0.2776111 -0.02654707 1.629227 0.2757998
290 0.01943536 1.552256 0.231077 -0.06738933 1.609382 0.2796912 -0.03780047 1.575907 0.2632448 -0.03023319 1.576308 0.2698094 -0.0258722 1.590286 0.2771389 -0.01830891 1.601096 0.2785363 -0.06718877 1.591818 0.2652287 -0.06694305 1.598943 0.2682334 -0.05785605 1.607718 0.2758082 -0.04583517 1.625444 0.2776111 -0.02654707 1.629227 0.2757998
291 0.01943536 1.552256 0.231077 -0.06738933 1.609382 0.2796912 -0.03780047 1.575907 0.2632448 -0.03023319 1.576308 0.2698094 -0.0258722 1.590286 0.2771389 -0.01830891 1.601096 0.2785363 -0.06718877 1.591818 0.2652287 -0.06694305 1.598943 0.2682334 -0.05785605 1.607718 0.2758082 -0.04583517 1.625444 0.2776111 -0.02654707 1.629227 0.2757998
