yixianl/unity_handgesture/BIUBIUBIU/Assets/Data/fight_fist_1.txt
frame right_handpalm right_thumb_tip right_index_tip right_middle_tip right_ring_tip right_pinky_tip right_thumb_joint right_index_joint right_middle_joint right_ring_joint right_pinky_joint 
0 0.02391622 1.564414 0.2472369 -0.03506379 1.633939 0.3275757 -0.01452409 1.594292 0.3125805 -0.005259581 1.595208 0.3112294 0.008350439 1.595404 0.3119226 0.01719458 1.601872 0.3105649 -0.03909861 1.619549 0.3102484 -0.0263927 1.629168 0.3189593 -0.01307578 1.633144 0.3248326 0.006392639 1.6349 0.3232942 0.02443937 1.632465 0.3165691
1 0.02352846 1.564792 0.2485141 -0.03405166 1.633874 0.3302895 -0.01382262 1.594171 0.3148597 -0.004262834 1.594496 0.3126033 0.008886942 1.595542 0.3145984 0.01800298 1.601316 0.3122622 -0.03837682 1.619806 0.3127606 -0.02539612 1.629004 0.3219887 -0.0118429 1.632116 0.3274746 0.007552834 1.63487 0.3258879 0.02540954 1.631744 0.3186978
2 0.02327523 1.565136 0.2495456 -0.03266908 1.633692 0.3327191 -0.01375022 1.594682 0.3170739 -0.003874683 1.594499 0.3143773 0.009072119 1.596239 0.3179068 0.01837293 1.600989 0.3138294 -0.03735051 1.619899 0.3150737 -0.02473291 1.629647 0.3241222 -0.01097699 1.632204 0.3293008 0.008396665 1.635906 0.327622 0.02607816 1.631474 0.3198906
3 0.02334693 1.565031 0.2511127 -0.0318419 1.633755 0.3347453 -0.01362685 1.594985 0.3191063 -0.003538511 1.594523 0.3164235 0.00902435 1.597075 0.3215995 0.01851797 1.60078 0.3162167 -0.0364661 1.620025 0.3170619 -0.02424846 1.630174 0.3257948 -0.01044732 1.632408 0.3308531 0.00898691 1.637123 0.3292965 0.02660237 1.631423 0.3213094
4 0.02344262 1.565078 0.2530702 -0.03117919 1.633574 0.3368001 -0.0139421 1.595566 0.3210725 -0.003819662 1.595025 0.3191769 0.008681919 1.597994 0.3252955 0.01843042 1.601009 0.318902 -0.0363447 1.62008 0.3190787 -0.02409307 1.630876 0.3276455 -0.0103103 1.633213 0.3327648 0.009224197 1.638314 0.3312483 0.02683289 1.631656 0.3231913
5 0.02349596 1.564969 0.2547481 -0.03119599 1.633085 0.3386488 -0.01401221 1.595458 0.3229067 -0.003915855 1.595151 0.3215305 0.008707397 1.597877 0.3275923 0.01855949 1.600588 0.3210258 -0.03654276 1.619808 0.3208161 -0.02371091 1.630905 0.3295307 -0.009983562 1.63341 0.3347774 0.009634455 1.63824 0.3332813 0.02720406 1.631175 0.3251834
6 0.02337469 1.564985 0.255904 -0.03221755 1.632229 0.340197 -0.01436968 1.595748 0.3246546 -0.004378695 1.595635 0.3240335 0.008579515 1.597437 0.3290473 0.01845413 1.600249 0.3225367 -0.03755154 1.619329 0.3220836 -0.0232692 1.631403 0.3309636 -0.009567159 1.634145 0.33642 0.01021099 1.63781 0.3348564 0.02773676 1.630625 0.3268109
7 0.02321641 1.564704 0.2559913 -0.0330404 1.631391 0.3407886 -0.01432058 1.595696 0.3255683 -0.004419973 1.595763 0.324792 0.009046535 1.596123 0.327762 0.01874177 1.5995 0.3221095 -0.03826521 1.618661 0.3225209 -0.02266269 1.631618 0.3314286 -0.00887934 1.634386 0.3369269 0.01088298 1.636371 0.3350773 0.02829987 1.629753 0.3270397
8 0.02334218 1.564399 0.256126 -0.0332333 1.631083 0.3411125 -0.01401332 1.59625 0.3259728 -0.004062289 1.596341 0.3255614 0.009835954 1.595458 0.3266594 0.01932666 1.599297 0.3214047 -0.03837094 1.618209 0.3229168 -0.0220101 1.632197 0.3316979 -0.008157155 1.635142 0.3370822 0.0115565 1.635657 0.3347649 0.02887335 1.629567 0.3266993
9 0.02315536 1.563979 0.2562533 -0.03276213 1.631037 0.3413072 -0.01412048 1.596674 0.326456 -0.004102316 1.596567 0.3257686 0.0100001 1.595062 0.3261297 0.01950284 1.599274 0.3210962 -0.03814403 1.618043 0.3232605 -0.02191189 1.632722 0.3317688 -0.007946006 1.63557 0.3370297 0.0117127 1.63526 0.3344167 0.02896061 1.629569 0.3263831
10 0.02273176 1.56348 0.256248 -0.03166244 1.631599 0.3412759 -0.01409548 1.596826 0.3265113 -0.004034733 1.596468 0.325456 0.01004063 1.594815 0.3257734 0.01962752 1.599113 0.3208812 -0.03741971 1.618485 0.3234257 -0.02166295 1.632978 0.3317265 -0.007602273 1.635608 0.33685 0.01202165 1.634967 0.3340616 0.0291696 1.629422 0.3260258
11 0.02224247 1.562976 0.2559471 -0.03070788 1.632034 0.3411146 -0.01399065 1.596479 0.3258102 -0.003863465 1.595755 0.324485 0.01007695 1.594239 0.3255814 0.01991848 1.598611 0.3207421 -0.03664077 1.618885 0.323344 -0.02121717 1.63251 0.3317027 -0.007111706 1.634761 0.3367427 0.01244793 1.634283 0.3339408 0.02949673 1.628811 0.325889
12 0.02139519 1.562232 0.2554738 -0.02919906 1.632297 0.341345 -0.014144 1.595254 0.3253356 -0.003914971 1.594422 0.3231194 0.009862863 1.592948 0.3252294 0.02000442 1.597216 0.320828 -0.03545351 1.619426 0.3234658 -0.02030646 1.631385 0.3318168 -0.00623877 1.633 0.3368445 0.01323168 1.63264 0.334193 0.03010711 1.627108 0.3261549
13 0.0200469 1.561821 0.2545041 -0.02633239 1.632622 0.3421782 -0.01477343 1.59366 0.325804 -0.004355351 1.592367 0.3210357 0.009227099 1.58978 0.3235601 0.01982671 1.594461 0.3205835 -0.03307391 1.620551 0.323908 -0.01882582 1.629951 0.3324918 -0.004805979 1.629741 0.3374442 0.01443672 1.628554 0.3350372 0.03107249 1.623482 0.3271774
14 0.01874727 1.561464 0.2534054 -0.02234885 1.632027 0.342873 -0.01652477 1.592841 0.3259943 -0.005946253 1.5911 0.3194507 0.007104457 1.587331 0.3225566 0.01815173 1.591573 0.3207225 -0.03017171 1.621522 0.3240511 -0.01822577 1.629246 0.3323193 -0.004464064 1.627197 0.337414 0.01465872 1.624912 0.3356283 0.03112941 1.619537 0.3282419
15 0.01748355 1.561438 0.2521023 -0.020239 1.629939 0.3436283 -0.0189366 1.592086 0.3263285 -0.0082295 1.59013 0.3192515 0.004246921 1.585552 0.3229262 0.01590584 1.589403 0.321005 -0.02883737 1.621379 0.3241594 -0.01821244 1.628638 0.3315706 -0.004868687 1.625695 0.3371598 0.01413635 1.62227 0.335986 0.03052532 1.61632 0.3291433
16 0.01612754 1.561565 0.250426 -0.01932755 1.625985 0.3447925 -0.02170543 1.590759 0.3273587 -0.01101336 1.588853 0.320401 0.001085112 1.583514 0.3240522 0.013781 1.58754 0.3218016 -0.0285266 1.619792 0.3246977 -0.0181495 1.627541 0.3308569 -0.005198131 1.62431 0.3371426 0.01355658 1.619483 0.336314 0.03004275 1.61331 0.3301387
17 0.01472012 1.562092 0.2482324 -0.0195305 1.622334 0.3453701 -0.0242499 1.589853 0.3277895 -0.01377762 1.588032 0.322195 -0.001901342 1.582088 0.3255896 0.01182082 1.586124 0.3227341 -0.02882941 1.618111 0.3247679 -0.01831242 1.626537 0.3300681 -0.005606386 1.623491 0.3371522 0.01291819 1.617353 0.3365306 0.02954471 1.610822 0.3309048
18 0.0130451 1.562732 0.245906 -0.02108964 1.61853 0.3457277 -0.02759922 1.58899 0.3278908 -0.01782034 1.587028 0.3239073 -0.006260604 1.580798 0.3277085 0.008781477 1.58454 0.3239009 -0.029889 1.616246 0.3245943 -0.01904271 1.625334 0.3291485 -0.006528436 1.62218 0.3370995 0.01172862 1.614825 0.3368111 0.02844667 1.607656 0.3317439
19 0.01130902 1.563374 0.2435444 -0.02320113 1.61492 0.3458825 -0.03075097 1.588575 0.3284241 -0.02196618 1.585985 0.3261239 -0.0104057 1.579892 0.3300755 0.00586475 1.583323 0.3251133 -0.03128322 1.614088 0.3243376 -0.01988065 1.624279 0.3281782 -0.007481643 1.621085 0.3368535 0.01060204 1.612805 0.3368032 0.02742219 1.604962 0.3320723
20 0.009923471 1.563441 0.241653 -0.02584936 1.612091 0.3452766 -0.03415497 1.588905 0.3292639 -0.02665769 1.585208 0.3281777 -0.01467358 1.579712 0.332344 0.002782072 1.582754 0.3264708 -0.03310197 1.612189 0.3234037 -0.021315 1.623757 0.3268744 -0.009064391 1.620265 0.3361073 0.008994613 1.611492 0.3366358 0.02598915 1.602967 0.3323497
21 0.008972378 1.563076 0.2398786 -0.02931903 1.610529 0.3439484 -0.0376077 1.589685 0.3294878 -0.03181665 1.584939 0.33047 -0.0190203 1.580235 0.3351467 -0.0003858245 1.582391 0.3280391 -0.03517505 1.610838 0.3216593 -0.02288941 1.623467 0.3252068 -0.0108936 1.619505 0.3349073 0.007240394 1.610566 0.336383 0.02434308 1.601142 0.3326187
22 0.00776014 1.562748 0.2380344 -0.03100691 1.609609 0.3424454 -0.03967234 1.589595 0.3276743 -0.03467042 1.584441 0.3294113 -0.02143678 1.580603 0.3357523 -0.001944851 1.58208 0.3282902 -0.03631998 1.61022 0.3200299 -0.02380141 1.622866 0.3237848 -0.01211766 1.61828 0.3335995 0.006241652 1.609609 0.3358574 0.02348678 1.599609 0.3323522
23 0.005903736 1.562829 0.2360826 -0.0302111 1.608137 0.3412997 -0.04081661 1.588875 0.3236274 -0.0357374 1.584162 0.3263632 -0.02254048 1.580299 0.3335855 -0.003324642 1.580778 0.3263003 -0.03610157 1.609812 0.3190815 -0.02437991 1.622028 0.3228377 -0.012956 1.617126 0.3327037 0.005436874 1.608395 0.3351983 0.02212363 1.597565 0.331252
24 0.003693799 1.5631 0.2343677 -0.0294982 1.607723 0.3402404 -0.04126932 1.588288 0.3187523 -0.03599479 1.584515 0.3237287 -0.02306022 1.579797 0.3302699 -0.004993612 1.578966 0.3230416 -0.03596225 1.610209 0.3182456 -0.02496916 1.621371 0.3221668 -0.0135772 1.616676 0.3322313 0.004579167 1.607404 0.3344549 0.02008375 1.595549 0.3295707
25 0.002142971 1.563027 0.2336476 -0.02973385 1.609337 0.3387265 -0.04112235 1.588233 0.3122938 -0.03588001 1.585297 0.3202825 -0.02350341 1.5792 0.3253405 -0.007054828 1.577098 0.3188583 -0.0366141 1.612432 0.3169295 -0.0259195 1.620797 0.3215879 -0.0144456 1.616588 0.3321575 0.0031019 1.60645 0.3339586 0.0172346 1.593668 0.328093
26 0.001357387 1.562521 0.2330048 -0.03022201 1.610393 0.3367257 -0.04138397 1.588067 0.3075871 -0.03583149 1.585159 0.3155316 -0.02430606 1.57793 0.3198586 -0.008772588 1.575622 0.3148418 -0.03740732 1.614106 0.3151093 -0.02740247 1.620007 0.3205392 -0.01613471 1.615733 0.3313159 0.000817196 1.60503 0.3329333 0.01457343 1.592152 0.3268993
27 0.001217099 1.561634 0.2328245 -0.02978287 1.610318 0.3352363 -0.04107418 1.587662 0.3047644 -0.03487601 1.584587 0.3115082 -0.02392155 1.576906 0.3158298 -0.00873349 1.574996 0.3123183 -0.03752092 1.614572 0.3138989 -0.02853714 1.619214 0.3198246 -0.01749785 1.614685 0.3304361 -0.0006859532 1.604007 0.3320737 0.01339248 1.591552 0.326341
28 0.001306097 1.560623 0.2324549 -0.02892719 1.609453 0.3337326 -0.04058735 1.586854 0.3023079 -0.0337471 1.584028 0.3082374 -0.02305859 1.576077 0.3123087 -0.008406843 1.574623 0.3100275 -0.03734567 1.61417 0.3127348 -0.02972599 1.618374 0.3187129 -0.01874687 1.613878 0.3292195 -0.001941836 1.603345 0.3308452 0.01255953 1.591354 0.3254447
29 0.001412723 1.559719 0.231764 -0.02805165 1.609159 0.3319491 -0.04014403 1.586059 0.2995951 -0.03288653 1.583593 0.3048872 -0.02227061 1.575581 0.3088113 -0.008182873 1.574533 0.3076273 -0.03706525 1.614001 0.3112138 -0.03091379 1.617693 0.3170118 -0.01995828 1.613284 0.3274271 -0.003091623 1.603064 0.3291186 0.01179645 1.591565 0.3240283
30 0.001894765 1.55883 0.2307238 -0.02686871 1.61014 0.3291733 -0.03856759 1.585448 0.2949779 -0.03097235 1.583049 0.2990336 -0.02029142 1.57523 0.3031592 -0.007185181 1.574925 0.3037336 -0.03659306 1.614464 0.3086407 -0.03234929 1.616848 0.3141174 -0.02157629 1.612252 0.3240154 -0.004514573 1.603086 0.3261075 0.01099761 1.592638 0.3215723
31 0.00269175 1.557852 0.2297185 -0.02573256 1.611162 0.3260582 -0.03650101 1.585696 0.2898546 -0.02861761 1.58279 0.2932785 -0.01781422 1.574952 0.2968902 -0.006210238 1.575041 0.2988308 -0.0362279 1.61492 0.3057905 -0.03350141 1.615807 0.3111942 -0.02287895 1.610964 0.3203706 -0.005794041 1.602616 0.3226173 0.01006884 1.59328 0.3184648
32 0.003533901 1.556828 0.2288157 -0.0246203 1.611304 0.3232953 -0.03485258 1.585916 0.2856436 -0.02698125 1.582151 0.2893138 -0.01589309 1.5744 0.2922391 -0.005179837 1.574842 0.29483 -0.03582836 1.614924 0.3033781 -0.03403144 1.614406 0.3089301 -0.02345117 1.609429 0.3175461 -0.006401527 1.601537 0.3197326 0.009656833 1.593137 0.3158824
33 0.004520071 1.555733 0.2283913 -0.02468369 1.6128 0.3205396 -0.03390691 1.585817 0.2829004 -0.02582876 1.581509 0.2868065 -0.01426307 1.574264 0.2894158 -0.003818875 1.575018 0.2921947 -0.03623553 1.615612 0.3006888 -0.03445819 1.613494 0.3070109 -0.02381137 1.608636 0.3152225 -0.006643001 1.601411 0.3174988 0.009582982 1.593803 0.3138926
34 0.005545372 1.554551 0.2286326 -0.02568489 1.616287 0.3174369 -0.03340179 1.585965 0.2811843 -0.02494504 1.581268 0.2854981 -0.01282437 1.574903 0.288181 -0.00254376 1.575853 0.2908881 -0.03718718 1.617437 0.2974056 -0.03487089 1.613453 0.3053295 -0.02410752 1.60902 0.3133625 -0.006705905 1.602692 0.3159451 0.009670575 1.595568 0.3124808
35 0.006684006 1.553583 0.2290444 -0.02685625 1.618906 0.314797 -0.03334039 1.585736 0.2803483 -0.02447489 1.581111 0.2848225 -0.01177842 1.57559 0.2874585 -0.001568322 1.576798 0.2900247 -0.03824141 1.618612 0.294659 -0.03539276 1.613554 0.3039888 -0.02448335 1.60961 0.3119715 -0.006868618 1.604052 0.3147393 0.009677689 1.597312 0.3113438
36 0.008244224 1.552627 0.2293262 -0.02811801 1.621357 0.3115005 -0.03280184 1.584829 0.27977 -0.02366961 1.580297 0.2841505 -0.01045365 1.575944 0.2871445 -0.0003607314 1.577497 0.2895429 -0.03929418 1.619358 0.2913433 -0.03596091 1.61311 0.3027588 -0.02483915 1.609773 0.3107035 -0.006947177 1.605327 0.3137136 0.009844551 1.599075 0.3103546
37 0.009834434 1.551561 0.229956 -0.02893192 1.62209 0.3090749 -0.03208528 1.58366 0.2797829 -0.02308312 1.579155 0.2844908 -0.009814958 1.575987 0.2884982 0.0001503177 1.577574 0.2903402 -0.03993198 1.619247 0.2889205 -0.03632943 1.612369 0.302018 -0.02512929 1.609581 0.3101319 -0.006980526 1.606323 0.3136928 0.01000383 1.599964 0.3102748
38 0.01156988 1.550675 0.2304453 -0.02931932 1.621965 0.30701 -0.03095405 1.58265 0.2796607 -0.02225403 1.578358 0.2849708 -0.009141141 1.576414 0.2903183 0.0007128276 1.577685 0.2912176 -0.0402879 1.618612 0.2869099 -0.03653156 1.611598 0.3011547 -0.02528309 1.609558 0.3095614 -0.006870749 1.607794 0.3137489 0.01029579 1.600926 0.3101042
39 0.01363036 1.550112 0.2304929 -0.0295326 1.62153 0.3050332 -0.02940021 1.581185 0.2796294 -0.02094174 1.577601 0.2856711 -0.007926307 1.577423 0.2923422 0.001846038 1.578257 0.2917658 -0.04056023 1.617289 0.2851375 -0.03659498 1.610516 0.300191 -0.02522805 1.609728 0.3088806 -0.006487817 1.610225 0.3135079 0.01099194 1.60263 0.3093628
40 0.01574446 1.549764 0.2308154 -0.02917494 1.621167 0.303751 -0.02748626 1.579934 0.2799517 -0.01885938 1.577413 0.2860501 -0.006039814 1.578886 0.2936998 0.003530126 1.579213 0.2918131 -0.04044501 1.615628 0.2843269 -0.03643104 1.609471 0.2995886 -0.02490074 1.610062 0.3082677 -0.006007771 1.612985 0.3127976 0.0117974 1.604958 0.3080307
41 0.01750632 1.549498 0.2318661 -0.02921459 1.62124 0.3029398 -0.02618752 1.57957 0.280259 -0.01729567 1.577922 0.286622 -0.004794904 1.580382 0.2947282 0.004745401 1.580633 0.2917938 -0.04053843 1.614328 0.284007 -0.03664262 1.609004 0.2992021 -0.02510438 1.61091 0.3078067 -0.006266206 1.615653 0.3120091 0.01186577 1.60743 0.3069263
42 0.01912739 1.549456 0.2334578 -0.03049534 1.621412 0.3024652 -0.02552354 1.579531 0.2807087 -0.01649969 1.578647 0.2872773 -0.004282507 1.581557 0.2954119 0.005247904 1.582051 0.2919196 -0.04147356 1.613295 0.2838116 -0.03730224 1.608929 0.2989132 -0.02588853 1.611865 0.3074975 -0.007195979 1.617645 0.3114413 0.01124259 1.609523 0.3063872
43 0.02106594 1.549605 0.2348113 -0.03236638 1.621311 0.3016691 -0.02430655 1.579156 0.2811466 -0.01537878 1.578947 0.2880191 -0.003297855 1.582204 0.2955295 0.005906711 1.583317 0.2916334 -0.04266319 1.611661 0.28338 -0.03806156 1.608195 0.2986262 -0.02687816 1.612385 0.307145 -0.008423517 1.618941 0.3106435 0.01045408 1.61145 0.3056647
44 0.02310289 1.550008 0.2358404 -0.03404348 1.621389 0.300512 -0.02308118 1.578797 0.2815315 -0.01434456 1.579045 0.2888235 -0.002404855 1.582999 0.2958353 0.006393139 1.584656 0.2915268 -0.04341452 1.610113 0.2826975 -0.03881269 1.60729 0.2982553 -0.02792285 1.612749 0.3066405 -0.009747514 1.620228 0.3096475 0.009622976 1.613536 0.3047538
45 0.02534937 1.550274 0.2370625 -0.0353127 1.621414 0.2994147 -0.02181079 1.578336 0.2822693 -0.0132792 1.578959 0.2897232 -0.001732263 1.584069 0.2966118 0.006886005 1.586186 0.2920829 -0.0436213 1.60842 0.2822922 -0.03947416 1.606386 0.2977993 -0.0288811 1.613108 0.3058721 -0.01108274 1.621832 0.3082483 0.008701922 1.616116 0.3034458
46 0.02690175 1.550439 0.2376927 -0.03598369 1.620845 0.2996338 -0.02074971 1.577845 0.2831896 -0.01235802 1.578778 0.2905059 -0.001146209 1.584664 0.2970944 0.007353316 1.587578 0.2927621 -0.04333144 1.60669 0.283043 -0.03982563 1.605558 0.2975132 -0.02944615 1.613143 0.305249 -0.01194421 1.622681 0.3070455 0.008019085 1.618182 0.3022833
47 0.02835025 1.550492 0.2382871 -0.03660516 1.61989 0.3002718 -0.01991308 1.577293 0.2841434 -0.01158176 1.578448 0.2911777 -0.0006028522 1.584764 0.2974398 0.007753214 1.588825 0.2934778 -0.04307916 1.604864 0.2841118 -0.04010608 1.60472 0.2973257 -0.02986113 1.612919 0.3047212 -0.0125933 1.622956 0.3059837 0.007376309 1.619905 0.3012479
48 0.02928944 1.550238 0.2387541 -0.03722001 1.61858 0.3020555 -0.01889834 1.576676 0.2861589 -0.01076956 1.578014 0.2926171 -3.201655E-05 1.584502 0.2986615 0.008362288 1.590063 0.2948293 -0.0426274 1.602813 0.2862673 -0.04004037 1.60406 0.2977597 -0.02976411 1.612697 0.3047557 -0.01258192 1.622954 0.3054143 0.007115166 1.621456 0.3005227
49 0.03030019 1.550154 0.2395483 -0.03822856 1.617369 0.3034799 -0.01863036 1.576203 0.2879519 -0.01073182 1.577583 0.2938802 -0.0002361956 1.58404 0.2998653 0.008147765 1.590551 0.2963085 -0.04244227 1.601217 0.2877614 -0.04060289 1.603536 0.2979321 -0.03026625 1.612276 0.3048299 -0.01305037 1.622565 0.3054138 0.006466839 1.622083 0.3006627
50 0.03161042 1.550177 0.2406037 -0.03931676 1.616044 0.3048061 -0.01857049 1.575825 0.2899508 -0.01103311 1.577433 0.2955264 -0.0006687127 1.583784 0.301275 0.007792533 1.590997 0.2977459 -0.04218054 1.599592 0.2891434 -0.04150038 1.603125 0.2977458 -0.03122873 1.612135 0.3046345 -0.01391589 1.622327 0.3052516 0.005498126 1.622643 0.3007815
51 0.03323303 1.550307 0.241952 -0.04036484 1.614748 0.3057438 -0.01854949 1.575683 0.2917243 -0.01127274 1.577451 0.2969792 -0.001122856 1.583941 0.30242 0.007347578 1.591582 0.2989353 -0.04188483 1.598032 0.2902175 -0.04251684 1.602754 0.2971563 -0.03234937 1.61199 0.3040578 -0.01504922 1.622303 0.3048293 0.004340298 1.623281 0.3007628
52 0.03496137 1.55062 0.2433718 -0.04104305 1.61366 0.3064527 -0.01846743 1.575866 0.2932803 -0.01115954 1.577759 0.2983569 -0.001267373 1.584453 0.3035257 0.007127236 1.592327 0.2998523 -0.04138399 1.59669 0.2911797 -0.04337057 1.602416 0.2966531 -0.03333172 1.611875 0.3035049 -0.01612983 1.622487 0.3043534 0.003303405 1.624017 0.3006234
53 0.03668296 1.5511 0.2447572 -0.0412026 1.612913 0.3069863 -0.01833802 1.576142 0.2945286 -0.01092105 1.578229 0.2996247 -0.001167285 1.585093 0.3045023 0.007140474 1.592984 0.300538 -0.04073772 1.595746 0.2919689 -0.04391612 1.602148 0.2963502 -0.03402742 1.611843 0.303124 -0.01692019 1.622718 0.3039801 0.002597329 1.624627 0.3004887
54 0.03830775 1.551694 0.2459022 -0.04077637 1.612597 0.307246 -0.01820531 1.5764 0.2958533 -0.01051745 1.578743 0.300883 -0.001011149 1.585914 0.3058108 0.007311073 1.593817 0.3016052 -0.03976139 1.595278 0.292466 -0.04420909 1.601916 0.2962185 -0.03447008 1.611751 0.302969 -0.01754243 1.623019 0.3038636 0.002071199 1.625317 0.3006262
55 0.03966507 1.552314 0.2466893 -0.04022789 1.612554 0.3071528 -0.01807053 1.576555 0.2970833 -0.009939798 1.579052 0.3018542 -0.0008334609 1.586599 0.3071129 0.007662781 1.594391 0.3027903 -0.03891878 1.595159 0.2925081 -0.04423057 1.601748 0.2964015 -0.03451005 1.611507 0.303174 -0.01782016 1.623275 0.3041024 0.001889938 1.625773 0.3010364
56 0.04093527 1.553007 0.24658 -0.03966652 1.612492 0.3066876 -0.01757545 1.576755 0.2977826 -0.008973503 1.579445 0.3021328 -5.327307E-05 1.587135 0.3075063 0.008570069 1.594745 0.3029647 -0.03802763 1.595063 0.2921356 -0.04383637 1.601692 0.2964946 -0.03407402 1.611371 0.3032321 -0.01752282 1.623492 0.3040899 0.00227947 1.626064 0.3010128
57 0.0418996 1.553567 0.2462066 -0.03915333 1.612669 0.3059047 -0.01693433 1.577014 0.2973893 -0.008077609 1.579793 0.3015929 0.0009651028 1.587284 0.3067695 0.00945999 1.594809 0.3022595 -0.03735929 1.595204 0.291425 -0.0433595 1.601755 0.2961943 -0.03355569 1.611379 0.3028938 -0.01698874 1.623479 0.3037399 0.002773978 1.62616 0.300594
58 0.04271494 1.55403 0.2459081 -0.03885913 1.613074 0.3049527 -0.01621753 1.577403 0.2963838 -0.007189139 1.580114 0.3005631 0.002278523 1.587081 0.3052864 0.01030552 1.594825 0.3011885 -0.03685771 1.595546 0.2905868 -0.04283392 1.601976 0.2957011 -0.03293438 1.6115 0.3023713 -0.01621804 1.623208 0.3032589 0.003314519 1.626231 0.3000129
59 0.0434171 1.554384 0.2456942 -0.03864606 1.613571 0.3040722 -0.01552326 1.577789 0.2953941 -0.006361287 1.580361 0.299535 0.003544018 1.586773 0.3039182 0.01110519 1.594846 0.3003182 -0.03640552 1.595995 0.2898071 -0.04223564 1.602296 0.2952599 -0.03221381 1.611683 0.3019304 -0.01530713 1.622895 0.3028825 0.003944521 1.626296 0.2995605
60 0.04380414 1.554511 0.2453257 -0.03857833 1.614218 0.3030544 -0.01491588 1.578189 0.2940794 -0.005544773 1.580465 0.2981892 0.004890091 1.586156 0.3022961 0.01189976 1.594697 0.2993484 -0.03611468 1.596598 0.2888829 -0.04159307 1.602725 0.2948641 -0.03133117 1.611826 0.3015425 -0.01416388 1.622341 0.3025565 0.004705567 1.626197 0.2991455
61 0.04415419 1.554453 0.2452252 -0.03869119 1.615243 0.3016709 -0.01430196 1.578853 0.2926993 -0.004353595 1.580716 0.2963824 0.006677885 1.585711 0.3000596 0.0130984 1.594525 0.2979489 -0.03599134 1.597441 0.2877632 -0.04070638 1.603583 0.2945523 -0.03000689 1.61213 0.3011479 -0.01264421 1.621883 0.3020971 0.005788653 1.626104 0.2985347
62 0.04430877 1.554194 0.2452411 -0.0391409 1.616413 0.2999411 -0.01361245 1.579633 0.2912459 -0.002990336 1.58099 0.2942398 0.008573631 1.585431 0.2974696 0.01445983 1.59437 0.2963947 -0.0362071 1.598365 0.286394 -0.03956911 1.604686 0.2944093 -0.02832008 1.612504 0.3008668 -0.01084838 1.621542 0.3016768 0.007147252 1.626009 0.2979251
63 0.04414864 1.553909 0.2450189 -0.04005224 1.617238 0.2983573 -0.01299576 1.580338 0.2901752 -0.00184839 1.581222 0.2924376 0.01010338 1.585276 0.2951475 0.01560035 1.594276 0.2949172 -0.03679206 1.598984 0.2851613 -0.03844 1.60576 0.2945405 -0.02667826 1.612916 0.3008 -0.009138543 1.621404 0.3013834 0.008517222 1.625981 0.2973866
64 0.04377317 1.553655 0.2446887 -0.04126539 1.617697 0.2969849 -0.0127171 1.58079 0.2894546 -0.001224742 1.581322 0.2910177 0.01101515 1.585163 0.2932776 0.01632708 1.594138 0.2937125 -0.03762702 1.599326 0.284048 -0.03764558 1.606617 0.2946608 -0.02548917 1.613221 0.3007591 -0.007914983 1.621298 0.3011641 0.009511086 1.625887 0.2969874
65 0.0430514 1.553129 0.2441818 -0.04247443 1.618115 0.2954758 -0.01281218 1.581016 0.2887003 -0.001091537 1.581335 0.289675 0.0113098 1.585033 0.2919523 0.01667662 1.593928 0.2928715 -0.03858776 1.599677 0.2826937 -0.03709456 1.607429 0.2944477 -0.02468442 1.61353 0.3004891 -0.007096891 1.621292 0.3008543 0.01025691 1.625715 0.2966365
66 0.04204149 1.552528 0.2434688 -0.04364748 1.618802 0.2939787 -0.01309416 1.581401 0.2882594 -0.001278963 1.581472 0.2886975 0.01124458 1.584977 0.2907848 0.0167914 1.593676 0.2919387 -0.03959528 1.600295 0.2813352 -0.03669744 1.608449 0.2942659 -0.02403128 1.614076 0.3002343 -0.006336221 1.621464 0.3005361 0.01105953 1.625514 0.2962527
67 0.04112329 1.551957 0.2428198 -0.04456029 1.619322 0.292591 -0.01354217 1.581484 0.2878538 -0.001768922 1.581541 0.2880816 0.01094256 1.584823 0.2900351 0.01661035 1.593203 0.2912599 -0.04049351 1.600768 0.2800046 -0.03648635 1.609155 0.2939952 -0.02377138 1.61454 0.2999733 -0.005923143 1.621528 0.3002866 0.01160489 1.625121 0.2960106
68 0.04037598 1.55136 0.2419945 -0.04488161 1.619877 0.2912248 -0.01387002 1.581564 0.2871396 -0.002250867 1.581745 0.2874304 0.01067201 1.584764 0.2892088 0.01650345 1.592802 0.2903422 -0.04104061 1.601275 0.278613 -0.03621363 1.6098 0.2933115 -0.02356917 1.615139 0.299317 -0.005544258 1.621716 0.2996533 0.0121385 1.62478 0.2953943
69 0.03980087 1.550812 0.2410896 -0.04453618 1.620382 0.2905304 -0.01400953 1.581528 0.2867213 -0.002541869 1.581868 0.2870375 0.010521 1.584631 0.2886799 0.01650598 1.592374 0.2896047 -0.04103288 1.601773 0.2778119 -0.03585963 1.610246 0.2927701 -0.02328542 1.615606 0.2987891 -0.005089557 1.621846 0.2991134 0.01273684 1.624413 0.2948303
70 0.03912513 1.550215 0.2400434 -0.04385502 1.620922 0.2903444 -0.01409534 1.581489 0.2865746 -0.002722866 1.581844 0.2868084 0.01044114 1.584344 0.2882845 0.01658454 1.591841 0.2889554 -0.04070477 1.60234 0.2774838 -0.03544177 1.610681 0.2924056 -0.02284149 1.615972 0.298404 -0.004479526 1.621882 0.2986641 0.013459 1.623957 0.2942941
71 0.0383566 1.549604 0.2390614 -0.04329973 1.621328 0.2902948 -0.01424756 1.581381 0.2865859 -0.002922223 1.58166 0.2866614 0.01028336 1.583961 0.2880395 0.0165805 1.591295 0.2884861 -0.04041717 1.602783 0.2773144 -0.03515377 1.611 0.2921414 -0.02247405 1.616146 0.2981188 -0.003991284 1.621804 0.2983224 0.01402045 1.623478 0.2938673
72 0.03740076 1.549001 0.2382922 -0.04274196 1.622083 0.2902196 -0.01466927 1.581415 0.2866279 -0.003300685 1.581493 0.2865251 0.009899157 1.583592 0.2879601 0.01642073 1.59079 0.288168 -0.04016265 1.603537 0.2771782 -0.03499997 1.611521 0.2918894 -0.02219237 1.616378 0.2978386 -0.003627979 1.621813 0.2980024 0.01444472 1.623033 0.2934688
73 0.03645463 1.548608 0.2379598 -0.04246219 1.623185 0.2898606 -0.01530376 1.581835 0.286475 -0.003835591 1.58175 0.2862714 0.009348445 1.583641 0.2878919 0.01614079 1.590742 0.2879705 -0.04013522 1.604557 0.2768887 -0.0349931 1.612413 0.2914672 -0.02210864 1.616991 0.2973911 -0.00349855 1.622222 0.2975499 0.01458902 1.623055 0.2930011
74 0.03552853 1.548421 0.2375619 -0.04179222 1.624526 0.2895169 -0.01554877 1.582364 0.2859126 -0.004107683 1.582227 0.2857715 0.00899697 1.583955 0.2875891 0.01610468 1.591021 0.2876028 -0.03996757 1.605803 0.2765961 -0.03469018 1.613272 0.2911336 -0.02178531 1.617687 0.2969891 -0.003163375 1.622786 0.2971027 0.0148909 1.623322 0.2924978
75 0.03484913 1.5484 0.2370975 -0.04091439 1.625668 0.2891247 -0.01536154 1.582827 0.2849184 -0.004018737 1.582783 0.2850072 0.009060488 1.584325 0.2868963 0.01636527 1.591408 0.2869046 -0.03980272 1.606875 0.2762112 -0.03409817 1.613859 0.2908711 -0.02125 1.618296 0.2966205 -0.002628048 1.623255 0.2966245 0.01535257 1.623645 0.2919159
76 0.03419894 1.548423 0.236445 -0.03993193 1.626598 0.2887478 -0.01493345 1.583307 0.2837629 -0.003748196 1.583357 0.2841388 0.009303637 1.584746 0.2860149 0.01675982 1.591842 0.2859431 -0.03972765 1.607807 0.275765 -0.03331208 1.614373 0.2905855 -0.02052926 1.618908 0.2962082 -0.001908041 1.62374 0.2960579 0.01600109 1.623981 0.2912024
77 0.03352763 1.548426 0.2357994 -0.03906456 1.627384 0.2883571 -0.01460719 1.583794 0.2827182 -0.003599389 1.583945 0.2834266 0.009478137 1.585228 0.2852512 0.01706347 1.59224 0.2851104 -0.03969861 1.608654 0.2752779 -0.03258761 1.614967 0.2901661 -0.01988334 1.619636 0.2957136 -0.001245435 1.624308 0.2954475 0.01662807 1.624326 0.2904779
78 0.03271349 1.54825 0.2350823 -0.03778556 1.628177 0.2880181 -0.01464935 1.584028 0.2816606 -0.003894853 1.584411 0.28297 0.009206343 1.585624 0.2848715 0.01696233 1.592213 0.2846218 -0.03946827 1.609663 0.2747125 -0.03195624 1.615531 0.2894989 -0.01942139 1.620418 0.2951227 -0.000714308 1.624844 0.2948903 0.01722621 1.624286 0.2899118
79 0.03206133 1.548358 0.2340028 -0.0366538 1.628633 0.2878153 -0.01460118 1.584239 0.2804655 -0.004161079 1.584773 0.2823926 0.008979002 1.585948 0.284234 0.01663267 1.592223 0.2837951 -0.03921892 1.610425 0.2742218 -0.03152816 1.615921 0.2886397 -0.01914093 1.621091 0.2943612 -0.0003614045 1.625285 0.2941492 0.0176649 1.624276 0.2891485
80 0.03150311 1.548524 0.2329088 -0.03561767 1.629028 0.287769 -0.01444444 1.584449 0.2794212 -0.004197203 1.585028 0.2817107 0.008981556 1.586203 0.2835472 0.01634956 1.592301 0.2829893 -0.03878208 1.611024 0.2740354 -0.03118257 1.616235 0.2878802 -0.01884985 1.621593 0.2936042 -5.487644E-05 1.625682 0.2932937 0.01802729 1.624411 0.2881757
81 0.03089703 1.548647 0.2319611 -0.03472306 1.629721 0.287283 -0.0144232 1.584647 0.2783312 -0.004231701 1.585159 0.2806765 0.009003019 1.5863 0.282618 0.01605436 1.592319 0.2822826 -0.03833775 1.611809 0.2735478 -0.03093184 1.616511 0.2872315 -0.01857655 1.621843 0.2929419 0.0001872485 1.62585 0.2925467 0.01827564 1.624474 0.2873166
82 0.03020974 1.548564 0.2309514 -0.03367423 1.630589 0.2863249 -0.01449958 1.584658 0.2770048 -0.004310006 1.585027 0.2793576 0.008919846 1.586006 0.2815562 0.01575767 1.592011 0.2817081 -0.03777571 1.612795 0.2725786 -0.03051968 1.616636 0.2865856 -0.01812875 1.621776 0.2923506 0.0006148323 1.625623 0.2919735 0.01867904 1.624164 0.2866958
83 0.02950796 1.548344 0.2301352 -0.03250606 1.631447 0.2852805 -0.01465044 1.584647 0.2755577 -0.004491451 1.584822 0.2780889 0.008631589 1.585631 0.2807435 0.01541282 1.591589 0.2814749 -0.03714341 1.613864 0.2714306 -0.03008736 1.616696 0.2859244 -0.01770021 1.621592 0.2918469 0.001035273 1.625285 0.2916542 0.01908942 1.62368 0.286463
84 0.02873702 1.547905 0.2294111 -0.03122417 1.631925 0.2846209 -0.01506548 1.584437 0.2740821 -0.004991209 1.584313 0.2769959 0.007829829 1.584903 0.2804592 0.01464606 1.590747 0.2816507 -0.03649373 1.614792 0.2704328 -0.02976866 1.6165 0.2852672 -0.01742837 1.621064 0.2914847 0.001325502 1.624621 0.2916726 0.01942196 1.62265 0.2866935
85 0.02795346 1.547535 0.2287239 -0.03023029 1.632327 0.2839828 -0.01558715 1.584435 0.2727673 -0.005617921 1.58402 0.2760816 0.006878444 1.584389 0.2803008 0.01385953 1.590168 0.2817478 -0.03601774 1.615655 0.2694478 -0.02963284 1.616503 0.284496 -0.01735131 1.620763 0.2909986 0.001440168 1.62418 0.2915808 0.01957945 1.621845 0.2868522
86 0.0270445 1.547352 0.2280898 -0.02936775 1.632948 0.283359 -0.01622568 1.584796 0.2715464 -0.006250905 1.584256 0.2751907 0.006075434 1.584256 0.2797907 0.01323804 1.589901 0.2814576 -0.03569116 1.616735 0.2685197 -0.0294732 1.616958 0.2837268 -0.01725762 1.620951 0.2904533 0.001590237 1.624001 0.2913403 0.01971966 1.621321 0.2868319
87 0.02601766 1.547179 0.2280593 -0.02859635 1.633815 0.2830587 -0.01701057 1.585606 0.2708885 -0.006912794 1.585068 0.2747593 0.005434278 1.5845 0.2794239 0.0129799 1.590123 0.2812718 -0.03552867 1.618025 0.2680138 -0.02915565 1.618072 0.2832228 -0.01698598 1.621847 0.2900884 0.001923841 1.624247 0.2911564 0.0199768 1.6213 0.2868671
88 0.02483062 1.547091 0.2287251 -0.02781811 1.634665 0.2837404 -0.01798261 1.586763 0.2709165 -0.007635409 1.586444 0.2748383 0.004945724 1.585104 0.2791069 0.01288146 1.590682 0.2813206 -0.03550641 1.619392 0.2685 -0.02874364 1.61977 0.2830791 -0.01660136 1.623327 0.2900112 0.002342657 1.624761 0.2911643 0.02025734 1.621639 0.2870936
89 0.02358515 1.547136 0.2294565 -0.02686955 1.635148 0.2853219 -0.01887533 1.587861 0.2714494 -0.00834571 1.587836 0.2753405 0.004514043 1.585666 0.2790544 0.0128019 1.591282 0.2815605 -0.03530556 1.620453 0.2698695 -0.02845022 1.62141 0.283136 -0.01632074 1.624857 0.2901062 0.002635593 1.625299 0.2912685 0.02042109 1.622116 0.2873695
90 0.02266919 1.54722 0.229307 -0.02598277 1.634648 0.2878115 -0.01974591 1.58819 0.2720533 -0.009219104 1.588449 0.2755848 0.003909949 1.585503 0.278831 0.01236888 1.591015 0.2816649 -0.03482425 1.620598 0.2719775 -0.0284155 1.622189 0.283159 -0.01626301 1.625398 0.2902202 0.002651929 1.624922 0.2914166 0.02032065 1.621715 0.2876657
91 0.02171517 1.547104 0.2286699 -0.02473879 1.633555 0.2902979 -0.02052184 1.588085 0.272453 -0.01036928 1.588619 0.2759969 0.002725625 1.585101 0.2792717 0.01130208 1.590283 0.2820164 -0.03396288 1.620338 0.273963 -0.02845576 1.622538 0.2828507 -0.01630672 1.625644 0.2901555 0.002597638 1.624466 0.2915219 0.02018797 1.620786 0.2879341
92 0.02073429 1.546975 0.2280578 -0.02281668 1.632045 0.2930548 -0.02111321 1.587754 0.2735123 -0.01158975 1.588613 0.277332 0.001301385 1.584666 0.2809022 0.0102326 1.589774 0.2832779 -0.0326908 1.619942 0.2762302 -0.02819697 1.622827 0.2828762 -0.01603167 1.625967 0.2904813 0.002881822 1.624173 0.2920121 0.02045006 1.619971 0.2885767
93 0.01952116 1.547122 0.2277954 -0.02172792 1.630713 0.2956873 -0.02193414 1.587965 0.2748687 -0.01301954 1.5888 0.2792295 -0.0001971777 1.584296 0.282813 0.009478305 1.589625 0.285184 -0.03213681 1.619872 0.278329 -0.02765785 1.62349 0.2836111 -0.01545047 1.626451 0.2915915 0.003383831 1.623747 0.293304 0.02097001 1.619341 0.2901355
94 0.0181056 1.54769 0.2270067 -0.02108592 1.629364 0.2981159 -0.02272861 1.588393 0.2763894 -0.01436645 1.588855 0.2806124 -0.001625547 1.583881 0.2841526 0.008933582 1.589458 0.2868246 -0.03191459 1.619954 0.2801839 -0.02688374 1.624342 0.2845628 -0.0145966 1.626606 0.2928896 0.004071437 1.622957 0.2947549 0.02169677 1.618511 0.2918747
95 0.01664573 1.548375 0.225874 -0.02043438 1.628098 0.3001973 -0.0234526 1.588702 0.2777618 -0.01549918 1.588593 0.2815135 -0.002929605 1.583579 0.2853288 0.008311255 1.58913 0.2881862 -0.03150779 1.619972 0.2817743 -0.02615253 1.625035 0.2853568 -0.01385001 1.62636 0.2939178 0.004660537 1.622187 0.2959927 0.02230082 1.617508 0.2933508
96 0.01515889 1.549012 0.2244197 -0.0196266 1.626105 0.302215 -0.0249114 1.588814 0.278974 -0.0174516 1.587864 0.2823215 -0.005420894 1.583409 0.287232 0.006814874 1.588855 0.289679 -0.03080124 1.619563 0.2832308 -0.02567541 1.625587 0.2855243 -0.01355089 1.625682 0.2943443 0.004867082 1.62136 0.2969677 0.0225591 1.61611 0.2947322
97 0.01372488 1.549593 0.2232927 -0.01851888 1.624161 0.303865 -0.02668853 1.589162 0.2797391 -0.01988424 1.587318 0.2828681 -0.008452873 1.583818 0.2895061 0.005239923 1.589725 0.2916547 -0.02978027 1.619231 0.2844484 -0.02541698 1.626214 0.2852936 -0.01362774 1.625058 0.2943264 0.004747773 1.620912 0.2977745 0.02275914 1.615517 0.2962418
98 0.01234009 1.550172 0.2222924 -0.01717317 1.622098 0.3051648 -0.02841612 1.589848 0.279762 -0.02248192 1.587203 0.2831034 -0.01160191 1.584874 0.2916583 0.003629551 1.591339 0.2935686 -0.02857337 1.618801 0.2854806 -0.02539215 1.626938 0.2846656 -0.01401073 1.624696 0.2938452 0.004390616 1.6209 0.2982502 0.02291061 1.615416 0.2975429
99 0.01106119 1.550828 0.2212953 -0.01587293 1.619752 0.3063609 -0.02993083 1.590611 0.279379 -0.02488799 1.587447 0.2831286 -0.01438947 1.586236 0.2935681 0.002026384 1.59281 0.2950948 -0.02739324 1.618036 0.2865401 -0.02552571 1.627554 0.2840431 -0.01453646 1.624441 0.2933217 0.003926931 1.621053 0.2986379 0.02288906 1.615155 0.2986501
100 0.009988246 1.551496 0.2204331 -0.01429364 1.61749 0.3071458 -0.03069592 1.591313 0.2781739 -0.02662055 1.58791 0.2828473 -0.01628976 1.587643 0.2949079 0.000727627 1.593583 0.2959725 -0.02607407 1.617365 0.2873937 -0.02562129 1.62795 0.2836861 -0.01496409 1.624235 0.2930429 0.00361802 1.621292 0.2991739 0.02266751 1.61453 0.2995881
101 0.009058639 1.552156 0.2197231 -0.01326062 1.61582 0.3075075 -0.03100695 1.592031 0.2765255 -0.02779381 1.588542 0.2824871 -0.01755792 1.58888 0.2958211 -0.0004007673 1.593678 0.2963779 -0.02521683 1.617056 0.2878753 -0.02572019 1.62822 0.2835801 -0.01533169 1.624179 0.2930495 0.003372992 1.621578 0.2998298 0.0221331 1.613721 0.3003463
102 0.008141162 1.552873 0.2189711 -0.01270698 1.614374 0.3075551 -0.03100448 1.592805 0.2745368 -0.02867066 1.589468 0.2824226 -0.01851342 1.590048 0.2966901 -0.001530727 1.592886 0.2962705 -0.02471647 1.616996 0.2880895 -0.02578055 1.628328 0.2837661 -0.01559124 1.62429 0.2934701 0.003267614 1.621774 0.3007125 0.02119341 1.612343 0.3008785
103 0.007232982 1.553615 0.218211 -0.01271991 1.613688 0.3074058 -0.03075768 1.593641 0.272922 -0.02909097 1.590607 0.2827527 -0.01900583 1.590969 0.297457 -0.002242019 1.591958 0.2960137 -0.02462349 1.617387 0.2880536 -0.02560723 1.628416 0.2842144 -0.01547231 1.624679 0.2942692 0.003511997 1.62186 0.3016181 0.02049045 1.610908 0.301182
104 0.006411478 1.554361 0.2174665 -0.01298077 1.61329 0.3072375 -0.03054575 1.594374 0.2717365 -0.02930778 1.591633 0.2833247 -0.01917106 1.591449 0.297874 -0.002668345 1.590978 0.2955756 -0.02474646 1.617866 0.2879869 -0.02536664 1.628428 0.2848013 -0.01517366 1.625116 0.2952361 0.003845058 1.62173 0.3024217 0.01993811 1.609525 0.3013045
105 0.005557104 1.55533 0.2166587 -0.01347193 1.613252 0.3070388 -0.03051237 1.595199 0.2708691 -0.02956306 1.592732 0.2841025 -0.01931367 1.591783 0.2981435 -0.003121479 1.590037 0.2950546 -0.0250331 1.618618 0.2878612 -0.025143 1.62851 0.28552 -0.0148267 1.625691 0.2964031 0.004122897 1.621501 0.3032529 0.01936564 1.608152 0.3014272
106 0.004912076 1.556406 0.2159397 -0.01399781 1.613258 0.3069647 -0.03064955 1.595868 0.2704706 -0.02977002 1.59358 0.2847036 -0.01941613 1.591923 0.2981839 -0.003519049 1.589305 0.2945128 -0.02538529 1.619278 0.287864 -0.02501501 1.628623 0.2862244 -0.01456561 1.626171 0.2974857 0.004262111 1.621226 0.3039672 0.01885675 1.607092 0.3015321
107 0.004442592 1.557634 0.2152951 -0.01468496 1.612983 0.3071227 -0.03098842 1.596255 0.2705436 -0.02997587 1.594004 0.2849284 -0.01957184 1.591812 0.2981103 -0.0037783 1.58885 0.2942229 -0.02596479 1.619631 0.2881439 -0.02514209 1.628623 0.2870464 -0.01460189 1.626315 0.2985824 0.004137312 1.620846 0.3047716 0.01842367 1.606365 0.3018954
108 0.004254079 1.5589 0.2147168 -0.01576901 1.612271 0.3073618 -0.03154676 1.596179 0.2706703 -0.03012389 1.593718 0.2844484 -0.01958581 1.591275 0.2975636 -0.003851329 1.58832 0.2938631 -0.02702477 1.619475 0.288547 -0.02580483 1.628157 0.2879547 -0.01525169 1.625775 0.2996226 0.003575244 1.620267 0.3056774 0.01783362 1.605798 0.3023818
109 0.004179743 1.559985 0.214152 -0.01671564 1.611406 0.3076786 -0.03214324 1.595669 0.2708809 -0.03001842 1.592826 0.2833097 -0.01956212 1.59027 0.2967025 -0.004019369 1.587495 0.2932672 -0.02802978 1.618888 0.288987 -0.02671992 1.627312 0.2887605 -0.01624763 1.624621 0.3003342 0.002728731 1.619396 0.3063874 0.01708639 1.605148 0.3027108
110 0.004411637 1.560954 0.2137492 -0.01750209 1.610105 0.3079278 -0.03271702 1.594877 0.2711139 -0.02968238 1.591613 0.2815765 -0.01942055 1.588855 0.2950422 -0.004129244 1.586742 0.2922561 -0.02908769 1.617823 0.2894759 -0.02786703 1.626344 0.2893541 -0.01753968 1.623141 0.3005622 0.001481117 1.618345 0.3066943 0.01622864 1.604766 0.3028408
111 0.004812649 1.562063 0.2138468 -0.01844384 1.60944 0.3083507 -0.03333735 1.594492 0.271547 -0.02933069 1.590969 0.2805294 -0.01908626 1.588039 0.293433 -0.004453744 1.586371 0.2911832 -0.03035055 1.617105 0.290064 -0.02922446 1.625764 0.2899956 -0.01898485 1.622291 0.3008453 3.740496E-05 1.617915 0.3070258 0.01510469 1.604946 0.3029937
112 0.005379098 1.563124 0.2144104 -0.0192685 1.609416 0.3087493 -0.03347888 1.594675 0.2715766 -0.02899842 1.590999 0.2801446 -0.01863325 1.587918 0.2920357 -0.005020161 1.586346 0.2901385 -0.03155594 1.616825 0.2905948 -0.03069689 1.625602 0.2904975 -0.02044171 1.622247 0.3011472 -0.001464112 1.618212 0.3072985 0.01376858 1.605649 0.3030446
113 0.006285773 1.564032 0.2152994 -0.01979744 1.609416 0.3092918 -0.03338247 1.594775 0.2717437 -0.02844116 1.591065 0.2799413 -0.01779876 1.587834 0.290588 -0.005116694 1.58642 0.288993 -0.03257267 1.616462 0.2913123 -0.03209903 1.625346 0.2911248 -0.02176917 1.622207 0.301569 -0.002884604 1.618507 0.3075776 0.01257124 1.606476 0.3031209
114 0.007353505 1.565012 0.2156028 -0.01968195 1.609418 0.3094919 -0.03267233 1.594573 0.2714607 -0.02687288 1.590614 0.2789989 -0.01556703 1.58657 0.2869189 -0.00413781 1.585835 0.2858426 -0.03306651 1.615885 0.291725 -0.03304652 1.624213 0.2918351 -0.02257346 1.621175 0.3018467 -0.004084894 1.617156 0.3070737 0.01176054 1.606235 0.3023527
115 0.008182386 1.565607 0.2153037 -0.01959228 1.610462 0.3089764 -0.0316526 1.594332 0.2707558 -0.02479706 1.590214 0.2772998 -0.01323312 1.585266 0.283155 -0.002373933 1.585498 0.2825681 -0.03341051 1.616181 0.291279 -0.03318441 1.62288 0.2923614 -0.02251406 1.619747 0.3018035 -0.004292963 1.615229 0.3060351 0.01186478 1.605638 0.3012089
116 0.008849904 1.565987 0.2148021 -0.01979091 1.612892 0.3079564 -0.03071058 1.594247 0.2697883 -0.02299208 1.589996 0.2756302 -0.01118718 1.584955 0.2804953 -0.0005407293 1.585735 0.2801575 -0.03377877 1.61756 0.2900849 -0.03294653 1.621949 0.2925144 -0.02205908 1.618777 0.3014133 -0.003848677 1.614294 0.304985 0.01249232 1.605724 0.3000712
117 0.009442375 1.566248 0.2148069 -0.02026852 1.615983 0.3070382 -0.03008045 1.594306 0.2693861 -0.02176872 1.590074 0.2750226 -0.00963624 1.585861 0.2800455 0.0009130969 1.586561 0.2794769 -0.03422415 1.619487 0.288877 -0.03276425 1.621631 0.2926732 -0.02168631 1.618706 0.3012757 -0.003261967 1.614968 0.3047318 0.01320469 1.606823 0.2996365
118 0.01026771 1.566495 0.2149309 -0.02094945 1.618912 0.306015 -0.02970758 1.594285 0.2689193 -0.02108309 1.590247 0.2747457 -0.008515005 1.58697 0.2798875 0.001908468 1.587398 0.2790555 -0.03462997 1.621281 0.2874622 -0.03293195 1.621551 0.2923881 -0.0217528 1.61907 0.300958 -0.003186478 1.616092 0.3044816 0.01339214 1.608151 0.2992726
119 0.01111272 1.566658 0.2151262 -0.02148556 1.621444 0.3048831 -0.0295148 1.594279 0.2685115 -0.02065587 1.590386 0.2746626 -0.007737146 1.587933 0.2799619 0.002627377 1.588086 0.2787709 -0.03490909 1.622878 0.2860417 -0.03315033 1.621519 0.2920593 -0.0219149 1.619486 0.300673 -0.003236761 1.617238 0.304327 0.0134194 1.609324 0.2989706
120 0.01211701 1.566809 0.2154121 -0.02175595 1.623862 0.3035838 -0.02922382 1.593651 0.2687519 -0.01988935 1.590322 0.2752525 -0.006538053 1.588719 0.2804694 0.003798449 1.588979 0.2788521 -0.03511184 1.624156 0.2846482 -0.03320005 1.621172 0.2920504 -0.02183283 1.619914 0.300707 -0.003007694 1.618687 0.3042885 0.01386843 1.61097 0.298683
121 0.01319204 1.56674 0.2154183 -0.02220539 1.62609 0.3017232 -0.02848445 1.592748 0.2689184 -0.01872595 1.590094 0.2757191 -0.004972918 1.589096 0.2805558 0.005208814 1.589619 0.2787001 -0.03552077 1.625161 0.2827954 -0.03290833 1.620509 0.2920386 -0.0213869 1.620098 0.3007107 -0.00246511 1.619712 0.3039705 0.01465876 1.612342 0.2980917
122 0.01462422 1.566472 0.2151921 -0.02317196 1.627559 0.2991502 -0.02720131 1.59181 0.2683004 -0.01770335 1.589248 0.2758447 -0.003832584 1.590014 0.2817981 0.006476402 1.590158 0.2789842 -0.03637963 1.625622 0.2802339 -0.03280962 1.619508 0.2915125 -0.02120215 1.61997 0.3002984 -0.002092036 1.621423 0.3038314 0.01526125 1.613642 0.2974856
123 0.01629923 1.566165 0.2151819 -0.02406472 1.628206 0.2965496 -0.02569534 1.591164 0.2674453 -0.01651467 1.58828 0.2753415 -0.003352164 1.592888 0.2851654 0.007471906 1.591216 0.2801101 -0.03726754 1.625495 0.2777262 -0.03293087 1.618611 0.2906599 -0.02131357 1.619727 0.2994536 -0.00187768 1.625387 0.3041534 0.01564711 1.615593 0.2970761
124 0.01794351 1.565948 0.2158267 -0.02469001 1.628479 0.2946381 -0.02418746 1.591038 0.2669387 -0.01497069 1.587783 0.2746205 -0.003345472 1.597327 0.289817 0.008251483 1.593072 0.282139 -0.03802805 1.624988 0.2760364 -0.03314236 1.617986 0.2901549 -0.02151476 1.619524 0.2987383 -0.001842894 1.631057 0.3045847 0.01588288 1.618402 0.2970962
125 0.01937837 1.565776 0.2168342 -0.02527514 1.628501 0.2935887 -0.02309979 1.591007 0.2667563 -0.01366619 1.587631 0.2740146 -0.003553997 1.600623 0.2928138 0.008660648 1.594715 0.2835097 -0.03869485 1.62424 0.2752 -0.03352609 1.617532 0.2899007 -0.02188596 1.619349 0.2982202 -0.002343944 1.635355 0.304544 0.01566398 1.620784 0.2971117
126 0.02092958 1.565604 0.2176348 -0.02640815 1.628103 0.2926315 -0.02190572 1.59038 0.2666715 -0.01215653 1.587467 0.2732708 -0.003462756 1.601675 0.2931448 0.008848424 1.59579 0.2833279 -0.03968152 1.622553 0.2744828 -0.03415281 1.616635 0.2893741 -0.02250633 1.618969 0.297381 -0.003866624 1.637733 0.3035004 0.01488019 1.622824 0.2963106
127 0.02243652 1.565364 0.2178736 -0.02740794 1.627281 0.2919351 -0.02056001 1.589166 0.2666039 -0.01075083 1.587025 0.2728424 -0.003114894 1.601322 0.2926029 0.008959237 1.596296 0.2823992 -0.04033451 1.620243 0.2740705 -0.03471145 1.61528 0.2886165 -0.023106 1.618407 0.2963645 -0.005593345 1.638489 0.3018539 0.01402665 1.624271 0.2948147
128 0.02370234 1.565125 0.2179945 -0.02839329 1.626301 0.2916431 -0.01941794 1.587853 0.2667311 -0.00955809 1.586412 0.2728015 -0.002928586 1.601001 0.292584 0.009036088 1.596829 0.2821172 -0.04082868 1.617812 0.2740886 -0.03524206 1.613893 0.287978 -0.0237251 1.617826 0.2954547 -0.00729595 1.63894 0.300179 0.01308781 1.625759 0.2933288
129 0.02491237 1.56495 0.2183174 -0.02877286 1.624857 0.2922254 -0.01825582 1.586243 0.2674566 -0.008310031 1.585248 0.2732316 -0.00232183 1.599953 0.2923839 0.0093886 1.597388 0.2824909 -0.04080894 1.61506 0.2750971 -0.03561829 1.612065 0.2880128 -0.02415184 1.616705 0.295099 -0.008856269 1.638258 0.2991041 0.01204225 1.627136 0.2922813
130 0.0260537 1.56474 0.2188753 -0.02864398 1.622892 0.2934681 -0.01707076 1.584296 0.2691521 -0.00711831 1.583824 0.2745957 -0.001601055 1.598649 0.2930226 0.009958514 1.598104 0.2837727 -0.0405075 1.612073 0.2768459 -0.03577204 1.610117 0.2886393 -0.02439055 1.61548 0.2953427 -0.01007553 1.63712 0.2985987 0.01098125 1.628474 0.2917228
131 0.02739204 1.564506 0.2200055 -0.02831977 1.620945 0.2950994 -0.01613512 1.582713 0.2710027 -0.006253802 1.58277 0.27613 -0.001181583 1.597627 0.2937492 0.01012085 1.598799 0.2850338 -0.04001737 1.609327 0.2788979 -0.0360954 1.608513 0.2892593 -0.02487864 1.614538 0.2957086 -0.01130282 1.636078 0.2983538 0.009740681 1.629522 0.2915454
132 0.02929358 1.563974 0.2224308 -0.02832087 1.619169 0.2969672 -0.01571243 1.581248 0.2735529 -0.006384039 1.58203 0.2784912 -0.001816781 1.59666 0.2945344 0.009079045 1.599669 0.2867269 -0.03938712 1.606464 0.28116 -0.03767839 1.607146 0.289049 -0.02687531 1.614109 0.295443 -0.0139762 1.634918 0.297408 0.006856601 1.630947 0.2911907
133 0.03076339 1.563155 0.224549 -0.0293869 1.618129 0.2989238 -0.01592568 1.579932 0.2755172 -0.007136509 1.58083 0.2806196 -0.002265135 1.594188 0.2949298 0.007970167 1.598936 0.2883242 -0.03882466 1.604507 0.2829002 -0.03909971 1.605473 0.2889749 -0.02859895 1.612926 0.2955465 -0.01555263 1.632017 0.2974397 0.004767009 1.63037 0.291748
134 0.03218538 1.562294 0.2260507 -0.03127491 1.617154 0.2998726 -0.0155219 1.578841 0.2769012 -0.00744855 1.579376 0.2823889 -0.002370422 1.592065 0.2951605 0.007032336 1.597992 0.2895603 -0.03869166 1.602682 0.2836218 -0.04003235 1.603578 0.2888426 -0.02980197 1.611518 0.2956075 -0.016601 1.629505 0.2974733 0.003448478 1.629499 0.2922351
135 0.03371507 1.561418 0.2273451 -0.03330081 1.616061 0.2996705 -0.01512525 1.577877 0.2777606 -0.007507514 1.578284 0.283528 -0.001876037 1.58989 0.294849 0.006650567 1.596881 0.2901445 -0.03888483 1.600898 0.2833853 -0.04081355 1.601622 0.2885355 -0.03090947 1.610072 0.2954816 -0.01750574 1.626788 0.2972358 0.002258547 1.628345 0.2924054
136 0.03521978 1.560731 0.2287436 -0.0344837 1.615058 0.2992616 -0.01489443 1.577095 0.2784869 -0.007629599 1.577643 0.2845406 -0.001766526 1.588704 0.2950579 0.006331366 1.59637 0.2907743 -0.03891601 1.599439 0.2830964 -0.04150195 1.600086 0.2880975 -0.03197608 1.609051 0.2951739 -0.01850643 1.625086 0.296797 0.001032712 1.627714 0.2923515
137 0.03679004 1.560101 0.2306567 -0.03511529 1.614426 0.2988668 -0.0149898 1.576454 0.2793795 -0.007988006 1.577398 0.2858919 -0.002368674 1.588548 0.295917 0.00583573 1.596282 0.2917109 -0.03874715 1.598429 0.2829028 -0.04229315 1.598897 0.2876331 -0.033247 1.608407 0.2948259 -0.01992263 1.624474 0.2963445 -0.0003248209 1.627465 0.292327
138 0.03834301 1.559775 0.2320403 -0.03520705 1.613599 0.2990401 -0.01484369 1.575744 0.2810695 -0.007852588 1.577511 0.2873498 -0.002938202 1.588831 0.2973258 0.005698836 1.596297 0.2926238 -0.03791299 1.5973 0.2832527 -0.04297776 1.597634 0.2874117 -0.03439878 1.607626 0.2946372 -0.0213823 1.624156 0.29596 -0.001505647 1.62725 0.2923082
139 0.03966933 1.559441 0.2328275 -0.03486807 1.612651 0.299681 -0.01467188 1.574981 0.2833425 -0.0077195 1.57755 0.2891032 -0.003824817 1.589441 0.299424 0.005740776 1.59628 0.2936028 -0.03663566 1.596135 0.284044 -0.04356542 1.596525 0.2873067 -0.03530044 1.60694 0.294471 -0.02266979 1.624218 0.2954244 -0.002305466 1.626998 0.2920378
140 0.04086548 1.559018 0.2334476 -0.03480081 1.61192 0.2999524 -0.01485425 1.574599 0.2853141 -0.007408992 1.577599 0.2900307 -0.00464977 1.590008 0.3008875 0.005724503 1.596408 0.2943143 -0.03556087 1.595225 0.2844806 -0.04423676 1.59591 0.2867409 -0.03592113 1.606368 0.293818 -0.02368349 1.624292 0.2944533 -0.002955824 1.626883 0.2913569
141 0.04197615 1.558516 0.2340234 -0.03553194 1.611427 0.2993474 -0.01521187 1.574764 0.2858926 -0.006825983 1.577653 0.2895824 -0.004678352 1.590134 0.3005737 0.005679077 1.596607 0.2940418 -0.03511446 1.594512 0.2841594 -0.04487658 1.595775 0.2854773 -0.03617945 1.605979 0.2924554 -0.02419639 1.624063 0.2929019 -0.003449578 1.62691 0.2900251
142 0.04297236 1.558008 0.2346107 -0.03676176 1.611163 0.2980515 -0.01555019 1.5753 0.2852069 -0.006129735 1.577771 0.2882064 -0.003793586 1.589726 0.2988174 0.005618486 1.596777 0.2929946 -0.03511563 1.593994 0.2832918 -0.04546718 1.595928 0.2837987 -0.03622192 1.605763 0.2906801 -0.02421654 1.623403 0.2910605 -0.003818525 1.627015 0.2882729
143 0.04368358 1.557538 0.2352219 -0.03789291 1.611329 0.2964648 -0.01566511 1.575879 0.2838379 -0.005566527 1.577906 0.2867208 -0.002516148 1.589045 0.2967324 0.005619866 1.59679 0.2917726 -0.03529097 1.593926 0.2821562 -0.04578084 1.596266 0.282327 -0.03608304 1.605807 0.2891388 -0.02376286 1.622668 0.2895591 -0.003862752 1.627115 0.2867512
144 0.04413434 1.556885 0.2355679 -0.03899238 1.611939 0.2944097 -0.0154217 1.576644 0.2820555 -0.005098913 1.578266 0.2854543 -0.0006714999 1.58831 0.2944039 0.006005372 1.596758 0.290235 -0.03567404 1.594241 0.280655 -0.04560079 1.597093 0.2811199 -0.03558925 1.606485 0.2878075 -0.02252422 1.622136 0.2882683 -0.003206054 1.627335 0.2853144
145 0.04447398 1.555997 0.235745 -0.03920906 1.613101 0.2920815 -0.01472287 1.577356 0.2800659 -0.004677221 1.578774 0.2843691 0.001287031 1.587763 0.2919915 0.006908533 1.596645 0.2883645 -0.03590886 1.595022 0.2788253 -0.04472562 1.598334 0.2800776 -0.03463644 1.607736 0.2865767 -0.02061936 1.622048 0.2870516 -0.001772991 1.627579 0.2839054
146 0.04462916 1.555031 0.2357498 -0.03927869 1.614264 0.2896082 -0.01396131 1.577744 0.2778925 -0.004294191 1.579206 0.2828656 0.002981042 1.587265 0.2892213 0.007906862 1.596347 0.2861366 -0.0362994 1.595811 0.2767679 -0.04360154 1.599528 0.2789841 -0.03356311 1.608952 0.2852918 -0.01872286 1.622048 0.2857942 -0.0002476082 1.627626 0.2824893
147 0.04455331 1.554036 0.2356699 -0.03951759 1.615458 0.2869476 -0.0132247 1.578162 0.2753833 -0.003825385 1.579704 0.2807759 0.004733496 1.586825 0.2858021 0.008981572 1.596109 0.283454 -0.03692522 1.596597 0.2745847 -0.04237122 1.600761 0.2779297 -0.03237073 1.610202 0.2839769 -0.01679857 1.622078 0.2844081 0.0012607 1.627679 0.2808613
148 0.04428312 1.553018 0.235578 -0.04003157 1.61651 0.2842285 -0.01263856 1.578561 0.2730184 -0.00341678 1.580094 0.2785792 0.006156417 1.586424 0.2825421 0.009972308 1.595876 0.280915 -0.03774284 1.597287 0.2723314 -0.04119847 1.60192 0.2770137 -0.03119608 1.611344 0.2828345 -0.01504293 1.622137 0.2831716 0.002676516 1.627666 0.2794232
149 0.04393953 1.552037 0.23531 -0.04058465 1.617176 0.2818083 -0.01226947 1.578789 0.2711509 -0.003134705 1.580256 0.276645 0.00711788 1.586084 0.2798986 0.01077786 1.595579 0.2788227 -0.03846489 1.5977 0.2702613 -0.04026834 1.602771 0.2761922 -0.03020828 1.612134 0.2818648 -0.01367804 1.622147 0.2821178 0.003843908 1.627519 0.2782376
150 0.0432896 1.550966 0.2347848 -0.04126309 1.617788 0.2791342 -0.01227173 1.578965 0.2693958 -0.003162859 1.580312 0.2745769 0.007726645 1.585704 0.2772475 0.01150404 1.595149 0.2767029 -0.03948765 1.598077 0.2678884 -0.03948396 1.603695 0.2754028 -0.02927442 1.612901 0.2809621 -0.01242091 1.622147 0.2811192 0.004974578 1.627201 0.2771225
151 0.04244839 1.549776 0.2341509 -0.04178811 1.61832 0.2765189 -0.01260703 1.578919 0.2678172 -0.003421695 1.580207 0.2726198 0.007927716 1.585326 0.2751656 0.01200248 1.594553 0.2750719 -0.04042976 1.598449 0.2654616 -0.03887875 1.604455 0.2746021 -0.02849957 1.613406 0.2801398 -0.01146147 1.622092 0.2802688 0.005946304 1.626684 0.2762484
152 0.04160393 1.548705 0.2334882 -0.04212362 1.618865 0.2740369 -0.01304471 1.57887 0.2662898 -0.003751304 1.580104 0.2708574 0.007926657 1.58498 0.273459 0.01227794 1.593923 0.2737462 -0.04118397 1.598898 0.2630756 -0.03844302 1.605048 0.2737893 -0.0279265 1.613734 0.2793662 -0.01077589 1.622017 0.2795352 0.006710825 1.626127 0.2755567
153 0.04079204 1.547867 0.2327024 -0.04218427 1.619527 0.2718191 -0.01335849 1.578984 0.2649263 -0.003997848 1.580088 0.2694652 0.00789691 1.584669 0.2721911 0.0124732 1.593338 0.2727945 -0.04164337 1.599515 0.2608908 -0.0380012 1.605584 0.2731883 -0.02737867 1.614056 0.2788334 -0.01011015 1.621997 0.2790667 0.007476689 1.62564 0.2751341
154 0.03985242 1.547192 0.2317843 -0.04183797 1.620627 0.269803 -0.01356367 1.579384 0.2637452 -0.0041216 1.580277 0.2683947 0.007897952 1.584503 0.2712721 0.01277839 1.592942 0.272127 -0.04181975 1.600601 0.2588705 -0.03736177 1.606408 0.272865 -0.02660891 1.614639 0.2785629 -0.009191209 1.622222 0.2788285 0.008490704 1.625346 0.2748892
155 0.03896755 1.546673 0.2310276 -0.04152887 1.621694 0.2681297 -0.01366773 1.579891 0.2628465 -0.004092463 1.58057 0.2676155 0.008036764 1.584447 0.2705849 0.01321765 1.592723 0.2716574 -0.04196094 1.601677 0.2571701 -0.03665787 1.607304 0.2727495 -0.02576458 1.615254 0.2784901 -0.008210393 1.622483 0.2787884 0.009521915 1.625168 0.2748263
156 0.03813438 1.54616 0.2303699 -0.0411211 1.622815 0.2661999 -0.01385266 1.580441 0.2617297 -0.004022465 1.580917 0.2666942 0.008231441 1.5844 0.2698159 0.01373286 1.592389 0.2710996 -0.04214042 1.602854 0.2551419 -0.035868 1.608292 0.2725143 -0.02483536 1.615859 0.278328 -0.007155166 1.622694 0.2787231 0.01064158 1.624832 0.2747897
157 0.03716478 1.545758 0.2296447 -0.04036168 1.623997 0.2657357 -0.01403716 1.580986 0.2611521 -0.004053817 1.581354 0.2662767 0.00826137 1.584463 0.2695411 0.01407287 1.592164 0.2708125 -0.04193769 1.604175 0.2544774 -0.03525329 1.609279 0.2724332 -0.02409674 1.616554 0.2782673 -0.006289481 1.62306 0.2786796 0.01158529 1.624631 0.2747141
158 0.03597197 1.545469 0.2288908 -0.0395089 1.625237 0.2661272 -0.01436069 1.581588 0.2608501 -0.00435975 1.581891 0.2660784 0.008004023 1.58466 0.269489 0.0142034 1.592157 0.27068 -0.04165261 1.60562 0.2546004 -0.03478198 1.610415 0.2723003 -0.02350299 1.617429 0.2781481 -0.005562406 1.623592 0.2785673 0.01235998 1.624638 0.2745679
159 0.03496512 1.545277 0.2284361 -0.03868854 1.626466 0.2663928 -0.01471379 1.582273 0.2606584 -0.004746278 1.582588 0.2659442 0.007670224 1.585089 0.2695541 0.01424281 1.592322 0.2706791 -0.04134713 1.607034 0.2546524 -0.03439993 1.611637 0.2719843 -0.02303633 1.618439 0.2778873 -0.004979236 1.624303 0.2783768 0.0130076 1.624814 0.2744248
160 0.03424491 1.545068 0.2280952 -0.03763427 1.627539 0.2664477 -0.0148832 1.582895 0.2606014 -0.004894718 1.583196 0.2658363 0.007575729 1.585498 0.2695453 0.01438411 1.592453 0.2706481 -0.04085059 1.608269 0.2545685 -0.03390129 1.612745 0.271665 -0.02244512 1.619333 0.2776179 -0.004283473 1.624913 0.2781649 0.01375961 1.624956 0.2742613
161 0.03359044 1.544676 0.2275256 -0.03643275 1.628334 0.266391 -0.0148536 1.583246 0.2605727 -0.004797973 1.583455 0.265667 0.007728198 1.585564 0.2694125 0.01463408 1.59228 0.2705648 -0.04018117 1.60923 0.2543892 -0.03323838 1.613514 0.2714339 -0.02166458 1.619839 0.2774312 -0.003412731 1.625145 0.2780105 0.0146724 1.624798 0.2741154
162 0.03287692 1.544229 0.2264867 -0.03514096 1.628937 0.2658419 -0.01491785 1.583384 0.2600642 -0.004662887 1.583472 0.2649047 0.008033521 1.585287 0.2685762 0.01495784 1.591767 0.2699756 -0.03960414 1.610081 0.2536775 -0.03246679 1.61402 0.2711256 -0.02075671 1.61998 0.2771674 -0.002427482 1.624915 0.2777578 0.01565561 1.624236 0.2738063
163 0.03210655 1.54368 0.2257378 -0.03352571 1.629367 0.265309 -0.01508508 1.583435 0.2593969 -0.004592473 1.583353 0.2640227 0.008166092 1.584768 0.2678353 0.0151896 1.591212 0.2695196 -0.03901392 1.610955 0.2528572 -0.03171055 1.614438 0.2708378 -0.01989471 1.619954 0.2769795 -0.001506574 1.624505 0.2776799 0.0165592 1.623566 0.2737565
164 0.03122906 1.543043 0.2253785 -0.03160758 1.629745 0.2654505 -0.01525512 1.583539 0.2590459 -0.00455224 1.583226 0.2634577 0.008122498 1.584203 0.2676004 0.01538827 1.590754 0.2695425 -0.03823598 1.611931 0.2526581 -0.03084171 1.615011 0.2707621 -0.01891004 1.620004 0.2770023 -0.0004627254 1.624145 0.2778327 0.01756771 1.622952 0.2739658
165 0.0303597 1.542483 0.225151 -0.02974633 1.629887 0.2665192 -0.01536787 1.583603 0.2591205 -0.004639358 1.58299 0.2634174 0.007774523 1.583655 0.2682354 0.01532619 1.590369 0.2702601 -0.0373424 1.612778 0.2532913 -0.03007338 1.615501 0.2709161 -0.01804444 1.619982 0.2772905 0.0004458378 1.623875 0.2782955 0.01849311 1.622382 0.2745297
166 0.02957769 1.542161 0.2250104 -0.0286012 1.629965 0.2678282 -0.01559517 1.583767 0.2592856 -0.004911717 1.582847 0.2635906 0.007185427 1.583343 0.2690396 0.01496466 1.590205 0.2710806 -0.03674166 1.613422 0.2542028 -0.0296896 1.61599 0.270936 -0.01760491 1.62003 0.2774504 0.0009131411 1.623779 0.2786679 0.01899883 1.622043 0.2750576
167 0.02881433 1.541884 0.2247874 -0.027858 1.630032 0.2690001 -0.01586263 1.583931 0.2594093 -0.005259647 1.582736 0.2637575 0.006568 1.583125 0.2697161 0.01454368 1.590076 0.2717311 -0.03629552 1.613919 0.2550415 -0.02945882 1.616432 0.270816 -0.01734218 1.620105 0.2774615 0.001204375 1.623716 0.2788828 0.01932783 1.62175 0.275433
168 0.02814842 1.541609 0.2244821 -0.02724146 1.63001 0.2703741 -0.01623536 1.584036 0.2596244 -0.005802893 1.582624 0.2641019 0.005817782 1.582951 0.2704497 0.01399124 1.589965 0.2723623 -0.03582181 1.614271 0.2560875 -0.02935454 1.616857 0.2705455 -0.01722622 1.620237 0.2773309 0.001365873 1.623669 0.2789624 0.01954373 1.621469 0.275703
169 0.02751003 1.541454 0.2240832 -0.02666799 1.630133 0.2717665 -0.01664338 1.584169 0.260022 -0.006340122 1.58272 0.2645682 0.005178226 1.582867 0.2710752 0.0135046 1.589885 0.2729345 -0.03525388 1.614641 0.2572263 -0.02924921 1.617348 0.2703678 -0.0171166 1.620537 0.2772599 0.001548673 1.623658 0.2790301 0.01976119 1.621253 0.2759058
170 0.02691613 1.541389 0.2235925 -0.02629055 1.630169 0.2734017 -0.01704974 1.58434 0.2607557 -0.00695012 1.583005 0.2653343 0.004576751 1.582914 0.2716886 0.012954 1.589846 0.2734607 -0.03473043 1.614844 0.2586158 -0.02920826 1.617958 0.2701308 -0.0170699 1.621066 0.2771194 0.00169614 1.623732 0.2789906 0.01994417 1.621101 0.2759921
171 0.02641596 1.541483 0.2232269 -0.02616929 1.63016 0.2751618 -0.01740516 1.584563 0.2618369 -0.007619346 1.583463 0.2663116 0.004058318 1.583076 0.2722339 0.01246144 1.589916 0.2738498 -0.03436258 1.614892 0.2601928 -0.0293474 1.61858 0.269977 -0.01718199 1.621729 0.2770275 0.00167755 1.623874 0.2789304 0.0199374 1.621101 0.2760091
172 0.02596184 1.54168 0.2230175 -0.02614618 1.630449 0.276505 -0.01776316 1.584961 0.2629851 -0.008264055 1.584133 0.2671929 0.003713703 1.583325 0.2723717 0.01206796 1.590052 0.2739007 -0.03405296 1.615082 0.2614968 -0.02955579 1.619347 0.2697718 -0.01734028 1.622594 0.2768391 0.001601671 1.624106 0.2787112 0.01982799 1.621254 0.2758183
173 0.0255833 1.542051 0.2229683 -0.02601003 1.63106 0.2771227 -0.0181111 1.58556 0.2637259 -0.008845675 1.58503 0.267688 0.003532103 1.583734 0.272048 0.01180859 1.59038 0.2736176 -0.03381398 1.615585 0.2621767 -0.02982819 1.620212 0.2694553 -0.01758276 1.623635 0.2765294 0.001412462 1.624502 0.2783574 0.01958573 1.621662 0.2754828
174 0.02529428 1.542381 0.2230377 -0.02569683 1.631796 0.2769811 -0.01840177 1.586151 0.2637562 -0.00930317 1.585877 0.2676134 0.003512612 1.584028 0.2711802 0.01163143 1.590628 0.2730803 -0.03359471 1.616256 0.2621531 -0.03009476 1.620935 0.268995 -0.01786346 1.624556 0.2761022 0.001149983 1.624756 0.2779349 0.01925739 1.622032 0.2751166
175 0.02496316 1.542575 0.2230733 -0.02530723 1.6322 0.2768241 -0.01856468 1.586436 0.263384 -0.009735829 1.586333 0.2672395 0.003401333 1.583991 0.2702982 0.01146814 1.59063 0.2727461 -0.03342006 1.616802 0.2619684 -0.03018423 1.621309 0.2686812 -0.01799075 1.625072 0.275901 0.001007696 1.624658 0.2778081 0.0190463 1.622084 0.2750807
176 0.02451567 1.542581 0.2231067 -0.02424451 1.632195 0.2773477 -0.01868119 1.586481 0.2633585 -0.0101798 1.5865 0.2673037 0.003139332 1.583667 0.2699873 0.01126956 1.590467 0.2730735 -0.03285135 1.61727 0.2622879 -0.02988665 1.621584 0.2686926 -0.01772217 1.6254 0.2760603 0.001249587 1.624319 0.2780533 0.01922924 1.621869 0.2754221
177 0.02386458 1.542595 0.2231532 -0.02276838 1.631916 0.2784595 -0.01895633 1.586538 0.263728 -0.01071704 1.586713 0.2678443 0.002742727 1.583357 0.27018 0.0111157 1.590362 0.273806 -0.03214816 1.617739 0.2631262 -0.02938515 1.621942 0.2690475 -0.01723113 1.625789 0.2765421 0.001700434 1.624006 0.2785621 0.01961656 1.621643 0.2759838
178 0.02316834 1.542602 0.2231947 -0.02148632 1.631629 0.2794958 -0.01923776 1.586632 0.2641665 -0.01112891 1.586928 0.2684489 0.002422036 1.583179 0.2705298 0.01106597 1.590284 0.2744952 -0.03156729 1.618143 0.2639569 -0.02889168 1.622255 0.2695702 -0.01673142 1.626098 0.2771485 0.002157309 1.623776 0.2791547 0.02001858 1.621422 0.2765892
179 0.0223626 1.542833 0.2231139 -0.02012561 1.631671 0.2802419 -0.01971944 1.587024 0.2643278 -0.01143864 1.587356 0.2688733 0.002169842 1.583197 0.2708324 0.01117744 1.590209 0.2750833 -0.03097683 1.618952 0.2645479 -0.02823975 1.622766 0.2703649 -0.01606541 1.626506 0.2779958 0.002755574 1.62367 0.2799253 0.0205387 1.621192 0.2773138
180 0.02137895 1.543145 0.2228449 -0.01879394 1.632 0.2806253 -0.02014174 1.587788 0.2640515 -0.01149774 1.587965 0.2688926 0.002104498 1.58337 0.2708917 0.01138561 1.589868 0.2753797 -0.03033711 1.62012 0.2647386 -0.02737295 1.623423 0.2713388 -0.01518407 1.626895 0.2790582 0.003544376 1.623551 0.2809356 0.02123011 1.620617 0.2782677
181 0.02030993 1.543383 0.222694 -0.01714354 1.631797 0.2815435 -0.02039598 1.588579 0.2638862 -0.01155483 1.588376 0.2687507 0.001944854 1.583406 0.2710943 0.01162345 1.589389 0.2758595 -0.02950163 1.62119 0.2653368 -0.0262973 1.624101 0.2725145 -0.01406923 1.626995 0.2803866 0.004505631 1.623185 0.2823075 0.02208842 1.619733 0.2796595
182 0.01927597 1.543472 0.2232481 -0.01533447 1.630769 0.2832751 -0.02088111 1.589213 0.2641588 -0.01233671 1.588277 0.2690894 0.0008440638 1.583322 0.2724363 0.01123599 1.589299 0.2774901 -0.02847169 1.621991 0.2665501 -0.02557941 1.624876 0.2733834 -0.0134595 1.62683 0.2815739 0.004894684 1.622877 0.2839885 0.02246518 1.61912 0.281776
183 0.01837903 1.543688 0.2236048 -0.01417463 1.629342 0.2850593 -0.02140328 1.58979 0.2641234 -0.01339263 1.587964 0.269379 -0.0005020302 1.583533 0.2738391 0.01045711 1.589233 0.279042 -0.02778017 1.622365 0.2678239 -0.02527243 1.62552 0.2737138 -0.0133866 1.626511 0.2822119 0.004784638 1.622844 0.285313 0.0223117 1.61864 0.2836023
184 0.01747458 1.543949 0.2236696 -0.01321858 1.62767 0.2868922 -0.02201399 1.590264 0.2640218 -0.01476743 1.587637 0.2697153 -0.002241984 1.584003 0.2754649 0.00921989 1.589377 0.2804769 -0.02707767 1.62237 0.2692386 -0.02523128 1.626066 0.2736861 -0.01361773 1.626181 0.2824566 0.004444601 1.623047 0.2863124 0.02192381 1.618258 0.285081
185 0.01658742 1.544324 0.2235079 -0.01230201 1.626124 0.2888026 -0.02258021 1.590727 0.2641084 -0.01609127 1.587512 0.2703266 -0.003932579 1.584708 0.2772711 0.008038742 1.589813 0.2818598 -0.02627581 1.6222 0.2708566 -0.02513131 1.626631 0.273638 -0.0137621 1.626042 0.2825955 0.004261578 1.623463 0.2871116 0.02170414 1.618127 0.2862604
186 0.01575621 1.544783 0.2230698 -0.01110359 1.624651 0.2908798 -0.02299114 1.591202 0.2645767 -0.01715815 1.587586 0.2712248 -0.005469279 1.585565 0.2793403 0.00716254 1.59057 0.2831767 -0.02513648 1.621895 0.2727651 -0.02463759 1.627243 0.2737875 -0.01345728 1.626014 0.2828255 0.004614234 1.623872 0.2878465 0.02208313 1.618056 0.2872693
187 0.01501347 1.545313 0.2222302 -0.009533249 1.623389 0.292753 -0.02318158 1.591616 0.2651277 -0.01780347 1.58767 0.2719404 -0.006580134 1.586205 0.2810591 0.006782789 1.591339 0.2842191 -0.02357668 1.621557 0.2745419 -0.02377682 1.627767 0.2741375 -0.0127355 1.625893 0.2831707 0.005418282 1.623921 0.2885202 0.02301654 1.617835 0.2881341
188 0.01432971 1.545965 0.2212303 -0.007832902 1.622324 0.2944365 -0.02336257 1.592026 0.2656422 -0.01832902 1.587776 0.2724814 -0.00752693 1.586824 0.2825763 0.006712459 1.592573 0.2852641 -0.02185449 1.621186 0.2761722 -0.02288388 1.628282 0.2744887 -0.0119639 1.625769 0.2834533 0.006293895 1.623914 0.2890618 0.02425957 1.617921 0.2889054
189 0.01373327 1.546634 0.2202158 -0.006696473 1.621313 0.2958244 -0.02371038 1.592413 0.2658938 -0.01911319 1.587875 0.2726659 -0.008552237 1.587303 0.2836437 0.006569783 1.594118 0.2862847 -0.0206059 1.620678 0.2774724 -0.02234027 1.62874 0.2745755 -0.01153634 1.625642 0.2834731 0.006774287 1.623884 0.2893375 0.02535788 1.618308 0.2895318
190 0.01323666 1.54719 0.219339 -0.005971166 1.620294 0.2970352 -0.02418374 1.59263 0.2661004 -0.01994462 1.587891 0.2726444 -0.009481617 1.587588 0.2843385 0.006411465 1.595665 0.2872468 -0.01974409 1.620004 0.278594 -0.02208523 1.629031 0.2745736 -0.0113847 1.625438 0.2834018 0.006948146 1.623793 0.2894996 0.02631302 1.618758 0.2901063
191 0.01272987 1.547637 0.2186695 -0.005558055 1.619462 0.2980426 -0.02464777 1.592844 0.2663381 -0.02058796 1.587965 0.2725916 -0.01013542 1.587817 0.2848162 0.006326688 1.596979 0.2881774 -0.01920533 1.619436 0.2795237 -0.02189596 1.629258 0.2746786 -0.01128769 1.625277 0.2834528 0.007062067 1.623709 0.2897294 0.02720257 1.619085 0.2907147
192 0.01213964 1.54814 0.2179686 -0.005295097 1.618574 0.2990347 -0.02517974 1.59316 0.2666524 -0.02125588 1.588197 0.2726365 -0.0107475 1.588175 0.2854172 0.00621673 1.597981 0.2891967 -0.01879363 1.618882 0.280425 -0.0216472 1.629509 0.2749282 -0.01113605 1.625172 0.2836615 0.007250055 1.623633 0.2900869 0.02807528 1.619089 0.2913727
193 0.01158609 1.548682 0.2173382 -0.00518749 1.617849 0.2999075 -0.02564016 1.593503 0.2669401 -0.02177571 1.588499 0.2727838 -0.0112171 1.588598 0.2861312 0.006076017 1.598354 0.2900271 -0.01852024 1.618456 0.2811956 -0.0214217 1.629712 0.2753048 -0.01100052 1.625117 0.2840156 0.007440323 1.623621 0.2905537 0.02854218 1.618822 0.2919315
194 0.01109348 1.549385 0.2166615 -0.005318119 1.617455 0.3006116 -0.02604738 1.593908 0.2671399 -0.02230741 1.588915 0.2731238 -0.01173486 1.589246 0.2870819 0.005715613 1.598199 0.2905993 -0.01841886 1.618276 0.2817521 -0.02126699 1.629937 0.2757163 -0.01092179 1.625186 0.2844296 0.0076183 1.623785 0.291086 0.02850092 1.618358 0.2923411
195 0.01067716 1.550145 0.2160882 -0.005786955 1.617347 0.301167 -0.02638297 1.594311 0.267222 -0.02286211 1.589387 0.2735049 -0.01231432 1.589945 0.2880594 0.005221297 1.597814 0.2909885 -0.01860227 1.61833 0.2821242 -0.02124745 1.630145 0.2761578 -0.01096864 1.62532 0.2849166 0.00767008 1.624 0.2917052 0.02809674 1.617839 0.2927488
196 0.0103709 1.550901 0.2156976 -0.006501216 1.617508 0.3016022 -0.02659676 1.594751 0.2672088 -0.02326823 1.589949 0.2739482 -0.01276109 1.590699 0.2889619 0.004698892 1.59731 0.2911841 -0.01903322 1.6186 0.2823797 -0.02126381 1.630377 0.2766339 -0.01102911 1.625585 0.2854748 0.007714884 1.624323 0.2923673 0.02750419 1.617317 0.2931051
197 0.01023655 1.551651 0.2154361 -0.007298988 1.617891 0.301906 -0.02662195 1.595206 0.2671387 -0.02350869 1.590557 0.2744537 -0.01307832 1.591516 0.2898137 0.004160211 1.596812 0.2912874 -0.01958142 1.619033 0.282526 -0.02130953 1.630646 0.2770761 -0.01108564 1.625985 0.2860287 0.007777109 1.624789 0.2929977 0.02682044 1.616897 0.2933672
198 0.01025148 1.552411 0.2152997 -0.008280878 1.618334 0.302187 -0.02660525 1.595576 0.2670996 -0.0237175 1.591231 0.2752594 -0.01329145 1.59236 0.2906571 0.003417731 1.595939 0.29114 -0.02031916 1.619467 0.2826536 -0.02150054 1.630856 0.2775509 -0.01123453 1.62652 0.2866831 0.00775379 1.625363 0.293668 0.02575943 1.616324 0.2934832
199 0.01032838 1.553195 0.2151517 -0.009297009 1.618392 0.3024781 -0.02671812 1.595727 0.2671654 -0.02399907 1.591718 0.276064 -0.01349304 1.59282 0.2911154 0.002707769 1.59511 0.2907505 -0.02121501 1.619609 0.2828719 -0.02196036 1.630907 0.2780174 -0.01161646 1.626954 0.2873287 0.007433868 1.625748 0.2942634 0.02466171 1.615814 0.2935881
200 0.0104629 1.553941 0.2150796 -0.01041042 1.617809 0.3027866 -0.02703648 1.59561 0.2672923 -0.02443586 1.591823 0.2765104 -0.01385513 1.592835 0.2911707 0.002087837 1.594733 0.2905329 -0.02238398 1.619313 0.2832212 -0.02280959 1.630749 0.2784519 -0.01240415 1.627093 0.2879049 0.006666389 1.625914 0.2948434 0.02363265 1.615669 0.2939174
201 0.01067299 1.55443 0.2151223 -0.0115665 1.616823 0.3031048 -0.02748197 1.59515 0.2674613 -0.02491652 1.591472 0.2767041 -0.01424675 1.592457 0.2909682 0.001557207 1.59454 0.2904935 -0.02368365 1.618568 0.2836316 -0.023937 1.63029 0.2787971 -0.01348453 1.626869 0.2883374 0.005603656 1.625897 0.2953341 0.02264092 1.615775 0.2943242
202 0.01098472 1.554563 0.2152166 -0.01254452 1.615905 0.3033935 -0.02788607 1.594446 0.2677317 -0.02526017 1.590786 0.2768011 -0.01453347 1.591787 0.2907417 0.001171161 1.594187 0.2904394 -0.02479243 1.617683 0.2839926 -0.02496181 1.629606 0.2790859 -0.01446328 1.626345 0.288645 0.004640812 1.625618 0.2956784 0.02181646 1.615751 0.294626
203 0.01133918 1.554623 0.2154465 -0.01353629 1.615647 0.3036613 -0.02814341 1.593595 0.2683524 -0.02531172 1.589941 0.2768676 -0.01467698 1.5911 0.2907462 0.001083619 1.5941 0.2905941 -0.02577519 1.617069 0.2842204 -0.02586601 1.628885 0.2794095 -0.01531011 1.625731 0.2889301 0.003838003 1.625363 0.2959912 0.02131593 1.615967 0.2949819
204 0.01155302 1.554719 0.2156211 -0.01495009 1.616411 0.3035343 -0.02844569 1.592994 0.2690803 -0.02520372 1.589245 0.2765557 -0.01464423 1.590254 0.2901458 0.00115239 1.594059 0.2902792 -0.0270445 1.617173 0.2839697 -0.02661577 1.628448 0.2796083 -0.01599313 1.625241 0.2889976 0.003087144 1.624974 0.2959664 0.02088972 1.616291 0.2950431
205 0.01164623 1.554857 0.2155243 -0.01608201 1.61731 0.303023 -0.02849515 1.592474 0.2693714 -0.02481134 1.588544 0.275741 -0.01436175 1.589388 0.2891842 0.001372826 1.593838 0.2895888 -0.02814081 1.617496 0.2834235 -0.02729051 1.627989 0.2797739 -0.01655759 1.624675 0.2889604 0.00249665 1.624514 0.2957594 0.02051898 1.61653 0.2947897
206 0.01170608 1.555048 0.2155316 -0.01689348 1.618014 0.3022701 -0.02829538 1.592189 0.2691542 -0.02412531 1.588053 0.274531 -0.01368422 1.588628 0.2877061 0.001697706 1.593596 0.2887357 -0.02920802 1.617958 0.2828161 -0.02802527 1.627489 0.2800977 -0.01716097 1.624129 0.2890864 0.001877529 1.624074 0.2956639 0.02006434 1.616776 0.2945734
207 0.01198137 1.555199 0.2156473 -0.01762934 1.618786 0.3012181 -0.02800871 1.59205 0.2681715 -0.02330961 1.587797 0.2730965 -0.01279983 1.58806 0.285857 0.001720361 1.592711 0.2874987 -0.0301859 1.618562 0.2818999 -0.02893786 1.626826 0.2803305 -0.01799154 1.623591 0.2892249 0.0009981081 1.623683 0.2956475 0.01901293 1.616587 0.2942795
208 0.01246729 1.555293 0.215585 -0.01832932 1.619809 0.2998219 -0.0277112 1.591905 0.2666081 -0.02235791 1.587602 0.2714488 -0.0117342 1.58731 0.2834799 0.001450467 1.590983 0.2853261 -0.03101776 1.619292 0.2805753 -0.02989922 1.625924 0.280383 -0.01890544 1.622928 0.289225 -4.973997E-05 1.622979 0.2954236 0.01757156 1.615582 0.2936139
209 0.0127795 1.555276 0.215615 -0.01856623 1.621933 0.2979214 -0.02704723 1.591951 0.2651194 -0.0205827 1.58789 0.2702754 -0.009629282 1.586589 0.2806825 0.001786721 1.588828 0.2822534 -0.03141078 1.620839 0.2787864 -0.03026422 1.624844 0.2808829 -0.0191894 1.622349 0.2896713 -0.0004794235 1.621916 0.295273 0.01670612 1.613922 0.2927343
210 0.01293775 1.555146 0.2157858 -0.01865891 1.624616 0.2955056 -0.02638685 1.592521 0.263541 -0.01902304 1.588689 0.2693316 -0.007715522 1.586424 0.2781378 0.002385878 1.587629 0.2793299 -0.03164425 1.622959 0.2764885 -0.03038335 1.624235 0.2812174 -0.01925008 1.622261 0.2899913 -0.0006461635 1.621255 0.2950212 0.01624892 1.612785 0.2919281
211 0.0133638 1.554826 0.2161663 -0.01884364 1.627131 0.2924137 -0.02590591 1.592976 0.2618042 -0.01798012 1.589213 0.2682093 -0.006160485 1.586513 0.275788 0.002959584 1.587156 0.2768439 -0.03198862 1.624961 0.2735327 -0.03084125 1.623631 0.2810648 -0.01967675 1.622193 0.2898631 -0.001177206 1.620968 0.2945396 0.01563136 1.612341 0.2911735
212 0.0139452 1.554354 0.21659 -0.01953989 1.629312 0.2889807 -0.0257337 1.592938 0.2604356 -0.017264 1.589161 0.2671013 -0.004904053 1.58646 0.2737951 0.003640491 1.587164 0.2748572 -0.03267882 1.626484 0.2701632 -0.03155503 1.62285 0.2806938 -0.02038623 1.621852 0.2894885 -0.00197908 1.620697 0.2939527 0.01497533 1.612335 0.290574
213 0.01454287 1.553962 0.2171318 -0.02050816 1.630969 0.2860736 -0.02560566 1.592712 0.2597492 -0.01670155 1.58899 0.2664497 -0.003876578 1.586418 0.2724445 0.004355941 1.587582 0.2736328 -0.03355895 1.627356 0.2673194 -0.03221241 1.622208 0.2804571 -0.02099478 1.621642 0.2891961 -0.002637251 1.620668 0.2934184 0.01455574 1.6129 0.2901348
214 0.01530766 1.553641 0.2177882 -0.02177797 1.632213 0.2836885 -0.02557925 1.592372 0.2594461 -0.01626144 1.588763 0.2660401 -0.003061577 1.586404 0.2715181 0.004974892 1.588092 0.2728452 -0.03464414 1.627706 0.2649897 -0.03283572 1.621644 0.2803171 -0.02154817 1.621485 0.2889633 -0.003204433 1.620787 0.2929428 0.01421537 1.613687 0.2897408
215 0.01607912 1.553262 0.2183561 -0.02323199 1.633192 0.2817284 -0.02533434 1.591613 0.2597277 -0.01550455 1.588476 0.2660308 -0.002034578 1.586411 0.2710931 0.005928434 1.588432 0.2724181 -0.03574283 1.627469 0.2631285 -0.03318064 1.620917 0.2804913 -0.02179523 1.621243 0.289007 -0.003400758 1.620922 0.2926752 0.0141941 1.614415 0.289403
216 0.01704202 1.552695 0.2187369 -0.02458161 1.632902 0.2801948 -0.02466081 1.590311 0.2602457 -0.01503781 1.587789 0.266967 -0.001833081 1.587316 0.2729816 0.006290627 1.588634 0.2732746 -0.03685455 1.626412 0.2617006 -0.03349262 1.620019 0.2803836 -0.02208177 1.621191 0.2889864 -0.003454936 1.622419 0.2927703 0.01434951 1.615226 0.2892066
217 0.0184947 1.552107 0.2191144 -0.02576751 1.63153 0.2791624 -0.02355912 1.588748 0.2607068 -0.01433514 1.58678 0.2677585 -0.001786866 1.589142 0.2756728 0.006618457 1.589289 0.2742828 -0.03807515 1.624256 0.2609932 -0.03396863 1.618883 0.2797821 -0.02252757 1.621101 0.2883301 -0.003712119 1.625346 0.2922081 0.01443932 1.616935 0.2883204
218 0.01997369 1.551762 0.2197769 -0.02679003 1.630321 0.2784206 -0.02238307 1.587491 0.2613465 -0.01347961 1.585935 0.2684995 -0.00199179 1.591353 0.2787225 0.006901106 1.590671 0.2759888 -0.03923066 1.622056 0.2607828 -0.03444494 1.617807 0.2794187 -0.02296573 1.62101 0.2877288 -0.004193586 1.628808 0.2913404 0.0144637 1.619514 0.2873551
219 0.02153542 1.551581 0.2203529 -0.02809297 1.629021 0.2779009 -0.02125965 1.586122 0.2621263 -0.01253653 1.584992 0.2691777 -0.002151696 1.593019 0.2811938 0.00723437 1.591881 0.2774135 -0.04044098 1.619562 0.2608232 -0.0350504 1.616311 0.2793044 -0.02358456 1.620425 0.2873157 -0.005180671 1.631473 0.2903935 0.01406085 1.621772 0.2863869
220 0.02309981 1.551547 0.2212102 -0.02941453 1.627963 0.2781166 -0.02039392 1.584989 0.2628449 -0.0116896 1.584402 0.2697298 -0.00207777 1.593724 0.2821453 0.007371562 1.592856 0.2779111 -0.04127789 1.61708 0.2615837 -0.03596971 1.614831 0.2791927 -0.02461572 1.619836 0.286888 -0.006850554 1.632856 0.2893403 0.01295585 1.623589 0.2853412
221 0.02487715 1.55143 0.2226191 -0.03001666 1.626806 0.2787606 -0.0197805 1.583798 0.2635971 -0.01115221 1.583729 0.2698051 -0.001938894 1.593005 0.2816416 0.007109546 1.593735 0.2779518 -0.04143767 1.614764 0.2627456 -0.03728648 1.613473 0.2786152 -0.02604541 1.61904 0.2859982 -0.009021234 1.632599 0.2880442 0.01116999 1.625084 0.2841724
222 0.02663692 1.55123 0.2236749 -0.03161258 1.625651 0.2793954 -0.01915659 1.582814 0.2639256 -0.0104769 1.582974 0.2695232 -0.00129064 1.591116 0.2802736 0.00692638 1.594187 0.2773512 -0.041848 1.612117 0.2638288 -0.03863235 1.61182 0.2777071 -0.02750401 1.617845 0.2847916 -0.0110629 1.63089 0.2865317 0.009173693 1.626008 0.2827197
223 0.02792384 1.55092 0.2243975 -0.03335102 1.624708 0.2801417 -0.01862293 1.581614 0.2649287 -0.009930843 1.582181 0.2698108 -0.000403375 1.589403 0.279276 0.006830418 1.594298 0.27687 -0.0421066 1.609766 0.2650432 -0.03967541 1.610127 0.2773561 -0.02864458 1.616659 0.2841627 -0.01243273 1.628891 0.2855025 0.007621505 1.626369 0.281586
224 0.02912319 1.550703 0.2250642 -0.03531472 1.623765 0.2808502 -0.01831463 1.580597 0.2658788 -0.009671253 1.581702 0.2705589 0.0002078392 1.58843 0.2788525 0.006809604 1.594684 0.2764959 -0.0423913 1.607496 0.2663307 -0.04059675 1.608558 0.277213 -0.02978659 1.615895 0.2836993 -0.01363984 1.62757 0.2844643 0.006128335 1.626904 0.2803198
225 0.03023817 1.550716 0.226062 -0.03768266 1.622826 0.2810135 -0.01860873 1.579689 0.266526 -0.01023005 1.581469 0.2715968 -7.976669E-05 1.588095 0.278908 0.006460332 1.595028 0.2764184 -0.04312288 1.605531 0.2670298 -0.04184414 1.607179 0.2768613 -0.03148523 1.61553 0.2831313 -0.0153141 1.626794 0.2834747 0.004106594 1.627312 0.2792188
226 0.03119802 1.550622 0.2275703 -0.04013005 1.621585 0.281305 -0.01913129 1.579128 0.2670879 -0.01111095 1.581029 0.2724968 -0.001023599 1.58757 0.2793502 0.005594571 1.594875 0.2767949 -0.04410464 1.603701 0.267609 -0.04330541 1.605964 0.276445 -0.03325497 1.614872 0.282683 -0.01700433 1.625838 0.2830263 0.002129697 1.627037 0.2789312
227 0.03215956 1.550449 0.2291447 -0.04224373 1.620075 0.2814271 -0.01967602 1.578549 0.2671687 -0.01168981 1.580265 0.2726616 -0.001934774 1.586763 0.2795015 0.004698695 1.594411 0.2772509 -0.04508182 1.601928 0.2678141 -0.04460251 1.60467 0.2760276 -0.03466711 1.613613 0.2823772 -0.0184428 1.624526 0.2830083 0.0004744293 1.626325 0.2792372
228 0.03293112 1.55028 0.2299591 -0.04410575 1.618398 0.2808433 -0.01985827 1.578113 0.2665902 -0.01181222 1.579337 0.2721731 -0.002814643 1.586344 0.2792587 0.003740566 1.594128 0.2773909 -0.04607068 1.600168 0.2672218 -0.04565683 1.603359 0.2751729 -0.0357433 1.612147 0.2816973 -0.0198357 1.623628 0.2826792 -0.0009191822 1.625807 0.279313
229 0.03364477 1.550173 0.2301508 -0.045196 1.616724 0.2801648 -0.01986792 1.577446 0.2653858 -0.01177294 1.578231 0.2711746 -0.003454098 1.585911 0.2785222 0.00294471 1.593793 0.2770343 -0.04667878 1.598517 0.2664671 -0.04638159 1.601893 0.274067 -0.03653564 1.610576 0.2807462 -0.02107483 1.622754 0.282018 -0.002133236 1.625269 0.2789783
230 0.034202 1.550073 0.2301893 -0.04577102 1.615324 0.2796068 -0.01981902 1.576723 0.2641897 -0.01160433 1.577314 0.2701793 -0.00352061 1.5853 0.2776192 0.002538514 1.593458 0.2764568 -0.04709078 1.597162 0.2658354 -0.0467002 1.600632 0.2733245 -0.03694016 1.609252 0.2800953 -0.02180275 1.62178 0.2815597 -0.002916088 1.624728 0.2787001
231 0.03465201 1.550075 0.230187 -0.04612529 1.614134 0.2792008 -0.01973999 1.576074 0.2632136 -0.01133246 1.57667 0.2693782 -0.003155552 1.584713 0.2767805 0.002464458 1.593298 0.2758829 -0.04745074 1.595983 0.2654088 -0.04677796 1.599584 0.273013 -0.03711306 1.608213 0.2797907 -0.02220674 1.620873 0.2813101 -0.003451581 1.62437 0.2784796
232 0.0350014 1.550132 0.2301353 -0.04647816 1.613214 0.2788911 -0.01968526 1.575568 0.2626062 -0.01112348 1.576405 0.2689258 -0.002691086 1.584393 0.2761349 0.00254951 1.593254 0.2753592 -0.04777094 1.595015 0.2651561 -0.04673862 1.5989 0.2728997 -0.03721035 1.607667 0.2796235 -0.02240811 1.620325 0.2810743 -0.00375973 1.624231 0.2781854
233 0.03526813 1.550151 0.2301159 -0.04655517 1.612658 0.2786939 -0.01964063 1.575206 0.2623008 -0.01102883 1.576334 0.2687779 -0.002358505 1.584315 0.2757475 0.002698042 1.593223 0.2750307 -0.04792283 1.594404 0.2650319 -0.04663279 1.598541 0.2728532 -0.03724878 1.607499 0.2795131 -0.02246021 1.620104 0.2808556 -0.003864407 1.624187 0.2778902
234 0.03546447 1.550012 0.230077 -0.04651688 1.612201 0.2785989 -0.01959417 1.574831 0.2621345 -0.01094446 1.576249 0.268723 -0.002059617 1.584224 0.2754775 0.002903563 1.593055 0.2748078 -0.04796351 1.593907 0.2649932 -0.04647123 1.598302 0.2728006 -0.03720017 1.607407 0.2794066 -0.02238468 1.619922 0.2806552 -0.003807342 1.62405 0.2776248
235 0.03562126 1.549729 0.2299365 -0.04632872 1.611795 0.2784604 -0.01956495 1.574422 0.2618913 -0.01089937 1.576035 0.2685389 -0.001876812 1.584015 0.2751315 0.003034254 1.592738 0.2745221 -0.04789861 1.593473 0.2649026 -0.0463554 1.598031 0.2725716 -0.03714539 1.60723 0.2791325 -0.02229994 1.619668 0.2803065 -0.003732112 1.623784 0.2772229
236 0.03566236 1.549303 0.2297759 -0.04618751 1.611608 0.2779607 -0.01963699 1.574087 0.2614054 -0.01096823 1.575757 0.2680013 -0.001832297 1.583655 0.2744837 0.00297084 1.592329 0.27402 -0.04788287 1.593252 0.264459 -0.04638296 1.597869 0.2719674 -0.03716163 1.607053 0.2785141 -0.0222532 1.619342 0.2796893 -0.003720372 1.623452 0.2766184
237 0.03565308 1.548871 0.2295254 -0.04625167 1.611655 0.2770619 -0.01978015 1.573916 0.2606815 -0.01108083 1.57559 0.2671537 -0.001745531 1.583277 0.2734831 0.002854475 1.592014 0.2732136 -0.04793841 1.593206 0.2636891 -0.04648069 1.59789 0.271054 -0.03720776 1.607028 0.2775692 -0.02218683 1.619058 0.2787384 -0.003742026 1.623237 0.2756788
238 0.03579998 1.548401 0.2291268 -0.04651514 1.611782 0.275604 -0.01982158 1.573823 0.2597241 -0.01104848 1.575554 0.2659501 -0.001334321 1.5829 0.2719104 0.002954866 1.591749 0.2719103 -0.04799319 1.593133 0.2624969 -0.04646837 1.598032 0.2698071 -0.03712173 1.607152 0.2762294 -0.02191195 1.618764 0.2773193 -0.003633038 1.6231 0.2742053
239 0.03611323 1.547992 0.2285684 -0.04664487 1.611912 0.274077 -0.01959824 1.573848 0.2587946 -0.01073305 1.575628 0.2647316 -0.0005928325 1.582587 0.2701828 0.003366845 1.591566 0.2703979 -0.0478848 1.59304 0.2612806 -0.04619506 1.598235 0.2686531 -0.03675373 1.607369 0.2749305 -0.02131522 1.618526 0.27586 -0.003223992 1.623035 0.2725959
240 0.03650821 1.547354 0.227992 -0.04669829 1.61201 0.2724224 -0.01920577 1.573855 0.2579695 -0.01018097 1.575665 0.2635134 0.0005099642 1.582127 0.2682546 0.004076727 1.591244 0.2687409 -0.04765439 1.592844 0.2600637 -0.0456985 1.598509 0.2675598 -0.03610731 1.607656 0.273619 -0.02033997 1.618185 0.2742999 -0.002495236 1.622872 0.2707959
241 0.03678967 1.54669 0.2275158 -0.0468781 1.61214 0.2705637 -0.0189148 1.573819 0.2572219 -0.00975833 1.575563 0.2624227 0.001361751 1.581531 0.2665812 0.004610948 1.590826 0.2673311 -0.04755701 1.592736 0.258579 -0.04533181 1.598741 0.2665244 -0.03558541 1.607833 0.2724477 -0.01949741 1.617757 0.2730005 -0.001860368 1.622585 0.269358
242 0.03699674 1.545995 0.2272632 -0.04707121 1.612347 0.2681181 -0.01882136 1.573711 0.2561824 -0.009639836 1.575335 0.2612734 0.001763351 1.58086 0.2650838 0.00481031 1.590338 0.2661419 -0.04761455 1.592768 0.2564179 -0.04522144 1.598872 0.2651653 -0.03540695 1.607912 0.2710919 -0.01903568 1.617296 0.2717212 -0.001535931 1.622222 0.2681407
243 0.03719954 1.545362 0.2271166 -0.0471132 1.612532 0.2654581 -0.01877228 1.573558 0.254942 -0.009667928 1.575078 0.2600919 0.001850814 1.580245 0.2637364 0.004716642 1.58984 0.2650437 -0.04766553 1.592837 0.2539476 -0.0452635 1.598831 0.2636411 -0.03548489 1.60788 0.2696551 -0.01889676 1.616867 0.2704802 -0.001451494 1.62185 0.267087
244 0.03736874 1.544832 0.226942 -0.04689126 1.612677 0.2632664 -0.01869798 1.573389 0.2537963 -0.009713744 1.574874 0.2590684 0.001828388 1.579815 0.2626823 0.004593399 1.589412 0.264142 -0.04757598 1.592927 0.2518489 -0.04527795 1.598742 0.2622655 -0.03558674 1.607845 0.2683805 -0.01885834 1.616583 0.2694086 -0.00139961 1.621539 0.2662201
245 0.03750473 1.544336 0.2266609 -0.0465444 1.612857 0.2613858 -0.01856943 1.573361 0.2526599 -0.009646101 1.574875 0.2580167 0.001921079 1.579611 0.2615657 0.004613861 1.589124 0.2630594 -0.04739995 1.593048 0.2500762 -0.04513361 1.598819 0.2609971 -0.0355077 1.607991 0.2671487 -0.01865458 1.616531 0.268284 -0.001150078 1.621366 0.265214
246 0.03756071 1.543879 0.2264996 -0.04636749 1.612997 0.259844 -0.01849486 1.573368 0.2519353 -0.00964513 1.574993 0.2573097 0.002009092 1.579588 0.2607887 0.004727219 1.588996 0.2621881 -0.04735694 1.593095 0.2487075 -0.04498603 1.599042 0.2600281 -0.0354142 1.608336 0.2661447 -0.01844772 1.616705 0.2672901 -0.0008820835 1.621345 0.2642583
247 0.03755264 1.543524 0.226372 -0.0465318 1.613035 0.2581668 -0.01861638 1.573354 0.2511533 -0.009823551 1.575098 0.2566088 0.001944944 1.57965 0.2600989 0.00475038 1.588951 0.2613982 -0.04753136 1.593044 0.2471856 -0.04500977 1.599248 0.2589568 -0.03551409 1.608659 0.2650684 -0.01847696 1.616902 0.2662703 -0.0008462164 1.621365 0.2633301
248 0.03755153 1.543304 0.2262042 -0.0467825 1.613175 0.2562867 -0.01873157 1.573467 0.2502969 -0.009995516 1.575343 0.2558436 0.001848999 1.579882 0.2593359 0.004746909 1.589072 0.2605252 -0.04773016 1.593068 0.2455095 -0.04503934 1.599557 0.2577748 -0.0356284 1.609096 0.2638647 -0.01853925 1.617252 0.2651184 -0.0008469874 1.621548 0.2622751
249 0.03749982 1.543208 0.2258463 -0.04721925 1.613405 0.2540573 -0.01888001 1.573741 0.2493802 -0.01020377 1.575848 0.2549765 0.001783559 1.580407 0.2584395 0.004824851 1.589443 0.2594532 -0.04806798 1.59313 0.2435841 -0.04499861 1.600129 0.2564872 -0.03567309 1.60985 0.2624887 -0.01852815 1.617917 0.2637151 -0.0007574756 1.621984 0.2609132
250 0.03734598 1.543188 0.2251498 -0.04751824 1.613839 0.251816 -0.01898813 1.574232 0.2483797 -0.01036324 1.576539 0.2540121 0.001779849 1.581092 0.2573373 0.005033984 1.589945 0.2581701 -0.04837636 1.593409 0.2416434 -0.04481786 1.600962 0.2552212 -0.03552694 1.61085 0.2610911 -0.0182917 1.618782 0.2622222 -0.0004411566 1.62255 0.2593887
251 0.03704215 1.543082 0.2243798 -0.04736187 1.614536 0.2497445 -0.01904809 1.574802 0.2472591 -0.01045853 1.577086 0.2528881 0.001753983 1.581606 0.2561258 0.005243799 1.59036 0.2568715 -0.04847909 1.594016 0.2397572 -0.04457684 1.601853 0.2539509 -0.03522689 1.611757 0.2597432 -0.01791386 1.619535 0.2608216 -2.258138E-05 1.623027 0.257975
252 0.03662961 1.54283 0.2236854 -0.04672641 1.615368 0.247741 -0.01919368 1.575275 0.2459077 -0.01058745 1.577317 0.2515297 0.001611578 1.581798 0.2550026 0.005386848 1.59052 0.2558242 -0.04837457 1.594905 0.2376756 -0.04432572 1.602656 0.2526912 -0.034846 1.612336 0.2586019 -0.01751079 1.619968 0.2598257 0.0004289064 1.623194 0.2571284
253 0.03628516 1.542589 0.2229104 -0.0459143 1.616186 0.2454423 -0.01924231 1.575751 0.2443749 -0.01057784 1.577495 0.2499228 0.001551614 1.581829 0.2536288 0.005519487 1.590576 0.2546878 -0.04809939 1.595824 0.2352469 -0.04403862 1.603401 0.251278 -0.0344143 1.612776 0.2573683 -0.01705777 1.620259 0.2588067 0.000906503 1.623284 0.2562919
254 0.03606669 1.542422 0.2218871 -0.04493584 1.616941 0.2434266 -0.01904996 1.576144 0.2430946 -0.01039647 1.577612 0.2485654 0.001700064 1.581842 0.2523558 0.005702357 1.590592 0.2535897 -0.04760148 1.596664 0.2331589 -0.04366039 1.603941 0.2501682 -0.03390602 1.613115 0.2563499 -0.01652707 1.620499 0.2578564 0.001464225 1.623375 0.2553845
255 0.0358955 1.542182 0.2205063 -0.04403653 1.617464 0.2415606 -0.01880887 1.576237 0.2418179 -0.01017422 1.577433 0.247235 0.00190018 1.581606 0.2510789 0.005816389 1.590327 0.2525304 -0.04702387 1.597293 0.2311705 -0.04332378 1.604092 0.2491397 -0.03345779 1.61308 0.2554264 -0.01606667 1.620398 0.2569849 0.001958197 1.623182 0.2545227
256 0.03563646 1.541756 0.2190728 -0.04335026 1.617743 0.2400443 -0.01863594 1.576162 0.2406154 -0.00999196 1.577073 0.2460687 0.002020971 1.581192 0.250006 0.005868896 1.589868 0.2517106 -0.04653949 1.597691 0.2294928 -0.04303655 1.604056 0.2482335 -0.03306721 1.612845 0.2546447 -0.0156626 1.620113 0.2562758 0.002409638 1.622794 0.2538398
257 0.03513434 1.541071 0.2180677 -0.04252544 1.618108 0.2390933 -0.0185522 1.576074 0.2398636 -0.009860291 1.576614 0.2454318 0.002048083 1.580611 0.2495515 0.006043184 1.58921 0.2515172 -0.04606301 1.598267 0.2282565 -0.04261969 1.604138 0.2479067 -0.0324958 1.612595 0.254485 -0.01504775 1.61973 0.2562381 0.003090652 1.622171 0.2538587
258 0.03444045 1.540324 0.2176082 -0.04134008 1.618659 0.2389172 -0.01857669 1.576154 0.2395754 -0.009794752 1.576321 0.2453306 0.002008448 1.58015 0.2497652 0.006366148 1.588601 0.2518879 -0.04550566 1.599142 0.2276907 -0.04206679 1.604485 0.2481242 -0.03177124 1.612519 0.2548672 -0.01427812 1.619475 0.2567744 0.003926083 1.621537 0.2544904
259 0.03362903 1.539485 0.2174496 -0.0399446 1.619258 0.2398008 -0.01867498 1.576209 0.2397781 -0.009814019 1.576075 0.2456303 0.001877686 1.579758 0.2503825 0.006608196 1.588056 0.2524604 -0.04486327 1.600102 0.2282321 -0.04150132 1.604901 0.2486503 -0.03100394 1.612516 0.2554567 -0.01346478 1.619313 0.2574123 0.004791787 1.620962 0.2551574
260 0.03256993 1.538467 0.2169638 -0.03854873 1.619835 0.2411833 -0.01886253 1.576191 0.2400343 -0.009901047 1.575767 0.2458747 0.001742647 1.579367 0.2508906 0.006933818 1.587492 0.2527824 -0.04427351 1.601056 0.2293434 -0.04080189 1.60537 0.2492527 -0.03004065 1.612528 0.2560209 -0.01244131 1.619161 0.2578874 0.005848574 1.620328 0.2555422
261 0.03133664 1.53725 0.2162181 -0.03692381 1.620349 0.2426161 -0.0191411 1.57607 0.239991 -0.01012776 1.57529 0.2458621 0.001436826 1.578712 0.2513551 0.007168361 1.586738 0.2530832 -0.04347995 1.602054 0.2304278 -0.04003232 1.605765 0.2496539 -0.02901972 1.612396 0.2564442 -0.01133748 1.618804 0.2583126 0.006983025 1.619444 0.2559428
262 0.03013448 1.536017 0.2156932 -0.03495625 1.620912 0.2437159 -0.01950631 1.5759 0.2398529 -0.01043164 1.574781 0.2456756 0.00109021 1.577829 0.2518165 0.007304517 1.585837 0.2536522 -0.04235199 1.603181 0.2311574 -0.03924788 1.606123 0.2500395 -0.0280202 1.612148 0.2569228 -0.01024815 1.618212 0.2589162 0.008067979 1.618413 0.256609
263 0.02894302 1.534654 0.2150548 -0.03297038 1.621147 0.2446618 -0.01984128 1.575476 0.2397971 -0.0105602 1.573984 0.2455187 0.0008999108 1.576466 0.2524024 0.007460671 1.584422 0.2546515 -0.0410825 1.604101 0.2315728 -0.03830001 1.606126 0.2508501 -0.02689409 1.611371 0.2579345 -0.009040105 1.617006 0.2602094 0.009273109 1.616826 0.258047
264 0.02778898 1.533431 0.2139261 -0.0310664 1.620436 0.2463975 -0.01999392 1.574832 0.2400475 -0.01080109 1.573099 0.2455731 0.0004683761 1.575074 0.2531543 0.007481168 1.583032 0.2557416 -0.04014353 1.604511 0.232521 -0.03742188 1.605871 0.2517001 -0.02588845 1.610441 0.2590153 -0.007916371 1.615719 0.2615771 0.0104782 1.615138 0.2595379
265 0.02674056 1.532438 0.2128501 -0.0290717 1.61953 0.248797 -0.02043965 1.574156 0.2403685 -0.01124232 1.572282 0.2457564 -0.0004286439 1.573935 0.2540595 0.006944158 1.582307 0.2569697 -0.03900356 1.604817 0.2341797 -0.03706316 1.60573 0.2518061 -0.02549278 1.609766 0.2593655 -0.007415696 1.614841 0.2622407 0.01114416 1.61419 0.2604234
266 0.02554819 1.531784 0.2119219 -0.02734598 1.619151 0.2507034 -0.02161967 1.57386 0.2401338 -0.01243475 1.571925 0.2458939 -0.001724403 1.573082 0.254476 0.006117359 1.581816 0.2577377 -0.03773838 1.605499 0.2353902 -0.03722889 1.605964 0.2513132 -0.02578875 1.609737 0.2592263 -0.007595743 1.61422 0.2625551 0.01107876 1.613489 0.261133
267 0.02430929 1.531115 0.2117629 -0.0254271 1.618299 0.2536338 -0.02263672 1.573696 0.2405595 -0.01369802 1.571675 0.2465884 -0.002921056 1.572383 0.2551247 0.005425544 1.581159 0.2587155 -0.0364218 1.605942 0.237646 -0.03732954 1.606243 0.2514822 -0.02600298 1.609759 0.2597384 -0.007719686 1.613491 0.2635038 0.01099258 1.612495 0.2624601
268 0.02277564 1.530519 0.2122104 -0.02351938 1.617097 0.2575916 -0.02360634 1.574095 0.2412209 -0.01519374 1.571767 0.2474933 -0.00461235 1.57205 0.2561755 0.004270464 1.580727 0.2598793 -0.03513441 1.606381 0.2408599 -0.037351 1.607232 0.2514809 -0.02614619 1.610264 0.2601492 -0.007834033 1.613166 0.2645164 0.01086602 1.611589 0.26403
269 0.02142144 1.530214 0.2126645 -0.02211017 1.615908 0.2615394 -0.02426765 1.574598 0.2420412 -0.01650566 1.572006 0.2486059 -0.006147588 1.572007 0.2573839 0.003315468 1.580539 0.2610202 -0.03405773 1.606565 0.2442066 -0.03729245 1.608212 0.2516012 -0.02621462 1.610852 0.260622 -0.007917152 1.61307 0.2655147 0.01072767 1.610938 0.265502
270 0.02004254 1.530112 0.2124738 -0.02128368 1.614203 0.2659295 -0.02483858 1.574941 0.2433008 -0.01808291 1.572232 0.2502601 -0.007977492 1.571752 0.2592774 0.002469314 1.580048 0.262722 -0.0333372 1.60634 0.2479542 -0.03688019 1.608991 0.2524769 -0.02594588 1.611247 0.2619129 -0.007655671 1.612579 0.267318 0.01092068 1.60975 0.2677113
271 0.01892568 1.530196 0.2121025 -0.02059803 1.613489 0.2681844 -0.0253007 1.575347 0.2437692 -0.01974091 1.57265 0.2517538 -0.009481668 1.571546 0.2604775 0.001918369 1.579569 0.2640453 -0.03263351 1.606617 0.249814 -0.03651966 1.609568 0.2532027 -0.02579288 1.611818 0.2630839 -0.007555312 1.612104 0.2689365 0.01094885 1.608794 0.2697021
272 0.01787457 1.530385 0.2114725 -0.01989419 1.612703 0.2698263 -0.02567508 1.575483 0.2441133 -0.0212586 1.572999 0.2529314 -0.01084 1.571491 0.2615316 0.001283799 1.579083 0.2652982 -0.03196236 1.606838 0.2511416 -0.03627848 1.60979 0.253999 -0.02573427 1.612161 0.2643168 -0.007552722 1.611699 0.2705286 0.01088547 1.607804 0.2715467
273 0.01689329 1.530649 0.2106631 -0.01953563 1.611512 0.2714204 -0.02612306 1.575605 0.2444081 -0.02272896 1.573611 0.2544194 -0.01226834 1.571983 0.2633186 0.0006261308 1.579205 0.2670313 -0.03159574 1.606766 0.2524194 -0.03600683 1.609981 0.2547336 -0.02563414 1.612748 0.2654881 -0.007448585 1.611858 0.2719665 0.01103836 1.607365 0.2731754
274 0.016109 1.530986 0.2097229 -0.01980108 1.610337 0.2730004 -0.02651055 1.575783 0.2445981 -0.02405893 1.574437 0.255715 -0.01356587 1.572655 0.2651183 2.354086E-05 1.579713 0.2688046 -0.03161005 1.606381 0.2536726 -0.0358181 1.610243 0.2551427 -0.02554485 1.613494 0.266302 -0.0073722 1.612248 0.2729136 0.01123194 1.607426 0.2742604
275 0.01552505 1.531336 0.2088511 -0.02026041 1.609274 0.2743719 -0.02674998 1.575872 0.2447338 -0.02519368 1.575043 0.2566971 -0.01472979 1.573251 0.2666133 -0.0006435483 1.580351 0.2704577 -0.0317669 1.605846 0.2547697 -0.03582636 1.61041 0.2553446 -0.0256154 1.614045 0.2668391 -0.007461442 1.612608 0.27355 0.01127996 1.607718 0.2749935
276 0.01494627 1.531742 0.2079309 -0.02105399 1.608256 0.2756655 -0.02712067 1.575936 0.2446761 -0.02653192 1.575278 0.2572715 -0.01622392 1.573574 0.2678964 -0.001896435 1.580488 0.2720122 -0.0320821 1.605231 0.2557409 -0.03603835 1.610466 0.2554958 -0.02590135 1.614196 0.2673536 -0.0078126 1.612649 0.2742142 0.01097141 1.607494 0.2757509
277 0.01410404 1.532166 0.2069463 -0.02184454 1.606894 0.2771025 -0.0279237 1.575859 0.2450509 -0.02799031 1.575076 0.2578871 -0.01788322 1.573465 0.2692468 -0.003381295 1.580625 0.2738093 -0.03250343 1.604566 0.2568942 -0.03612189 1.610465 0.2561708 -0.02603827 1.613812 0.2683418 -0.008038825 1.612145 0.2753465 0.011008 1.60686 0.277074
278 0.01302845 1.532614 0.2057486 -0.02220391 1.605098 0.278468 -0.02894388 1.575675 0.2455007 -0.02963297 1.574483 0.2583402 -0.01972258 1.573082 0.2705314 -0.004879217 1.580888 0.2756584 -0.0326982 1.603868 0.2580747 -0.03609478 1.610443 0.2569517 -0.02607361 1.612984 0.2693343 -0.008197485 1.611297 0.2765115 0.011311 1.606028 0.2785154
279 0.01189188 1.533221 0.2044889 -0.02242847 1.603398 0.2797078 -0.03021562 1.575644 0.2458566 -0.03142365 1.573971 0.2586807 -0.02170054 1.572802 0.2717351 -0.006171669 1.58139 0.2773287 -0.03276877 1.603286 0.2591923 -0.03598589 1.610598 0.257632 -0.02606518 1.612141 0.2700939 -0.008335004 1.610495 0.2774798 0.01170732 1.605331 0.2797995
280 0.01072063 1.533968 0.2033786 -0.02265725 1.601913 0.2809913 -0.0316126 1.575802 0.2462336 -0.03338287 1.573724 0.259243 -0.02374608 1.57279 0.2728883 -0.007141571 1.582328 0.2788712 -0.03281097 1.602781 0.2603949 -0.0358907 1.61092 0.2582584 -0.02609878 1.611499 0.2706865 -0.008499727 1.609831 0.2783176 0.01229974 1.604891 0.2811093
281 0.009569061 1.534891 0.2023619 -0.02291376 1.600617 0.2822801 -0.0329375 1.576086 0.2465635 -0.03522206 1.573812 0.2599831 -0.02551742 1.573063 0.273881 -0.007765155 1.583347 0.2801469 -0.03292837 1.602292 0.2616572 -0.03590937 1.611272 0.2588763 -0.0262244 1.611145 0.2712335 -0.00870651 1.609394 0.2790678 0.01290939 1.60461 0.282356
282 0.008579704 1.535786 0.201669 -0.02311544 1.599647 0.2831556 -0.03390613 1.576599 0.2461649 -0.03663302 1.574098 0.2598367 -0.02686436 1.573404 0.273921 -0.008115576 1.584556 0.2809364 -0.03307081 1.602044 0.2625675 -0.03616814 1.611671 0.2591385 -0.02662498 1.610988 0.2714267 -0.009189798 1.609177 0.2795152 0.01341819 1.604652 0.2834217
283 0.007638982 1.536665 0.2012537 -0.0233901 1.599046 0.2837666 -0.03472873 1.57738 0.2455769 -0.0374868 1.574681 0.2591444 -0.02782707 1.574103 0.273746 -0.008263677 1.58594 0.2818663 -0.03327794 1.602179 0.2632341 -0.03641696 1.612204 0.25939 -0.02707135 1.611099 0.2716937 -0.009661958 1.609367 0.2801101 0.01393192 1.604923 0.2845839
284 0.00681537 1.537504 0.2011024 -0.0237811 1.59868 0.2843563 -0.0352014 1.578301 0.2451444 -0.03779835 1.575451 0.2585232 -0.02830518 1.574923 0.2735985 -0.008417939 1.586539 0.2823099 -0.03361811 1.602456 0.263898 -0.03656514 1.61277 0.2598356 -0.0273757 1.611392 0.2721863 -0.00991766 1.609715 0.2808815 0.01396597 1.604929 0.2855496
285 0.006069229 1.538387 0.2012445 -0.02396125 1.598489 0.2849575 -0.03538311 1.579244 0.2450875 -0.03758863 1.576186 0.2578339 -0.02836043 1.575585 0.273347 -0.008614968 1.586423 0.2822674 -0.03388869 1.602934 0.2646662 -0.03671563 1.613355 0.260588 -0.02764431 1.611638 0.2729174 -0.01010682 1.609965 0.2818504 0.01348294 1.604709 0.2864192
286 0.005477612 1.539445 0.2015693 -0.02393912 1.598363 0.2856165 -0.03568445 1.580163 0.2454346 -0.03732958 1.576828 0.2575067 -0.02826271 1.576194 0.2733715 -0.00895403 1.585913 0.2820471 -0.03407915 1.603493 0.2655801 -0.0369246 1.613948 0.2616205 -0.02794474 1.611825 0.2738253 -0.0103151 1.610244 0.2829625 0.01254223 1.604447 0.2871803
287 0.005182976 1.54063 0.2016954 -0.02390204 1.598379 0.2862094 -0.03607327 1.580853 0.2458725 -0.03715133 1.577204 0.257469 -0.0280696 1.576523 0.2734253 -0.009622227 1.584504 0.2810848 -0.03423612 1.603956 0.2663814 -0.03725573 1.614356 0.2626083 -0.02832401 1.611893 0.274636 -0.01063783 1.610433 0.283868 0.01087232 1.603831 0.2874008
288 0.005204324 1.542059 0.2016391 -0.02359752 1.597665 0.2869882 -0.0364394 1.581208 0.2464263 -0.03684786 1.577413 0.2580921 -0.02755033 1.577138 0.2740833 -0.0100951 1.583059 0.2801255 -0.03441687 1.603672 0.267539 -0.0377905 1.614371 0.2637682 -0.02874341 1.61192 0.2756335 -0.01074355 1.610982 0.2848598 0.009336151 1.603258 0.2872991
289 0.005421514 1.543226 0.2018485 -0.02319224 1.596217 0.2879213 -0.03678801 1.581031 0.2472613 -0.03658958 1.577212 0.2587967 -0.02697625 1.577529 0.274914 -0.01022137 1.582758 0.280335 -0.03467898 1.602638 0.2689797 -0.03858224 1.613996 0.2649463 -0.02937234 1.611648 0.2766667 -0.01105439 1.611525 0.2859038 0.008681715 1.60335 0.2877506
290 0.005898227 1.544234 0.2024534 -0.02266683 1.595232 0.2886694 -0.03696252 1.580853 0.2478368 -0.03622859 1.576826 0.2586286 -0.02630772 1.577463 0.2746054 -0.01032321 1.58318 0.2804966 -0.0348298 1.601817 0.2701933 -0.03959391 1.61377 0.2656926 -0.03028114 1.611269 0.2771007 -0.01193911 1.611868 0.2864523 0.008045832 1.604199 0.2882744
291 0.0063487 1.545108 0.2034686 -0.02186752 1.595239 0.2892376 -0.03683732 1.581183 0.2484147 -0.03542029 1.576853 0.2584943 -0.02531379 1.577781 0.274246 -0.0102118 1.583476 0.2802932 -0.03472755 1.601854 0.271229 -0.04031734 1.613883 0.2665117 -0.03089711 1.611226 0.2775581 -0.01253629 1.612471 0.2870057 0.007290156 1.605155 0.2885922
292 0.006637301 1.545843 0.2050129 -0.02099264 1.596192 0.2897966 -0.03640986 1.582054 0.2492554 -0.03430413 1.577469 0.2586758 -0.02407362 1.578588 0.2741912 -0.009807457 1.583605 0.2799998 -0.03450439 1.602819 0.2722487 -0.04072228 1.614375 0.2676969 -0.03117604 1.611615 0.2784257 -0.0127601 1.613336 0.2878711 0.006542286 1.605977 0.2889727
