yixianl/unity_handgesture/data/fight_shoot_1.txt
frame right_handpalm right_thumb_tip right_index_tip right_middle_tip right_ring_tip right_pinky_tip right_thumb_joint right_index_joint right_middle_joint right_ring_joint right_pinky_joint 
0 0.0712968 1.503875 0.1896891 0.04480483 1.621674 0.2104955 -0.0468781 1.601794 0.2181584 0.02185575 1.550679 0.1809628 0.01948933 1.535045 0.1790655 0.0118635 1.524619 0.178079 0.05585344 1.604289 0.207778 -0.01803826 1.585463 0.2258283 -0.01033246 1.567294 0.1869063 -0.01383316 1.549187 0.1859743 -0.01392763 1.532161 0.187557
1 0.07137582 1.503846 0.1898572 0.04454255 1.621699 0.2100327 -0.04701708 1.601688 0.2177023 0.02199519 1.550404 0.1809968 0.01967725 1.534736 0.1792025 0.01190103 1.5244 0.1780927 0.05564631 1.604324 0.2074761 -0.01818878 1.5854 0.225499 -0.01021031 1.567056 0.1866371 -0.01366997 1.548946 0.1857387 -0.01389788 1.531968 0.1874618
2 0.0714687 1.50385 0.1899205 0.04417974 1.621745 0.2093609 -0.04718549 1.601529 0.2172347 0.02212445 1.550108 0.1809966 0.01988421 1.534381 0.179343 0.01195711 1.52415 0.1781036 0.05535941 1.604393 0.2069784 -0.01833277 1.585322 0.2251049 -0.01009894 1.566794 0.1863467 -0.01347976 1.548676 0.1854842 -0.01384955 1.531752 0.1873634
3 0.07154249 1.503891 0.1899291 0.04378876 1.621819 0.2086778 -0.04738443 1.601373 0.2167347 0.0222229 1.549859 0.1809673 0.0200853 1.534062 0.1794628 0.012011 1.523936 0.1780889 0.05504304 1.604495 0.2064584 -0.01850457 1.585249 0.2246737 -0.01002706 1.566561 0.1860535 -0.01330062 1.548427 0.185208 -0.01381249 1.531556 0.1872354
4 0.07160987 1.50396 0.1899425 0.04343659 1.621891 0.2081746 -0.0476248 1.601215 0.2162367 0.02226907 1.549684 0.1809071 0.02024679 1.533803 0.1795413 0.01205381 1.523769 0.1780266 0.05474627 1.604588 0.2060703 -0.0187143 1.585169 0.2242262 -0.01001375 1.566368 0.1857602 -0.01316174 1.548211 0.1849101 -0.01379476 1.531387 0.1870605
5 0.07164922 1.504112 0.1899749 0.043027 1.622038 0.2077331 -0.0479567 1.601109 0.2155661 0.02225193 1.54963 0.1808144 0.02039435 1.533628 0.1795996 0.01210147 1.523685 0.1779077 0.05438929 1.604757 0.2057468 -0.01902541 1.585142 0.22364 -0.01007366 1.566259 0.1854087 -0.01303903 1.548061 0.1845165 -0.01379303 1.531281 0.186779
6 0.07165343 1.504367 0.1900572 0.04244238 1.622265 0.2071919 -0.04831884 1.601101 0.215007 0.02219693 1.549652 0.1808288 0.02051332 1.533538 0.179748 0.0121546 1.523674 0.1778778 0.05391331 1.605037 0.2053741 -0.01936134 1.58521 0.2231394 -0.0101632 1.566227 0.1851279 -0.01294245 1.547987 0.1842023 -0.01379415 1.53125 0.1865667
7 0.07164781 1.504642 0.1901431 0.04178821 1.622512 0.2065253 -0.04864218 1.601098 0.214635 0.02205905 1.549687 0.1809158 0.02055238 1.533463 0.179951 0.01217091 1.523633 0.1779637 0.05338705 1.60535 0.2049031 -0.01966275 1.585283 0.2228374 -0.01033577 1.566193 0.1850142 -0.01292265 1.54791 0.1840676 -0.01381263 1.531205 0.1865158
8 0.07163047 1.504928 0.1901494 0.04109751 1.622758 0.2058025 -0.04896959 1.601014 0.2142971 0.02185001 1.549738 0.1809641 0.02054793 1.533402 0.1801264 0.01217381 1.523584 0.1780765 0.05283376 1.605672 0.2043548 -0.01996004 1.585317 0.2226184 -0.01059225 1.566142 0.1849858 -0.01296026 1.547804 0.1840155 -0.01384404 1.531124 0.18653
9 0.07161295 1.505279 0.1900447 0.04038675 1.623042 0.2050984 -0.0493372 1.600864 0.2139126 0.02158606 1.54983 0.1808852 0.02050948 1.533377 0.180223 0.01218587 1.523555 0.178156 0.05225085 1.606035 0.2037565 -0.02027142 1.585352 0.2223803 -0.01092269 1.566088 0.1849595 -0.01304669 1.547689 0.1839826 -0.01387289 1.531029 0.1865602
10 0.07157023 1.505693 0.1898569 0.03974384 1.623357 0.2045449 -0.04967465 1.600804 0.2136897 0.02130882 1.550037 0.180764 0.0204433 1.533495 0.1802516 0.01218456 1.523667 0.1781709 0.05172594 1.606426 0.2032548 -0.02054149 1.585461 0.222229 -0.01125431 1.566157 0.1849476 -0.01316237 1.5477 0.1839513 -0.01391834 1.531051 0.186562
11 0.07145137 1.506245 0.1895808 0.0387841 1.623713 0.2039179 -0.05009224 1.600758 0.2137291 0.02091756 1.550374 0.1807433 0.02031738 1.533745 0.180351 0.01218765 1.523892 0.1782614 0.05097205 1.606923 0.2027077 -0.02086482 1.585609 0.2222702 -0.01169612 1.566321 0.1850713 -0.01335336 1.547793 0.1840251 -0.01398158 1.531146 0.1866259
12 0.07137581 1.506829 0.1892738 0.03781576 1.624101 0.2031753 -0.05038968 1.600738 0.2144649 0.02058223 1.55081 0.1809937 0.02024755 1.534117 0.1805861 0.01219402 1.524267 0.1784752 0.05023496 1.607472 0.2020981 -0.02101489 1.585748 0.2227647 -0.01204576 1.566615 0.185484 -0.01347816 1.548022 0.1843358 -0.01400837 1.531375 0.1868872
13 0.07137635 1.507363 0.1890977 0.03667379 1.624448 0.2020683 -0.05085571 1.600383 0.2152694 0.02022963 1.551015 0.1813305 0.02013616 1.534272 0.1809052 0.01216733 1.524414 0.178789 0.04929088 1.607958 0.2011826 -0.02125203 1.585671 0.2232561 -0.01243251 1.566638 0.1859222 -0.01365159 1.548 0.1847588 -0.01405201 1.531356 0.1873221
14 0.071424 1.507833 0.1890163 0.03556013 1.624762 0.2009333 -0.05129297 1.599976 0.2159225 0.01991591 1.551089 0.1816739 0.01998069 1.534345 0.1812546 0.0120827 1.524491 0.1791504 0.04834933 1.608397 0.2002248 -0.02148732 1.58555 0.2236868 -0.01279405 1.566526 0.1863849 -0.01386122 1.547868 0.1852669 -0.01413687 1.531227 0.1878745
15 0.07152712 1.508348 0.1889237 0.03452093 1.625097 0.1997367 -0.05169273 1.599514 0.2163762 0.01970025 1.551024 0.1820858 0.0198157 1.534348 0.1817062 0.01195512 1.524502 0.1796499 0.04748274 1.608866 0.1991956 -0.02170349 1.585419 0.2240386 -0.01308315 1.566274 0.1868834 -0.01407782 1.54763 0.185906 -0.01424401 1.530999 0.1886168
16 0.07167459 1.508939 0.1888108 0.03373901 1.625511 0.198616 -0.05195756 1.599141 0.2166463 0.01958289 1.55094 0.1825142 0.0196393 1.534373 0.182239 0.01180327 1.524517 0.1803109 0.04682063 1.609375 0.1981783 -0.02180186 1.585418 0.2243283 -0.01328165 1.566023 0.1874482 -0.0142863 1.547419 0.1867141 -0.01433851 1.530802 0.1895826
17 0.07190669 1.509529 0.1887655 0.0332553 1.626033 0.197448 -0.05212563 1.598804 0.2170422 0.01952583 1.550786 0.1828748 0.01942159 1.534385 0.1828249 0.01165632 1.524457 0.1811609 0.04637438 1.609929 0.1970183 -0.02175781 1.585521 0.2246652 -0.01345547 1.565647 0.1880846 -0.01453485 1.547109 0.1877553 -0.01439188 1.530515 0.1908541
18 0.07211742 1.51032 0.1885886 0.03272358 1.626701 0.1959272 -0.0522843 1.598712 0.2177908 0.01950636 1.550713 0.1832118 0.01919981 1.53449 0.1834708 0.01155478 1.524444 0.1821152 0.04591247 1.610655 0.1955538 -0.02166232 1.585847 0.2251087 -0.01359757 1.565353 0.188684 -0.0147649 1.546903 0.1888289 -0.01438324 1.530354 0.1921766
19 0.07227508 1.511305 0.1883218 0.03207669 1.627578 0.1939186 -0.05257599 1.5989 0.2186934 0.01947673 1.55073 0.1833975 0.01911786 1.53466 0.1839572 0.01140853 1.524548 0.1828781 0.04530177 1.611562 0.193719 -0.02170032 1.586354 0.2254565 -0.01377007 1.56517 0.1889904 -0.01491246 1.546789 0.189549 -0.01441259 1.530335 0.1932198
20 0.07239874 1.512324 0.1879918 0.03136338 1.628491 0.1916681 -0.05288539 1.599102 0.2196403 0.01935758 1.550702 0.183622 0.01906331 1.534753 0.1844954 0.01120185 1.524597 0.183646 0.04450519 1.612413 0.1916584 -0.02177087 1.586867 0.2257852 -0.01401788 1.564927 0.1892898 -0.01503614 1.546596 0.190242 -0.01446253 1.53027 0.1943084
21 0.07251979 1.513332 0.1877621 0.03060384 1.629393 0.1891555 -0.05305354 1.59934 0.2207358 0.01920356 1.550612 0.1842229 0.01901809 1.53477 0.1854293 0.01108172 1.524559 0.1848136 0.04354986 1.613166 0.1893824 -0.02173048 1.587423 0.226316 -0.014279 1.564593 0.1899568 -0.01511726 1.546317 0.1913285 -0.01440791 1.530127 0.1958013
22 0.07271662 1.51419 0.1877943 0.02995817 1.630138 0.1867236 -0.05311032 1.599471 0.22192 0.01904961 1.550431 0.185125 0.01908393 1.534643 0.1866388 0.01121689 1.524344 0.1863396 0.0426113 1.613691 0.187241 -0.02159772 1.587862 0.2269974 -0.01452008 1.564139 0.1909859 -0.01509017 1.545901 0.1927396 -0.01414377 1.529837 0.1975539
23 0.07293359 1.515005 0.1879447 0.02930553 1.631003 0.1838661 -0.053254 1.599388 0.2236106 0.01904657 1.550104 0.1864479 0.01918692 1.534419 0.188312 0.0116777 1.523997 0.1880758 0.04143792 1.61419 0.1848477 -0.02155983 1.588027 0.2280198 -0.01466113 1.563458 0.1922415 -0.0149986 1.545301 0.1943416 -0.01365969 1.529334 0.1993146
24 0.07282533 1.515869 0.1875987 0.02839685 1.631944 0.1802509 -0.05354319 1.599105 0.2260568 0.01898869 1.54971 0.1878708 0.01901823 1.534169 0.1901389 0.01197122 1.523576 0.1897198 0.03963002 1.614552 0.1817306 -0.02160889 1.588067 0.2293575 -0.01492189 1.562553 0.1936073 -0.01514391 1.544584 0.1961854 -0.01327561 1.528749 0.2012626
25 0.07240795 1.516373 0.187025 0.02738906 1.632408 0.1768842 -0.05390433 1.598425 0.228479 0.01866984 1.549004 0.1891327 0.01859003 1.53361 0.1918545 0.01188258 1.522851 0.191381 0.03746556 1.614353 0.1786863 -0.02172612 1.587856 0.2306207 -0.01544081 1.561229 0.1950733 -0.01553716 1.543493 0.1982826 -0.01312282 1.527844 0.2035863
26 0.07183702 1.516738 0.1865218 0.02625659 1.632475 0.173261 -0.05448898 1.597309 0.2311385 0.01854216 1.548001 0.1904724 0.01829036 1.532849 0.1937009 0.0117895 1.521871 0.1933078 0.03499667 1.613776 0.1754653 -0.0220354 1.587401 0.2319268 -0.01588081 1.559413 0.1965551 -0.01588779 1.542012 0.2005974 -0.01293933 1.526667 0.2062688
27 0.07140162 1.517215 0.1861628 0.02550272 1.632544 0.1706228 -0.0551562 1.59612 0.2330582 0.01860539 1.547264 0.1916357 0.01834162 1.53233 0.1952604 0.01195713 1.521109 0.1949335 0.03321201 1.613426 0.1731802 -0.02246536 1.586923 0.232866 -0.01611788 1.557869 0.1977716 -0.01596285 1.540755 0.2024749 -0.01259269 1.525726 0.2084783
28 0.07091578 1.5176 0.1855182 0.0248831 1.632806 0.1699619 -0.05545626 1.594665 0.2350087 0.01899064 1.546701 0.1924995 0.01888656 1.532037 0.1965885 0.01242983 1.52052 0.1964168 0.03193318 1.613443 0.1725368 -0.02252618 1.586389 0.2339496 -0.0160372 1.556521 0.1993487 -0.01561655 1.539683 0.2045954 -0.01184437 1.525027 0.2108644
29 0.07049435 1.517352 0.1853655 0.02439684 1.632545 0.1712375 -0.05485749 1.593324 0.2380957 0.01942873 1.546364 0.1936779 0.01950992 1.531809 0.1979546 0.01280284 1.520176 0.1983621 0.03140018 1.613144 0.1735404 -0.02182537 1.585719 0.2359805 -0.01570473 1.555661 0.2014986 -0.01509493 1.53897 0.2069874 -0.01118305 1.524531 0.2134078
30 0.07004576 1.516427 0.1858193 0.02414833 1.631603 0.1718719 -0.0541239 1.592083 0.2408997 0.01960566 1.545516 0.1948596 0.01984324 1.531202 0.1996671 0.01292275 1.519519 0.2006981 0.0305949 1.612018 0.174148 -0.02106101 1.584966 0.2379568 -0.01551949 1.554579 0.203885 -0.01470669 1.538008 0.2096519 -0.01071038 1.523769 0.2163338
31 0.0695799 1.51573 0.1861959 0.0235742 1.630691 0.1717659 -0.05399193 1.590876 0.2426776 0.01934784 1.544626 0.1956415 0.01972367 1.530593 0.2008373 0.01286168 1.518852 0.2026165 0.0295005 1.610938 0.1740061 -0.02087866 1.584177 0.2392863 -0.01569369 1.553509 0.205726 -0.01469802 1.537028 0.211757 -0.01051488 1.522938 0.2185923
32 0.06896751 1.515276 0.1860103 0.02239393 1.62987 0.1710215 -0.05401599 1.589667 0.2442643 0.0188581 1.543714 0.1959945 0.01935735 1.529999 0.2014749 0.01272336 1.518286 0.2040278 0.0281301 1.610075 0.1735091 -0.02083043 1.583406 0.2403544 -0.01598161 1.552508 0.2073633 -0.01479462 1.536135 0.2136854 -0.01030155 1.522169 0.2205568
33 0.06845403 1.515272 0.1850617 0.02103158 1.629538 0.1698118 -0.05395814 1.588449 0.2460003 0.01834523 1.542991 0.1957881 0.01892867 1.529559 0.201476 0.01279811 1.51792 0.204857 0.02657129 1.609683 0.1724898 -0.02073669 1.582709 0.2410842 -0.01619361 1.551544 0.2086411 -0.01475705 1.535353 0.2153666 -0.009740284 1.521526 0.2221663
34 0.06807349 1.515613 0.18368 0.02045722 1.62982 0.1687452 -0.0536674 1.587285 0.2479285 0.01797247 1.542548 0.1953323 0.01862062 1.529296 0.2011267 0.01304054 1.517752 0.2051615 0.02549621 1.609816 0.1715243 -0.0204818 1.582084 0.2417463 -0.0162283 1.55079 0.2095583 -0.01452802 1.534783 0.2166366 -0.008974884 1.52108 0.2232906
35 0.06760753 1.515722 0.1822026 0.01931428 1.629759 0.1676769 -0.05303172 1.586286 0.249849 0.01750197 1.541952 0.1948998 0.01841586 1.528892 0.2008577 0.01348803 1.517483 0.2055953 0.024282 1.609699 0.170403 -0.01995856 1.581661 0.2422378 -0.01616204 1.550062 0.2105743 -0.01402969 1.534295 0.2180173 -0.007910234 1.520801 0.2245573
36 0.06703989 1.515621 0.180776 0.01785429 1.629421 0.1669336 -0.05265649 1.585054 0.2509422 0.01694113 1.541232 0.1946292 0.01826868 1.528376 0.2005927 0.01402742 1.517062 0.2060148 0.02309224 1.609376 0.1694614 -0.01965743 1.581086 0.2422861 -0.01616285 1.5493 0.211471 -0.01350335 1.533744 0.2191581 -0.006866464 1.520486 0.2255819
37 0.06658714 1.51573 0.1794244 0.0162755 1.629252 0.1668233 -0.05268195 1.583737 0.2516428 0.01624471 1.540473 0.1942763 0.01811209 1.527833 0.2000566 0.01461237 1.51663 0.2062424 0.02189876 1.609247 0.1689946 -0.01979812 1.580371 0.2420374 -0.01636264 1.548415 0.2120898 -0.0130538 1.533034 0.2198851 -0.005896458 1.520036 0.2262025
38 0.06627557 1.516081 0.1781748 0.01456428 1.629152 0.16697 -0.05289753 1.582619 0.2519422 0.01554479 1.539842 0.1939291 0.01801033 1.527435 0.1994415 0.01517932 1.516328 0.2063693 0.0208287 1.609291 0.1687881 -0.02016378 1.579788 0.2415159 -0.01664625 1.547639 0.2124508 -0.01264499 1.53242 0.2202817 -0.00500851 1.519714 0.2265635
39 0.06599618 1.516406 0.1770796 0.0132454 1.62904 0.1670721 -0.05301115 1.581974 0.2519805 0.01503733 1.539389 0.1936761 0.01794679 1.527176 0.1989771 0.01557509 1.516188 0.2064388 0.02008812 1.609332 0.1685265 -0.0204253 1.579501 0.2409415 -0.01683901 1.547101 0.2126518 -0.01229736 1.53204 0.220538 -0.004294468 1.519585 0.2268378
40 0.06574465 1.516207 0.1764892 0.01225636 1.628436 0.1672065 -0.05301758 1.581194 0.2520975 0.01476707 1.538656 0.1941549 0.01799248 1.526595 0.1992124 0.0159748 1.5158 0.2069764 0.01932846 1.60878 0.1682334 -0.02057892 1.579027 0.24055 -0.0168451 1.546268 0.2133476 -0.01181083 1.531447 0.2213957 -0.003422536 1.519266 0.2277236
41 0.06569552 1.515554 0.1764019 0.01043031 1.626924 0.1687468 -0.05222154 1.581195 0.2533565 0.01464222 1.537664 0.1950108 0.01835292 1.525674 0.1997899 0.01653953 1.514869 0.2079555 0.01834498 1.607555 0.1687432 -0.02014475 1.578813 0.2408163 -0.0165372 1.545262 0.2147092 -0.01089362 1.530699 0.2228399 -0.002155041 1.518895 0.2292681
42 0.06532611 1.515015 0.1758712 0.007210825 1.624775 0.1713587 -0.05162376 1.581029 0.2544805 0.01399301 1.536546 0.1955288 0.01844634 1.524779 0.1999955 0.01708325 1.513847 0.2087729 0.01651091 1.606103 0.1696239 -0.0199226 1.578514 0.24094 -0.01644287 1.544243 0.2162675 -0.009973397 1.529908 0.2243046 -0.0007964064 1.518553 0.2307304
43 0.06479333 1.514757 0.1750212 0.004209599 1.62304 0.1734541 -0.05081267 1.580897 0.2561645 0.01301622 1.535809 0.196471 0.01819614 1.524161 0.2003032 0.01756354 1.513032 0.20953 0.0144713 1.605029 0.1704578 -0.01960852 1.57813 0.2415175 -0.01658968 1.543466 0.2180243 -0.009285105 1.529163 0.2257033 0.0003547681 1.518113 0.2318763
44 0.06389361 1.514958 0.1742816 0.002195889 1.622474 0.1737221 -0.05038936 1.582008 0.2576035 0.01134951 1.535739 0.1975738 0.01695728 1.524059 0.2007542 0.01711874 1.512691 0.2100122 0.01280837 1.604738 0.1704298 -0.01971954 1.578553 0.2421072 -0.01753184 1.543352 0.2195391 -0.009621619 1.528942 0.2269078 0.0004862966 1.518009 0.2326168
45 0.06276786 1.515291 0.1737175 0.001053024 1.622704 0.1725048 -0.05013464 1.583254 0.2587213 0.009483864 1.536227 0.1990726 0.01502791 1.524289 0.2017086 0.01611877 1.512668 0.2104273 0.01158967 1.6049 0.1696872 -0.01986493 1.579267 0.2428011 -0.01873957 1.543793 0.2211187 -0.01054502 1.529229 0.2284365 9.888483E-05 1.518168 0.233287
46 0.06167994 1.515474 0.1733547 0.000653957 1.623207 0.1710538 -0.04976436 1.584306 0.2597404 0.007673036 1.536795 0.2007603 0.01278392 1.52462 0.2032207 0.01486033 1.512896 0.2107675 0.01076991 1.605114 0.1689669 -0.0198296 1.579944 0.2435788 -0.01988968 1.544416 0.2227839 -0.01163895 1.529717 0.2303985 -0.0004071571 1.518307 0.2340572
47 0.06055148 1.515296 0.1732486 0.0009170203 1.623723 0.1697866 -0.04891033 1.585848 0.2611783 0.005366524 1.537274 0.2028624 0.009732874 1.525046 0.2057721 0.01299132 1.513274 0.2110789 0.01019968 1.605164 0.1685397 -0.01957613 1.580717 0.2444959 -0.02129953 1.545278 0.2248287 -0.0131121 1.5304 0.2332348 -0.001215986 1.518297 0.2350549
48 0.05969141 1.515094 0.1727581 0.001891323 1.624499 0.168566 -0.04738089 1.587797 0.2622386 0.001462345 1.539399 0.2069946 0.006673386 1.52604 0.2080929 0.01079335 1.514056 0.2112974 0.01000332 1.60541 0.1683383 -0.01875756 1.581692 0.2450859 -0.02323617 1.547485 0.2277976 -0.01464861 1.531346 0.2353836 -0.002503215 1.518361 0.2355272
49 0.05956035 1.514933 0.1724409 0.002685482 1.624732 0.1671246 -0.04615697 1.588893 0.2626175 -0.003776547 1.542141 0.2118811 0.004379881 1.527091 0.2105747 0.009303347 1.514984 0.2123881 0.00965031 1.605259 0.1680456 -0.01802094 1.582186 0.2452338 -0.02486457 1.550285 0.2327835 -0.01571109 1.532069 0.2370045 -0.00358324 1.518306 0.2361032
50 0.05999663 1.515831 0.1717288 0.0015879 1.624601 0.1638887 -0.04692556 1.586927 0.2623865 -0.008052211 1.543051 0.215576 0.002973892 1.527753 0.2127124 0.008409545 1.51573 0.2143441 0.008103775 1.605168 0.1666472 -0.01892996 1.580904 0.2447648 -0.02595147 1.551251 0.2369629 -0.01635133 1.531604 0.2378589 -0.004107232 1.517599 0.2370222
51 0.06058159 1.516494 0.1714806 0.0002757426 1.623947 0.1615674 -0.04799585 1.584295 0.2619764 -0.01003731 1.542636 0.2173772 0.002306883 1.52787 0.2155444 0.0076075 1.515926 0.2177873 0.006646114 1.60462 0.1651569 -0.01992657 1.579204 0.2444234 -0.026266 1.551028 0.2398251 -0.01645054 1.530889 0.2391317 -0.0040088 1.516699 0.2393586
52 0.06094801 1.516906 0.1714084 -0.0003424914 1.623555 0.1606 -0.04871406 1.582419 0.2617568 -0.009934908 1.542154 0.2179643 0.001693271 1.527761 0.2181108 0.006751835 1.51583 0.221343 0.005928538 1.604263 0.1644076 -0.02062476 1.577847 0.244312 -0.02641427 1.550115 0.2404691 -0.01647961 1.530449 0.2405959 -0.003780159 1.515896 0.2419439
53 0.06109496 1.516971 0.1715035 -0.0003259082 1.623473 0.1610117 -0.04897071 1.58136 0.2617275 -0.008719544 1.541692 0.218038 0.001178142 1.526672 0.219773 0.00599401 1.515517 0.2247791 0.005913463 1.604153 0.1645378 -0.02089567 1.576906 0.2444642 -0.02638035 1.549032 0.2399781 -0.01637276 1.530452 0.2425607 -0.003317553 1.515219 0.2447791
54 0.06096994 1.517013 0.1714708 -0.0006186314 1.623415 0.1618808 -0.0493181 1.580678 0.2616511 -0.008202742 1.541267 0.2181117 8.620814E-05 1.526473 0.2212605 0.005359051 1.51432 0.227275 0.00575257 1.60409 0.1649027 -0.02134523 1.576113 0.2444745 -0.02655262 1.548226 0.2396785 -0.0163789 1.530693 0.2448012 -0.002912425 1.514613 0.2471543
55 0.06058252 1.517026 0.1714082 -0.001263261 1.62328 0.1628617 -0.04954343 1.580588 0.2619014 -0.009812881 1.5413 0.2197128 -0.002145927 1.526508 0.2235305 0.003917086 1.513661 0.2291457 0.005321819 1.603999 0.1653831 -0.02193575 1.575546 0.2444731 -0.02684637 1.548787 0.2421833 -0.01629863 1.531499 0.2483946 -0.002516268 1.514099 0.2497102
56 0.06021347 1.517018 0.1712246 -0.001567964 1.623139 0.1634086 -0.04935503 1.581351 0.2621384 -0.01292209 1.54206 0.2231478 -0.004447682 1.526775 0.2258987 0.002229892 1.513079 0.2308777 0.004933581 1.603853 0.1657509 -0.02234135 1.575452 0.2443085 -0.02622449 1.550938 0.2475406 -0.01576 1.532577 0.2520178 -0.001875489 1.513794 0.2520475
57 0.06006952 1.517137 0.1709709 -0.001378827 1.623185 0.1634886 -0.0489191 1.58241 0.2621441 -0.01577311 1.543404 0.2269974 -0.005981016 1.527195 0.2275346 0.0002098467 1.513592 0.2315862 0.004801459 1.603845 0.1659389 -0.02242563 1.575776 0.2440418 -0.02442149 1.553746 0.2529954 -0.01502913 1.533551 0.2544434 -0.001191023 1.513829 0.2535345
58 0.06006734 1.517368 0.1705329 -0.0006098236 1.623425 0.1628417 -0.04816356 1.583881 0.2619528 -0.01834268 1.545626 0.2316612 -0.00724599 1.527834 0.2285039 -0.004206278 1.512803 0.2309293 0.00489959 1.603981 0.1657496 -0.02239287 1.576387 0.2434148 -0.0207915 1.557327 0.2583217 -0.01424368 1.534649 0.2559244 -0.000637345 1.514314 0.2541503
59 0.06017724 1.517634 0.1701754 0.0003480269 1.623615 0.1617998 -0.04748382 1.585121 0.2616701 -0.01937912 1.5474 0.2346817 -0.008351214 1.528291 0.2287057 -0.009290123 1.512305 0.2308624 0.005018243 1.604089 0.1653994 -0.0223956 1.576914 0.2427307 -0.01778603 1.559718 0.2610522 -0.01378904 1.535451 0.2564159 -0.000280294 1.514946 0.2542835
60 0.06030642 1.517917 0.169807 0.001303629 1.623762 0.1606004 -0.04724031 1.585844 0.2609916 -0.01948817 1.548402 0.2352798 -0.01000765 1.528511 0.2283449 -0.01206877 1.512259 0.2313992 0.005149945 1.604213 0.1648835 -0.02254418 1.577429 0.2418278 -0.01659043 1.560967 0.2614689 -0.01366673 1.536063 0.2562401 -8.99904E-05 1.515566 0.2541595
61 0.06054374 1.51832 0.1693545 0.002136207 1.624029 0.1593753 -0.04729767 1.586744 0.259743 -0.01929229 1.548954 0.2342548 -0.01234171 1.528585 0.2275152 -0.01292382 1.512626 0.2317742 0.005434154 1.604504 0.1641346 -0.0226942 1.578109 0.2406987 -0.01668355 1.561632 0.260513 -0.01377008 1.53658 0.2554283 0.0001376852 1.516208 0.2538746
62 0.06059556 1.518624 0.1690279 0.002725579 1.62435 0.15841 -0.04728939 1.587905 0.2587494 -0.01929583 1.54951 0.2331659 -0.01456243 1.528621 0.226524 -0.01290736 1.51323 0.2320033 0.00574876 1.604854 0.1634194 -0.02282625 1.578965 0.2397512 -0.01711287 1.562289 0.2594772 -0.01426904 1.536969 0.2542844 0.0001614926 1.516808 0.2536886
63 0.06029689 1.51878 0.1687325 0.003063181 1.624698 0.1576395 -0.0471902 1.589489 0.2580039 -0.01985715 1.550509 0.2327023 -0.01668984 1.528803 0.2255744 -0.01279646 1.514034 0.2321293 0.005953926 1.605213 0.1627441 -0.02300406 1.58008 0.2389138 -0.01720012 1.563501 0.2588803 -0.01507757 1.537443 0.2531205 -0.0001729042 1.517468 0.2535547
64 0.05974691 1.518885 0.1683636 0.002964633 1.625087 0.1571355 -0.04703549 1.591097 0.2575772 -0.02101429 1.551719 0.2329123 -0.0190382 1.529115 0.2254516 -0.01308921 1.514771 0.2326188 0.005892287 1.60559 0.162167 -0.0232292 1.581209 0.238233 -0.0168427 1.564968 0.2587419 -0.01563287 1.538061 0.2526661 -0.0005181002 1.518055 0.2535909
65 0.05915711 1.51901 0.167786 0.002153326 1.625444 0.1571448 -0.04692256 1.592629 0.2571786 -0.02392539 1.552807 0.2337197 -0.02192488 1.529668 0.2276734 -0.01403943 1.515202 0.2350586 0.005613687 1.605912 0.161707 -0.02337042 1.58227 0.2376372 -0.01638257 1.56627 0.2585321 -0.01499966 1.539051 0.2539797 1.900832E-05 1.518494 0.2543891
66 0.05888334 1.519219 0.167051 0.001075943 1.625784 0.1573705 -0.04738449 1.593517 0.2563003 -0.03141215 1.554059 0.2366077 -0.02491409 1.530435 0.2323073 -0.01521627 1.515101 0.2394147 0.005414101 1.606248 0.1612113 -0.0233419 1.583367 0.2369667 -0.01643672 1.566952 0.2575882 -0.01287078 1.540264 0.2564114 0.00170895 1.518692 0.2555347
67 0.05885314 1.519251 0.1665198 0.0003529576 1.625997 0.1579222 -0.04763447 1.594412 0.255659 -0.04097813 1.558029 0.2463606 -0.02941149 1.531295 0.2401259 -0.01698789 1.514173 0.2452616 0.005494956 1.606484 0.1610252 -0.0232162 1.58428 0.2364507 -0.01627954 1.567169 0.2565612 -0.01017593 1.541139 0.2586439 0.003550434 1.518423 0.2564139
68 0.05883793 1.519185 0.1662888 0.0001293335 1.626206 0.1584841 -0.04778786 1.595258 0.2553563 -0.04589293 1.561965 0.2564232 -0.03533756 1.533063 0.2515903 -0.01952996 1.512699 0.2521434 0.00575227 1.606707 0.1610961 -0.02308744 1.58497 0.2362123 -0.01714555 1.567058 0.2557206 -0.008643674 1.541495 0.2596981 0.004465106 1.517866 0.2567475
69 0.05887513 1.519047 0.1662873 0.0002187553 1.626332 0.1588598 -0.04793426 1.595905 0.2551623 -0.05004244 1.566467 0.2661587 -0.04117192 1.535627 0.2674411 -0.02135149 1.511276 0.2592324 0.006041874 1.606827 0.1612613 -0.02295415 1.585457 0.2361431 -0.01800969 1.566925 0.2549544 -0.008261687 1.541567 0.2600351 0.004591195 1.517261 0.2567607
70 0.05896601 1.518876 0.1663708 0.0002820241 1.626298 0.1590388 -0.0480484 1.596315 0.255067 -0.05012906 1.57178 0.2762551 -0.04184902 1.538238 0.279097 -0.02173672 1.510441 0.2639298 0.006207298 1.606787 0.1613679 -0.02288224 1.585687 0.2361419 -0.01845605 1.566792 0.2543302 -0.008316499 1.541471 0.2600669 0.004431214 1.516806 0.2566844
71 0.05914483 1.518798 0.1663548 0.0005078891 1.626331 0.15896 -0.0481206 1.596684 0.2548857 -0.04803498 1.573644 0.2783757 -0.0409872 1.538879 0.2809078 -0.02155098 1.509838 0.2658613 0.006464241 1.606804 0.1612846 -0.02282053 1.585851 0.236049 -0.01855608 1.566828 0.2540244 -0.008447023 1.5413 0.2597032 0.004194432 1.516388 0.2563581
72 0.05947958 1.518761 0.1663234 0.000990581 1.626363 0.1588362 -0.0481158 1.59672 0.2546727 -0.0482012 1.5731 0.2772568 -0.04122997 1.538191 0.2794373 -0.02144102 1.5093 0.2657747 0.006871166 1.60681 0.1612047 -0.02274063 1.585772 0.2359207 -0.01827715 1.566693 0.2537736 -0.008478698 1.540967 0.2591695 0.004138445 1.515984 0.2559602
73 0.0600554 1.518785 0.1661632 0.001880416 1.626472 0.1587762 -0.0477958 1.596501 0.2543453 -0.04809228 1.572161 0.2759779 -0.04174539 1.537086 0.276656 -0.02148983 1.508991 0.2640019 0.007559798 1.606878 0.1612066 -0.02234544 1.585592 0.2357398 -0.01753893 1.566492 0.2535931 -0.008282532 1.5406 0.2585418 0.004340701 1.515685 0.2554067
74 0.06073108 1.518988 0.1657521 0.002925516 1.626698 0.1586656 -0.04747499 1.596049 0.2535902 -0.04879725 1.570465 0.2731192 -0.04286683 1.53566 0.2712966 -0.02195063 1.509348 0.2591846 0.008345423 1.60707 0.1611607 -0.02186916 1.585385 0.2352772 -0.0166744 1.566361 0.2532536 -0.00805368 1.540426 0.2576869 0.004519309 1.515716 0.2546034
75 0.06132532 1.519407 0.1652578 0.003894782 1.627038 0.158387 -0.04739915 1.595369 0.2527361 -0.04934717 1.568557 0.2703869 -0.04343751 1.534023 0.2644108 -0.021914 1.510126 0.2529823 0.009008158 1.607379 0.161008 -0.02161106 1.585104 0.2347158 -0.01597613 1.566202 0.2529423 -0.007839914 1.540404 0.2569307 0.004591194 1.515965 0.2538223
76 0.06171393 1.519911 0.1650899 0.004973177 1.62746 0.1583659 -0.04750181 1.5947 0.2520757 -0.04977519 1.565172 0.2652654 -0.04001328 1.53162 0.2501435 -0.02004804 1.511698 0.2436302 0.009536171 1.607742 0.1612239 -0.02163572 1.584785 0.2343281 -0.01521001 1.566133 0.2532454 -0.008100636 1.540494 0.2564737 0.0039156 1.516388 0.2530577
77 0.06194967 1.520382 0.165208 0.005592085 1.627818 0.1590911 -0.04811025 1.593418 0.2513249 -0.04568784 1.558344 0.2522025 -0.02999148 1.530497 0.2343534 -0.01649849 1.5139 0.2344865 0.009978758 1.608091 0.1618527 -0.02194915 1.58419 0.2339996 -0.01427774 1.566074 0.2544961 -0.009496613 1.54041 0.2555106 0.002264966 1.517066 0.2516903
78 0.06225534 1.5206 0.1659152 0.006464374 1.628109 0.1603108 -0.04899427 1.591735 0.2505704 -0.03396035 1.552812 0.2371417 -0.01913079 1.530515 0.2234676 -0.01236344 1.51581 0.227321 0.01081959 1.608373 0.1628352 -0.02232414 1.583392 0.2338011 -0.01424852 1.56576 0.2559322 -0.01228146 1.539649 0.2526514 0.0002423319 1.517808 0.2496407
79 0.06226828 1.520151 0.1671641 0.008102207 1.62864 0.1626027 -0.04964461 1.590291 0.2501321 -0.02319705 1.550938 0.2267613 -0.01034943 1.532546 0.2211308 -0.007737462 1.51788 0.2221809 0.01255854 1.608866 0.1646164 -0.02201612 1.583027 0.2343495 -0.01705903 1.564256 0.2548084 -0.01383977 1.539984 0.2506893 -0.002019404 1.518783 0.2471206
80 0.06245125 1.519245 0.1685061 0.01052505 1.629343 0.1647858 -0.05054685 1.587741 0.2489781 -0.01530362 1.549095 0.2188758 -0.001324159 1.532823 0.2173741 0.001823972 1.51968 0.215132 0.01493272 1.609483 0.1664735 -0.02131487 1.582169 0.2351014 -0.02099982 1.55988 0.2495881 -0.01558264 1.538313 0.2444639 -0.00402765 1.519172 0.2401475
81 0.06290115 1.517308 0.1703239 0.01282911 1.62912 0.1671187 -0.05125526 1.583735 0.2471027 -0.006628437 1.54663 0.2107366 0.01145605 1.530628 0.2077419 0.01113599 1.519337 0.2068641 0.01771905 1.609241 0.1681688 -0.01988027 1.581007 0.236517 -0.02342723 1.553385 0.2397105 -0.01477649 1.533916 0.2303965 -0.003084953 1.519395 0.2314463
82 0.06335896 1.514638 0.1718402 0.01254185 1.627236 0.171578 -0.05043257 1.580257 0.2488099 0.006542166 1.543569 0.2044897 0.0168633 1.524392 0.1950489 0.01603695 1.514186 0.2035603 0.01994212 1.608015 0.169845 -0.0179648 1.57918 0.2392888 -0.0194475 1.547064 0.2236161 -0.009489475 1.530672 0.222878 -0.0003839427 1.518736 0.2273676
83 0.06427331 1.512445 0.1730179 0.01476562 1.626422 0.1752284 -0.04933089 1.577849 0.2492146 0.01311797 1.541091 0.2028785 0.01732761 1.523875 0.1956398 0.01708444 1.512248 0.2048396 0.02347608 1.6078 0.1720971 -0.01589477 1.577625 0.2414456 -0.01526417 1.546177 0.2172975 -0.009090723 1.530382 0.2227013 -0.0007341657 1.518109 0.2268211
84 0.0656102 1.512092 0.1734147 0.01633748 1.627136 0.1755446 -0.04927036 1.578138 0.2472918 0.01573543 1.538457 0.1962786 0.01693859 1.524987 0.1982853 0.01543121 1.512827 0.2054425 0.02572428 1.608668 0.1727293 -0.01521328 1.576989 0.2415656 -0.01412589 1.547362 0.2148728 -0.01044601 1.531322 0.2222612 -0.00271626 1.518152 0.2263581
85 0.06661306 1.512646 0.1733221 0.01588291 1.627714 0.1735835 -0.04915838 1.580344 0.2461774 0.01550658 1.538407 0.1916613 0.01639003 1.526286 0.1983933 0.01334748 1.51408 0.2050361 0.02600011 1.609474 0.1714678 -0.01513583 1.577604 0.2408769 -0.01423539 1.548467 0.213036 -0.01163286 1.532277 0.2206585 -0.00460925 1.518667 0.2256186
86 0.06747951 1.513788 0.172895 0.01525707 1.628385 0.1707301 -0.04924218 1.582849 0.2448079 0.01490507 1.539366 0.1889488 0.01576108 1.5274 0.1965766 0.01159273 1.515687 0.204377 0.02553806 1.610173 0.1692672 -0.01542363 1.579023 0.2395018 -0.01481892 1.549405 0.2109993 -0.0125704 1.533229 0.2186933 -0.006041083 1.519469 0.2248648
87 0.0684724 1.514097 0.1739151 0.01667893 1.628527 0.1689882 -0.0500795 1.585268 0.2422225 0.01469036 1.539955 0.1878115 0.01579717 1.527558 0.1945567 0.01102742 1.516296 0.203873 0.02638723 1.610032 0.1680498 -0.01643171 1.580546 0.2372742 -0.01569614 1.550137 0.2086225 -0.01346475 1.53397 0.2160821 -0.007413375 1.52027 0.2232091
88 0.06986303 1.513966 0.1760167 0.01885108 1.628369 0.1691577 -0.05099655 1.586846 0.2389139 0.01499312 1.54025 0.1877761 0.0166507 1.527451 0.1939619 0.01141739 1.516349 0.2035769 0.02818514 1.609735 0.1684879 -0.01733856 1.581554 0.2353245 -0.0161433 1.550705 0.2068364 -0.01379447 1.534386 0.2137977 -0.008201061 1.520716 0.2213928
89 0.0709981 1.514005 0.178506 0.02155721 1.628714 0.1717266 -0.05216179 1.58841 0.2349313 0.01582061 1.541345 0.1880445 0.01767299 1.52777 0.1932766 0.01195925 1.516494 0.2022411 0.03104895 1.610219 0.1709728 -0.01854351 1.582363 0.233395 -0.01640507 1.55191 0.2045211 -0.01418549 1.535231 0.2106136 -0.009267027 1.521318 0.2180676
90 0.07189279 1.514239 0.1799329 0.02368413 1.629258 0.1756383 -0.05254268 1.589173 0.2314151 0.0164003 1.543058 0.188106 0.01847926 1.528688 0.1923066 0.012508 1.517281 0.1991779 0.03377793 1.61115 0.174252 -0.01898033 1.582989 0.2318969 -0.01638737 1.553617 0.2027594 -0.01421491 1.536512 0.2078763 -0.009700898 1.52219 0.2147378
91 0.07255751 1.514428 0.1810854 0.02483594 1.629296 0.179559 -0.05270332 1.59003 0.2281494 0.01679775 1.544561 0.1880787 0.01901424 1.529668 0.1913538 0.01268448 1.518559 0.1958152 0.0358727 1.611828 0.177524 -0.01931496 1.583663 0.2303685 -0.01629654 1.55535 0.20098 -0.01426068 1.537883 0.2053538 -0.01013946 1.523144 0.2117497
92 0.07339314 1.514547 0.1823702 0.02556967 1.628939 0.1828094 -0.05267746 1.591029 0.2255059 0.01741808 1.545548 0.1876792 0.01960172 1.530378 0.1906258 0.01316618 1.519514 0.1936654 0.03756219 1.612157 0.1804469 -0.01950706 1.584251 0.2288486 -0.01587541 1.556703 0.1992113 -0.01407312 1.539009 0.2031656 -0.01025469 1.523969 0.2092377
93 0.07435804 1.514621 0.1838325 0.02633078 1.628603 0.1854826 -0.05261407 1.591853 0.2234973 0.01827528 1.546105 0.1870553 0.02028547 1.530796 0.1900641 0.01371858 1.520116 0.1925272 0.03906773 1.612379 0.183029 -0.0196439 1.584604 0.2276054 -0.01521866 1.557606 0.1976625 -0.01368411 1.539791 0.2013816 -0.01021493 1.52455 0.207337
94 0.07534914 1.514573 0.1852732 0.02740383 1.628134 0.1885276 -0.05240288 1.592659 0.2215566 0.01935514 1.546658 0.1861479 0.02118125 1.531247 0.1895073 0.01435792 1.520629 0.1915301 0.04086804 1.612498 0.1860717 -0.01967721 1.584817 0.2264188 -0.01432622 1.558427 0.1959975 -0.01306008 1.540474 0.1993953 -0.01008277 1.525064 0.2052822
95 0.07607611 1.514472 0.1865255 0.02885479 1.627981 0.191321 -0.05206277 1.593631 0.2199189 0.02038015 1.547374 0.1852004 0.02187883 1.531901 0.1889158 0.014885 1.521265 0.1903628 0.04265357 1.612624 0.1889268 -0.01957857 1.585212 0.2253965 -0.01339466 1.559484 0.1944406 -0.01247598 1.541416 0.1975294 -0.009939631 1.52586 0.2032485
96 0.07659092 1.514094 0.1878634 0.03072675 1.627831 0.1942587 -0.05158486 1.594779 0.2184338 0.02130452 1.548166 0.1842063 0.0224442 1.532619 0.1881603 0.01537162 1.521955 0.1890051 0.04460356 1.612535 0.1918905 -0.01935592 1.585727 0.2244075 -0.01243842 1.560718 0.1929263 -0.01192147 1.542534 0.1956872 -0.009774653 1.526837 0.2011424
97 0.07695114 1.513494 0.1892654 0.03288556 1.62766 0.19724 -0.05104229 1.595954 0.2173522 0.02203328 1.549015 0.1830093 0.02289322 1.533346 0.1871649 0.01578588 1.522667 0.1875036 0.04664896 1.612256 0.1948815 -0.01904358 1.58625 0.223571 -0.0115631 1.562045 0.1915377 -0.01140205 1.543723 0.1939203 -0.009591741 1.527886 0.1990699
98 0.077178 1.512767 0.1905845 0.03511921 1.627437 0.2001254 -0.05049372 1.597095 0.2166381 0.02262679 1.549877 0.1816493 0.02329948 1.534048 0.1859726 0.01603103 1.523485 0.1859328 0.04863205 1.611816 0.1977236 -0.01867295 1.586755 0.2228285 -0.01076206 1.563376 0.1902169 -0.01088709 1.544904 0.1922074 -0.009491201 1.528933 0.1971359
99 0.07731558 1.512057 0.1917861 0.03730972 1.627314 0.2026931 -0.0499773 1.598189 0.2158969 0.02331187 1.5507 0.1804114 0.02385032 1.534668 0.184822 0.01626234 1.524285 0.1845203 0.05048303 1.611421 0.20017 -0.01830459 1.587291 0.2220361 -0.009946602 1.564573 0.188915 -0.0102861 1.545998 0.1905639 -0.009390946 1.529953 0.1953892
100 0.07729013 1.511382 0.1928496 0.03971189 1.627117 0.2056276 -0.04949883 1.599255 0.2147775 0.02418537 1.551501 0.1790472 0.02472419 1.535194 0.1835506 0.01656549 1.525109 0.1830706 0.05244756 1.610913 0.2028359 -0.01797646 1.587881 0.2210409 -0.00902461 1.565721 0.1874451 -0.009453553 1.547052 0.1887471 -0.009255689 1.531018 0.1935877
101 0.07725605 1.51099 0.1936023 0.04175835 1.626926 0.2084399 -0.04923035 1.600093 0.2135035 0.02530248 1.55213 0.1779487 0.02593659 1.535536 0.182467 0.01730061 1.52577 0.1817426 0.05416542 1.610522 0.2053341 -0.01784381 1.588355 0.2199813 -0.008030987 1.566548 0.185842 -0.008379236 1.547814 0.1868195 -0.008829876 1.531843 0.1916392
102 0.07736879 1.51073 0.1945127 0.04383114 1.626854 0.2111641 -0.04903492 1.600982 0.2118695 0.02664387 1.552678 0.1771689 0.02726969 1.535851 0.1814198 0.01829049 1.526339 0.1804355 0.05592103 1.610247 0.207877 -0.01785592 1.58877 0.2186434 -0.006921552 1.567193 0.1839439 -0.007187478 1.548419 0.1846426 -0.008203978 1.532485 0.1893739
103 0.07747042 1.5104 0.1958431 0.04588059 1.626908 0.2133194 -0.04881158 1.60195 0.2098335 0.02818352 1.553146 0.1768585 0.02857252 1.53621 0.1807617 0.0192563 1.52703 0.1790694 0.05769539 1.61006 0.2102638 -0.01796186 1.589164 0.2171334 -0.005629305 1.567819 0.1819123 -0.005936083 1.549019 0.1823396 -0.007578096 1.533081 0.1869263
104 0.07745988 1.50989 0.1974291 0.04827512 1.626964 0.2155631 -0.04857974 1.602704 0.2080216 0.02991581 1.553437 0.1770614 0.02989157 1.536527 0.1802553 0.02000555 1.527813 0.1776155 0.05972005 1.609802 0.2128821 -0.01810856 1.589364 0.2159361 -0.00405291 1.568308 0.1800427 -0.004636767 1.549568 0.1802131 -0.007059056 1.53363 0.1846231
105 0.07734004 1.50923 0.198969 0.05054106 1.626731 0.2179664 -0.04843693 1.602986 0.2069329 0.03158914 1.553415 0.1777534 0.03121007 1.536586 0.1800518 0.02056716 1.528421 0.1764147 0.06170191 1.609334 0.215593 -0.01824867 1.589273 0.2153336 -0.002369051 1.568499 0.1787001 -0.003310368 1.549881 0.1786482 -0.00663876 1.534019 0.1829086
106 0.07707974 1.508452 0.2003043 0.05204158 1.626056 0.2202556 -0.04837732 1.602956 0.2062675 0.03280469 1.553276 0.1783167 0.03227122 1.536489 0.1799085 0.02097127 1.528788 0.1755353 0.0631706 1.608608 0.2180531 -0.01836874 1.589034 0.2150317 -0.001034811 1.568508 0.1778526 -0.002230108 1.549984 0.1776081 -0.006344049 1.534225 0.1817247
107 0.07664659 1.507543 0.2013758 0.0532648 1.624859 0.2232293 -0.04821582 1.602949 0.2059151 0.03357127 1.553306 0.1786079 0.03313786 1.536448 0.1796692 0.02128152 1.529108 0.1748386 0.06448419 1.607473 0.2209026 -0.01834264 1.588852 0.2149531 -5.99897E-05 1.568671 0.1773872 -0.001337409 1.55016 0.176911 -0.006112884 1.534519 0.1808463
108 0.07622629 1.506637 0.2023002 0.05433064 1.623452 0.2263746 -0.04797027 1.602907 0.2056128 0.03425509 1.553221 0.178794 0.03387333 1.536312 0.1795132 0.02160879 1.529337 0.1743038 0.06563149 1.606151 0.2237489 -0.01821868 1.588671 0.2148969 0.0008172072 1.568775 0.177083 -0.0005454881 1.550273 0.1764293 -0.005863545 1.534742 0.1801936
109 0.07584088 1.505757 0.2029608 0.05518999 1.622023 0.2291602 -0.04771555 1.602839 0.2054527 0.03488036 1.553029 0.1788882 0.03448612 1.53613 0.1793801 0.02199485 1.529466 0.1737765 0.06651019 1.604777 0.2262258 -0.01805729 1.588445 0.2148223 0.001639584 1.568797 0.1767912 0.000151053 1.55031 0.1759841 -0.005556984 1.534873 0.1795627
110 0.07550336 1.504964 0.2034606 0.05577461 1.620751 0.2313585 -0.04737046 1.602847 0.2048991 0.0354757 1.552853 0.1788888 0.03503304 1.536047 0.179053 0.02234426 1.529684 0.1731101 0.06709544 1.603531 0.2282473 -0.01788417 1.588256 0.2145078 0.002424213 1.568835 0.1764424 0.0007549665 1.550382 0.175483 -0.005266817 1.535004 0.1788719
111 0.0752098 1.504255 0.2039174 0.05619099 1.619759 0.2328961 -0.04705215 1.602891 0.2044801 0.03601103 1.552632 0.1791322 0.035515 1.53594 0.1788906 0.02261575 1.529913 0.172524 0.06749859 1.602534 0.2297505 -0.01772576 1.588088 0.2142458 0.00316492 1.568838 0.176145 0.001304256 1.550437 0.1750485 -0.005035812 1.535111 0.1782727
112 0.07489631 1.503677 0.2043059 0.05653878 1.61896 0.2341793 -0.04676009 1.603077 0.2042921 0.03661054 1.552406 0.1798139 0.03601056 1.535825 0.1790126 0.02280684 1.530262 0.1720169 0.06781006 1.601691 0.2311413 -0.01760038 1.588003 0.2141361 0.004038439 1.568927 0.1759802 0.001919908 1.550629 0.1747141 -0.004857156 1.535393 0.1777509
113 0.07466711 1.503201 0.2045984 0.05670976 1.618443 0.2348827 -0.04650808 1.603217 0.2043436 0.03708939 1.552147 0.1806279 0.03634505 1.535636 0.1794201 0.02297802 1.530412 0.1718697 0.06792423 1.601109 0.2319996 -0.01748661 1.587903 0.2142268 0.004756305 1.568962 0.1760548 0.002421872 1.55077 0.174629 -0.004683116 1.535626 0.1774919
114 0.07450338 1.502796 0.2046613 0.05676354 1.618142 0.2348492 -0.0462533 1.603332 0.2040401 0.03749644 1.551756 0.1813905 0.03657184 1.535298 0.1798966 0.02312786 1.530292 0.171835 0.06795802 1.600752 0.2322234 -0.01739775 1.587795 0.2140805 0.005423779 1.568884 0.176043 0.002894315 1.550799 0.1744855 -0.004504607 1.535776 0.1772065
115 0.07436854 1.502471 0.2046312 0.05667023 1.618027 0.234322 -0.04605741 1.603372 0.2033273 0.03781765 1.551284 0.182157 0.03673853 1.534847 0.1804248 0.02331466 1.529927 0.1718871 0.0678875 1.600599 0.2320452 -0.01739182 1.587663 0.2136775 0.006040954 1.568704 0.1759526 0.003344702 1.550725 0.1742915 -0.004277194 1.535842 0.1768898
116 0.07426601 1.502206 0.2045826 0.05653559 1.618126 0.2333713 -0.04592798 1.603315 0.2020218 0.03802407 1.550693 0.1827751 0.03677788 1.534269 0.1808599 0.02342409 1.529345 0.1719129 0.06774276 1.600641 0.231478 -0.01749353 1.587483 0.212867 0.006537252 1.568327 0.1756838 0.003684119 1.550455 0.1739807 -0.004104799 1.5357 0.1765162
117 0.07418065 1.502017 0.2045031 0.05634558 1.618326 0.2323678 -0.04596107 1.60309 0.20062 0.03806349 1.5501 0.183096 0.03671614 1.533665 0.1810477 0.02347445 1.528637 0.1718543 0.06747576 1.600763 0.230724 -0.0177186 1.587225 0.211962 0.006785776 1.567819 0.1753009 0.003834212 1.550032 0.1736159 -0.00399697 1.535369 0.1761427
118 0.07404692 1.501992 0.2043277 0.05591011 1.618881 0.2307997 -0.04619955 1.602722 0.1987571 0.03779512 1.549533 0.1831952 0.03645046 1.533 0.1811217 0.02334962 1.527717 0.1718133 0.0668842 1.601198 0.2293974 -0.01817985 1.586927 0.2107675 0.006683709 1.567187 0.1747649 0.003767624 1.549441 0.1731634 -0.004020941 1.534867 0.1757506
119 0.07389604 1.502163 0.204132 0.05543263 1.619586 0.2293422 -0.04661158 1.602427 0.1972936 0.03742337 1.549111 0.1832685 0.03610927 1.532492 0.1812837 0.02320547 1.526916 0.171865 0.06623618 1.601787 0.228107 -0.01876104 1.586713 0.2097986 0.006432115 1.566645 0.1742661 0.003612689 1.54891 0.1727533 -0.004097907 1.534398 0.1753976
120 0.07374482 1.50242 0.2039475 0.05502335 1.620341 0.2279553 -0.04719234 1.602126 0.1963156 0.0369654 1.548754 0.1834272 0.0357662 1.532067 0.1815009 0.0230478 1.52623 0.171934 0.06563864 1.602425 0.2268722 -0.01942888 1.586497 0.2090978 0.006116161 1.566167 0.1738013 0.003430658 1.548425 0.1723632 -0.004205255 1.533957 0.1750486
121 0.07356739 1.502748 0.2038923 0.05450459 1.621145 0.2264322 -0.04805819 1.601719 0.1958263 0.03637161 1.548446 0.1836663 0.03529937 1.531692 0.1817389 0.02280959 1.525598 0.1720193 0.06496941 1.603136 0.2256006 -0.02024236 1.586217 0.2085996 0.005684739 1.565679 0.1733511 0.003118241 1.547938 0.172001 -0.004406456 1.533476 0.1747464
122 0.07338841 1.503064 0.2040182 0.05387175 1.621954 0.2247596 -0.04917538 1.601173 0.1959876 0.03566518 1.548112 0.1839371 0.03470979 1.531294 0.1819233 0.02253828 1.524887 0.1721735 0.0641951 1.60386 0.2242566 -0.02116082 1.585819 0.2084358 0.005108651 1.565116 0.1729904 0.002623473 1.547391 0.1717518 -0.004647377 1.53288 0.1745871
123 0.07322527 1.503357 0.2042025 0.05310328 1.622713 0.2230411 -0.05048677 1.600384 0.1966417 0.03496069 1.5477 0.1842895 0.03404339 1.530826 0.1821156 0.02227312 1.523995 0.1724722 0.06330983 1.604554 0.222872 -0.02214561 1.585259 0.2085682 0.004466781 1.564427 0.1728022 0.001986367 1.546756 0.1716995 -0.004863045 1.53217 0.1746529
124 0.07308344 1.503508 0.2042749 0.05237275 1.623208 0.2216918 -0.05163089 1.599522 0.1974953 0.03445895 1.547274 0.1846053 0.0334495 1.530368 0.1823064 0.02201737 1.52316 0.1727979 0.06248856 1.605001 0.221721 -0.02296634 1.584645 0.2089381 0.003917388 1.563759 0.1728399 0.001382456 1.546162 0.1718439 -0.005059803 1.53152 0.174893
125 0.07298776 1.503643 0.2042764 0.05147423 1.623607 0.2202927 -0.05270685 1.598625 0.1986843 0.03410309 1.546866 0.1849398 0.03288326 1.529967 0.1826311 0.02182061 1.522371 0.1732726 0.06159529 1.605403 0.2204707 -0.02365337 1.584076 0.2095829 0.003451872 1.563176 0.1731043 0.0008140268 1.545658 0.1722183 -0.005190987 1.530978 0.1753477
126 0.0728557 1.503652 0.2041109 0.05029724 1.623658 0.2190296 -0.05359972 1.597751 0.1998925 0.03375326 1.546476 0.1851573 0.03234642 1.529595 0.1828891 0.0215184 1.521657 0.1737914 0.0606172 1.605565 0.2193222 -0.02419764 1.58353 0.2103226 0.002923904 1.562696 0.1735031 0.0002117292 1.545231 0.1727042 -0.005410611 1.530525 0.1758886
127 0.07274029 1.503651 0.2038069 0.0490174 1.623508 0.2179996 -0.05426558 1.596952 0.2008449 0.03348076 1.546201 0.185217 0.03188311 1.529334 0.1831091 0.02126197 1.521064 0.1743202 0.05967454 1.605611 0.2183527 -0.0245741 1.583079 0.2109696 0.002402394 1.562339 0.1739271 -0.0003327622 1.544898 0.1732181 -0.005597475 1.530167 0.1764437
128 0.07269663 1.503665 0.2034696 0.04786589 1.623276 0.217269 -0.05468194 1.596273 0.2015707 0.03324436 1.545976 0.1852243 0.0315291 1.529123 0.1833431 0.02111076 1.520573 0.1748809 0.05887441 1.60559 0.2176059 -0.02476997 1.582728 0.2115311 0.001931335 1.562053 0.1743656 -0.0007722406 1.544604 0.1737624 -0.00570902 1.529839 0.1770332
129 0.07274331 1.503759 0.2031262 0.04676482 1.623093 0.2164666 -0.05491772 1.595737 0.2021275 0.03300736 1.545804 0.1852659 0.03126006 1.528965 0.1836487 0.02106157 1.520167 0.17556 0.05812446 1.605627 0.2168456 -0.02484536 1.582479 0.2120323 0.001482399 1.561826 0.1748485 -0.001131787 1.54434 0.174362 -0.005748501 1.529525 0.1776796
130 0.07280264 1.503897 0.2027925 0.04536185 1.622993 0.2151468 -0.05518674 1.595165 0.2025585 0.03252587 1.54564 0.185146 0.03079096 1.52877 0.1840038 0.02090399 1.519683 0.1763742 0.05707767 1.605762 0.2156486 -0.02499942 1.582187 0.2125115 0.0007028711 1.56155 0.1753888 -0.001669353 1.543976 0.1750375 -0.005895503 1.529082 0.1784217
131 0.07280266 1.504043 0.2023785 0.0438443 1.622933 0.2137179 -0.05546883 1.594699 0.2030682 0.03182124 1.545576 0.1850354 0.03013921 1.528674 0.1842908 0.02056805 1.519372 0.1770786 0.05586864 1.605919 0.2143787 -0.0252297 1.581896 0.2130831 -0.0002729158 1.56135 0.1760018 -0.002393108 1.54369 0.1757211 -0.00623809 1.528689 0.1791417
132 0.07272084 1.504188 0.201843 0.04257396 1.622846 0.2127258 -0.05578749 1.594296 0.2036809 0.03112777 1.545495 0.1850591 0.02951179 1.528586 0.184556 0.02016098 1.519136 0.1776855 0.05479763 1.605976 0.213475 -0.02550788 1.58161 0.2137012 -0.001168509 1.561162 0.1766151 -0.003114819 1.543442 0.1763693 -0.006661853 1.528351 0.1798074
133 0.07247266 1.504387 0.2013685 0.04069107 1.622924 0.2109276 -0.05626343 1.593852 0.2045128 0.02995154 1.545518 0.1850783 0.0285415 1.528602 0.1847808 0.0194565 1.519075 0.1783485 0.05308254 1.606187 0.211842 -0.02594121 1.581302 0.2145221 -0.002540918 1.561071 0.1774643 -0.0042304 1.543263 0.1772201 -0.007399306 1.52803 0.1806602
134 0.07241014 1.504803 0.2009792 0.03933257 1.623311 0.2094662 -0.05657913 1.593677 0.2054516 0.02887646 1.545637 0.1851919 0.02770972 1.52871 0.1851337 0.01879424 1.519218 0.1789795 0.05167647 1.606549 0.2104513 -0.02624496 1.581175 0.2154107 -0.003806357 1.561068 0.1784455 -0.005217711 1.543158 0.1782042 -0.008102798 1.527802 0.1816896
135 0.07245236 1.505275 0.2005595 0.0383454 1.623716 0.2083588 -0.0567062 1.593581 0.2062318 0.0280142 1.545769 0.1854513 0.02706939 1.528831 0.1855447 0.0182407 1.519435 0.1795951 0.05060319 1.606901 0.2093768 -0.02640995 1.581099 0.2162393 -0.004814073 1.561094 0.1794565 -0.006002177 1.543108 0.179195 -0.008682461 1.527645 0.1827128
136 0.07281161 1.505812 0.2001168 0.03749601 1.624254 0.20691 -0.05670691 1.593364 0.2072559 0.02744204 1.545685 0.1856905 0.02661224 1.528826 0.1860162 0.01794408 1.519447 0.1802433 0.04952399 1.607277 0.2078276 -0.0263529 1.580963 0.2170892 -0.005557246 1.56085 0.1804153 -0.006610468 1.542826 0.180231 -0.009020514 1.527276 0.1838519
137 0.07334186 1.506304 0.1997088 0.03670572 1.62471 0.2049453 -0.05676223 1.592824 0.2085778 0.02693841 1.545411 0.185923 0.02632211 1.528627 0.186484 0.01770581 1.519202 0.1810582 0.04844286 1.60754 0.2057998 -0.0262249 1.580641 0.2179791 -0.006276739 1.560277 0.1813301 -0.007151808 1.542216 0.1813217 -0.009284875 1.526605 0.1851417
138 0.07383955 1.50684 0.1991498 0.03587484 1.625098 0.2026452 -0.05694856 1.592014 0.2101951 0.02628933 1.544954 0.186275 0.02599726 1.528268 0.1871318 0.01735228 1.518812 0.1820534 0.04734128 1.607764 0.2034819 -0.02616405 1.58017 0.2190281 -0.007169146 1.559443 0.1823813 -0.00777565 1.541331 0.1826079 -0.009668208 1.525693 0.18672
139 0.07405024 1.507363 0.1985596 0.034791 1.625381 0.199933 -0.05730559 1.591263 0.2116412 0.02547484 1.544337 0.1867583 0.0254654 1.52781 0.1879211 0.01674732 1.518344 0.1830896 0.04607552 1.607953 0.2008822 -0.0263088 1.579777 0.2199965 -0.008182916 1.558481 0.1833974 -0.008562325 1.540346 0.1839309 -0.01027991 1.524728 0.1884159
140 0.07401801 1.50794 0.1979464 0.03338953 1.625522 0.1970533 -0.05768093 1.590752 0.2128375 0.02473642 1.543776 0.1872889 0.02483268 1.527473 0.1887815 0.01596277 1.518063 0.1841514 0.04468447 1.608128 0.1982146 -0.02651038 1.579646 0.2208822 -0.009142589 1.557627 0.1844039 -0.009411824 1.539519 0.1853082 -0.01104201 1.523951 0.1902175
141 0.07389562 1.508559 0.1971687 0.03210559 1.625643 0.1945452 -0.05791898 1.590462 0.2141785 0.02411754 1.543393 0.1878453 0.02418801 1.527328 0.1896605 0.01513889 1.517935 0.1853417 0.04347161 1.608315 0.1958311 -0.02655111 1.579751 0.2218583 -0.009992375 1.556974 0.1855273 -0.01024411 1.538926 0.1868387 -0.01177627 1.523423 0.1921789
142 0.0738493 1.509202 0.19606 0.03093268 1.625855 0.1920921 -0.05797677 1.590132 0.2158743 0.02348649 1.543231 0.1881802 0.02344181 1.527375 0.1903013 0.01444749 1.517739 0.186623 0.04236912 1.608578 0.1933304 -0.02633547 1.579918 0.2229857 -0.01092826 1.556385 0.1868238 -0.01118561 1.538436 0.1886023 -0.01228261 1.522998 0.1943056
143 0.07393561 1.509818 0.1948821 0.02979343 1.626051 0.1897797 -0.05805746 1.589499 0.2173415 0.02296693 1.542988 0.1883317 0.02285267 1.527288 0.1907113 0.01407272 1.517328 0.1879149 0.0412002 1.608749 0.1909089 -0.02612745 1.579847 0.2238716 -0.01177556 1.555593 0.1880053 -0.01198388 1.537766 0.1902715 -0.01247234 1.522387 0.1962523
144 0.07396404 1.510523 0.1935168 0.02877133 1.626397 0.1870912 -0.0580953 1.588888 0.2188461 0.0222495 1.542856 0.1885018 0.02222705 1.527291 0.1911152 0.01376159 1.517007 0.1893175 0.04005515 1.609021 0.1882212 -0.02590643 1.579781 0.2247868 -0.01276785 1.554858 0.1894123 -0.01280999 1.537127 0.1921255 -0.01258034 1.521797 0.1983013
145 0.07379772 1.511131 0.1921381 0.02771437 1.626636 0.1838014 -0.05822357 1.588141 0.2208924 0.02143277 1.54256 0.1890268 0.02147543 1.527141 0.1918652 0.01343114 1.516513 0.1908336 0.03877674 1.609138 0.1851289 -0.02576022 1.57957 0.2260237 -0.01378445 1.553898 0.1910732 -0.01366684 1.5363 0.1942715 -0.01265921 1.521062 0.2005941
146 0.07347779 1.511644 0.1909007 0.02668635 1.62681 0.1801529 -0.05842727 1.587281 0.2238655 0.02068326 1.542054 0.1898359 0.02067249 1.526812 0.1929733 0.01307083 1.51584 0.1925598 0.03733448 1.609085 0.1818116 -0.02565616 1.579234 0.2277765 -0.01471815 1.552641 0.1929731 -0.01448452 1.535241 0.1967574 -0.01268838 1.520154 0.2032333
147 0.0729868 1.512285 0.1895742 0.02596075 1.627269 0.1770397 -0.05863537 1.58656 0.2273124 0.02009939 1.541676 0.1906018 0.01996797 1.526626 0.1940985 0.01268378 1.515422 0.1940991 0.03596179 1.609192 0.1789976 -0.02558964 1.578943 0.229746 -0.0154765 1.551561 0.1948295 -0.01514645 1.53436 0.199128 -0.01271182 1.519424 0.2057206
148 0.07218787 1.513005 0.1880316 0.02526174 1.628014 0.1742849 -0.05890453 1.585996 0.230477 0.01939488 1.541497 0.190984 0.01918544 1.526664 0.1948502 0.01210377 1.515381 0.1950065 0.03450951 1.609551 0.1764137 -0.02566986 1.578778 0.2314252 -0.01627892 1.550743 0.1963435 -0.015832 1.533726 0.2010748 -0.01287985 1.518923 0.207743
149 0.0713767 1.51359 0.1866023 0.02446352 1.628597 0.1723832 -0.05908144 1.585494 0.2330787 0.0188167 1.541337 0.1912564 0.01866548 1.526711 0.1954032 0.01163662 1.515366 0.1957234 0.03310577 1.609835 0.174504 -0.0257311 1.578653 0.2326954 -0.01689958 1.550028 0.1975882 -0.01628486 1.533172 0.2026921 -0.01293625 1.518528 0.2094707
150 0.07071534 1.513688 0.1857654 0.02353521 1.628506 0.1711241 -0.05908256 1.584527 0.2356068 0.01849263 1.540949 0.1918067 0.0184177 1.526478 0.1961704 0.01132416 1.51509 0.1968523 0.03190648 1.609615 0.1732569 -0.02564989 1.578165 0.234075 -0.0172457 1.549104 0.1989945 -0.01648029 1.5324 0.2044379 -0.01286415 1.517915 0.211378
151 0.07005354 1.513485 0.1850079 0.02265047 1.628024 0.1693939 -0.05872074 1.58335 0.2387976 0.01825569 1.540309 0.192489 0.01837076 1.526053 0.197241 0.01132778 1.514439 0.1985889 0.03057014 1.608953 0.1717088 -0.02528021 1.57753 0.2356944 -0.01744694 1.547907 0.2007409 -0.0164118 1.531387 0.2065899 -0.01245022 1.517168 0.2137338
152 0.06931218 1.513248 0.1838292 0.02142989 1.627289 0.1665241 -0.05813627 1.58206 0.2419277 0.01793984 1.539395 0.1929617 0.01833028 1.52549 0.1981502 0.01182017 1.513634 0.2008543 0.02864431 1.607986 0.1693173 -0.02474769 1.576887 0.2371022 -0.0175835 1.546401 0.2027545 -0.01615115 1.530164 0.2092227 -0.01151105 1.516306 0.2164825
153 0.06854023 1.512962 0.1819256 0.02046755 1.626885 0.1649249 -0.0572018 1.580928 0.2441733 0.01777305 1.53843 0.1926421 0.01838245 1.524957 0.1982109 0.01255747 1.512968 0.2022901 0.02703484 1.60735 0.1679114 -0.02386119 1.576364 0.2380202 -0.01739409 1.545225 0.2044868 -0.01560081 1.529262 0.2115106 -0.01023204 1.515719 0.2186773
154 0.06773365 1.512462 0.1796966 0.01857182 1.626314 0.1652986 -0.05579495 1.579061 0.2468092 0.01713843 1.53729 0.1919778 0.01817587 1.524255 0.1978114 0.0135228 1.512432 0.2034514 0.0250237 1.606643 0.1678424 -0.02254422 1.575511 0.2391083 -0.01716164 1.544085 0.2066191 -0.01479768 1.528406 0.2141436 -0.008517591 1.515143 0.2209443
155 0.06738066 1.512828 0.1775824 0.01639228 1.626003 0.1641323 -0.05594139 1.576047 0.2477425 0.01653984 1.535811 0.1914738 0.01837145 1.523308 0.1974129 0.01501093 1.511841 0.2037326 0.02231091 1.606075 0.1663619 -0.02280082 1.573784 0.2386749 -0.01706667 1.542029 0.207979 -0.01366392 1.526763 0.2159498 -0.00628377 1.513972 0.2224762
156 0.06707551 1.513457 0.1758812 0.0138093 1.625803 0.1637519 -0.05629228 1.573631 0.2481911 0.0159859 1.534599 0.1909437 0.01869795 1.522679 0.1968825 0.01641337 1.511227 0.2039545 0.02090202 1.606167 0.1655133 -0.02325946 1.572524 0.2380815 -0.0169202 1.54049 0.2091389 -0.0124536 1.525652 0.2173797 -0.004157102 1.513444 0.223693
157 0.06688864 1.513636 0.1750415 0.01267731 1.625592 0.1648951 -0.05647277 1.57222 0.2482363 0.01565402 1.533648 0.1908721 0.01900603 1.522222 0.1967326 0.01736794 1.510776 0.2043162 0.02020774 1.606018 0.1654017 -0.02348322 1.571824 0.2376074 -0.01670015 1.539604 0.2101278 -0.01148814 1.525082 0.2184946 -0.002652078 1.513306 0.2246999
158 0.06670383 1.513326 0.1745852 0.01141396 1.624656 0.1666082 -0.05654966 1.570942 0.2481821 0.01542592 1.532578 0.1911929 0.01926243 1.521553 0.1969643 0.01810582 1.510056 0.2049149 0.01976606 1.605416 0.1658222 -0.02361154 1.571036 0.237191 -0.01645553 1.538701 0.21119 -0.01065209 1.52447 0.2196666 -0.001399466 1.513063 0.2257947
159 0.06656909 1.512737 0.1740763 0.009810158 1.623146 0.1683127 -0.05626396 1.569689 0.2484342 0.01535763 1.531507 0.1915505 0.01954184 1.520728 0.1971609 0.01869077 1.509089 0.2053793 0.01909738 1.604413 0.1664328 -0.02347187 1.570098 0.2369511 -0.0160844 1.53768 0.2121659 -0.009793828 1.523708 0.2207222 -0.0002106583 1.512627 0.226798
160 0.06651441 1.512257 0.1733261 0.008258708 1.621689 0.1695733 -0.05576706 1.56862 0.2488754 0.01531628 1.530646 0.1916635 0.01975406 1.519976 0.1970083 0.01909934 1.508145 0.2054627 0.01821428 1.603399 0.166892 -0.02320956 1.569183 0.2367634 -0.01573908 1.536701 0.2127892 -0.009027825 1.522916 0.2213679 0.0008217449 1.512112 0.227406
161 0.06650519 1.512122 0.1726661 0.006235826 1.620215 0.1708223 -0.05531246 1.567765 0.2494581 0.01512199 1.530187 0.1918937 0.01985925 1.51952 0.1968788 0.01945918 1.507386 0.2056655 0.01688325 1.602461 0.1673744 -0.0230113 1.568517 0.2367654 -0.01556353 1.53592 0.2134385 -0.008388422 1.52228 0.2219625 0.001712653 1.511769 0.2279749
162 0.06652761 1.512356 0.1721086 0.003654393 1.618842 0.1722484 -0.05462148 1.567588 0.25042 0.01480139 1.530271 0.1923066 0.01986829 1.519524 0.1968707 0.01978474 1.507112 0.2060553 0.01514845 1.601821 0.1679972 -0.02257772 1.56841 0.2371897 -0.01548475 1.535715 0.2142315 -0.007872275 1.522086 0.2225475 0.002417207 1.511777 0.2284911
163 0.06648475 1.512701 0.1716806 0.001578829 1.617891 0.1733988 -0.05408549 1.567657 0.2511095 0.01443149 1.530616 0.192761 0.01979087 1.519756 0.1969031 0.01998606 1.507157 0.2064619 0.01370045 1.601507 0.1684978 -0.02219933 1.568555 0.237615 -0.01552191 1.535831 0.2149512 -0.007557797 1.522135 0.2229998 0.002843865 1.511945 0.2288936
164 0.06650515 1.513051 0.171258 0.000260866 1.617393 0.1738906 -0.05349407 1.567816 0.2517542 0.0141463 1.530957 0.19317 0.01979821 1.52 0.1969467 0.02024136 1.507302 0.2068418 0.01269969 1.601381 0.1686173 -0.02174475 1.568774 0.238033 -0.01548798 1.535993 0.2156092 -0.007206114 1.522222 0.2233842 0.003284425 1.512126 0.229255
165 0.06658099 1.513352 0.1708408 -0.0004385049 1.617258 0.1736581 -0.05298157 1.568143 0.2521218 0.01390756 1.531262 0.1934412 0.01982396 1.520258 0.1969887 0.02041126 1.507527 0.207061 0.01209934 1.601368 0.1682908 -0.02132569 1.569116 0.2382526 -0.01546489 1.536201 0.2160288 -0.006930264 1.522359 0.2235889 0.003629506 1.512332 0.2294665
166 0.06665281 1.513579 0.170579 -0.0007793121 1.617355 0.1731627 -0.05252355 1.568479 0.252509 0.01371444 1.5315 0.1937154 0.01984714 1.520471 0.1970923 0.02049367 1.507755 0.2072549 0.01172864 1.601412 0.1679159 -0.02093611 1.569463 0.2385236 -0.015443 1.536422 0.2164131 -0.006720105 1.522508 0.2237906 0.00387756 1.512519 0.2296938
167 0.06665537 1.51358 0.1705846 -0.001040449 1.617397 0.1724785 -0.05194798 1.568949 0.2532509 0.01355272 1.531524 0.1941738 0.02000497 1.520647 0.1974389 0.02060042 1.508004 0.2077345 0.01132103 1.601244 0.167548 -0.0204701 1.569882 0.2390136 -0.01537874 1.536651 0.2170091 -0.006437638 1.522664 0.2241616 0.004131319 1.512734 0.2302207
168 0.06659909 1.513421 0.1707237 -0.0008263178 1.617624 0.1717742 -0.05113424 1.569703 0.2540794 0.01347799 1.531431 0.1945923 0.02023276 1.520854 0.1978595 0.02075769 1.50837 0.2084501 0.01121306 1.601098 0.1673172 -0.0197284 1.570557 0.2396741 -0.01515023 1.537095 0.217793 -0.006037824 1.523007 0.2247062 0.004441653 1.513105 0.2309673
169 0.06659605 1.513177 0.1708797 -7.621638E-06 1.618091 0.1709756 -0.05011756 1.570729 0.2547095 0.01357329 1.531436 0.1949083 0.02052703 1.521129 0.1982707 0.02093587 1.508862 0.2091254 0.01156617 1.601094 0.167114 -0.01872735 1.57144 0.2402669 -0.01472983 1.537776 0.2185237 -0.005561741 1.523564 0.225242 0.004785634 1.513623 0.2316935
170 0.06680021 1.512954 0.1710005 0.001443376 1.618801 0.169848 -0.0488232 1.571764 0.2551284 0.01395329 1.531518 0.1951299 0.02108379 1.521484 0.1986125 0.02146309 1.509453 0.209821 0.01240313 1.601258 0.1667138 -0.01739159 1.57243 0.2407708 -0.01394237 1.538626 0.2192684 -0.004751014 1.5243 0.2258101 0.005463215 1.514317 0.2324252
171 0.06702419 1.512878 0.1709346 0.002854736 1.619571 0.168451 -0.04746462 1.572829 0.2555189 0.01429552 1.531707 0.1952797 0.02157527 1.521891 0.1988961 0.02207057 1.510156 0.2103909 0.01327335 1.601588 0.1659865 -0.01601009 1.573485 0.2411988 -0.01310386 1.53952 0.2199791 -0.003877002 1.52511 0.2263922 0.006293525 1.515081 0.2330547
172 0.06688719 1.51294 0.1706185 0.003633202 1.6202 0.1669262 -0.04626282 1.574236 0.2562198 0.01405944 1.531939 0.1952651 0.0213775 1.522261 0.1990489 0.02211988 1.510911 0.2107022 0.0135903 1.601893 0.1650441 -0.01495289 1.574614 0.2415953 -0.01275454 1.540359 0.2205633 -0.003515552 1.525883 0.2269261 0.006698993 1.515773 0.2335204
173 0.06666904 1.512901 0.1704946 0.00429009 1.620584 0.1656318 -0.04528004 1.575582 0.2568372 0.01359814 1.53216 0.1954649 0.02081119 1.522465 0.1994875 0.02189566 1.511559 0.2113433 0.01379248 1.602002 0.1643662 -0.01413274 1.575603 0.2419702 -0.01266836 1.541076 0.2212487 -0.003474941 1.526549 0.2276896 0.006831684 1.516333 0.2341816
174 0.06633513 1.512721 0.170568 0.004973319 1.62082 0.1645 -0.04454485 1.576801 0.2573688 0.01302343 1.53235 0.1959767 0.0199844 1.522558 0.2002733 0.02153214 1.512204 0.2124184 0.0139844 1.601985 0.1638978 -0.01353715 1.576427 0.2423653 -0.01279539 1.541684 0.2220449 -0.003703477 1.527112 0.2286793 0.006725974 1.516729 0.2350256
175 0.06599831 1.512371 0.1709688 0.005851755 1.620889 0.163525 -0.04389292 1.577984 0.2581072 0.01250878 1.532455 0.1968404 0.01924546 1.522539 0.2012813 0.02134322 1.512732 0.2139288 0.01435806 1.601832 0.1635697 -0.01304612 1.577117 0.2429249 -0.01297943 1.542132 0.2230191 -0.003968552 1.527508 0.2298245 0.006557497 1.516964 0.2360433
176 0.06540176 1.511693 0.1718305 0.006683318 1.620581 0.1622976 -0.04350621 1.579061 0.2591744 0.01186931 1.532289 0.1982185 0.0183262 1.522292 0.2028135 0.02108515 1.513056 0.2161196 0.01461268 1.601313 0.1631592 -0.01285277 1.577618 0.2437702 -0.01339036 1.542283 0.2243578 -0.004456681 1.527662 0.2314381 0.006184271 1.516977 0.2375242
177 0.064507 1.510818 0.1730484 0.007259821 1.619941 0.1609846 -0.04367603 1.579438 0.2603002 0.01103508 1.531754 0.1999978 0.0169814 1.521881 0.2051554 0.02042148 1.513065 0.2188251 0.01451753 1.600495 0.162866 -0.0131162 1.577689 0.2449279 -0.0140907 1.54203 0.2260369 -0.005307896 1.527527 0.2337286 0.005540832 1.516678 0.2395632
178 0.06336278 1.508883 0.1749301 0.009383106 1.61887 0.160514 -0.04292009 1.581628 0.2615373 0.009652166 1.530705 0.2023556 0.01444321 1.521522 0.2100125 0.0186952 1.512611 0.2218959 0.01541369 1.599205 0.1635865 -0.01250012 1.578601 0.2465522 -0.01515367 1.54213 0.2281471 -0.007094502 1.527849 0.2375157 0.004082499 1.516063 0.2420858
179 0.06188675 1.506909 0.1756418 0.01052313 1.617574 0.1609022 -0.04161472 1.583647 0.2627089 0.006523984 1.531072 0.2066236 0.0108763 1.522117 0.2166309 0.01580078 1.511929 0.2246013 0.01546692 1.597834 0.1648429 -0.01166791 1.578996 0.2478431 -0.01729331 1.543008 0.2309334 -0.009508098 1.528258 0.2414944 0.001920718 1.514864 0.2441843
180 0.06087677 1.505562 0.1755418 0.009494334 1.616026 0.1615247 -0.03989512 1.584608 0.2645495 0.00144002 1.532444 0.211485 0.006708408 1.522543 0.2226771 0.0124535 1.511089 0.2275255 0.0141574 1.59638 0.1658843 -0.0108701 1.578573 0.2490108 -0.01949329 1.544062 0.2346508 -0.01137091 1.52866 0.2457275 0.0001623111 1.513471 0.246652
181 0.0607424 1.505217 0.1755969 0.007346734 1.614587 0.1621203 -0.03892486 1.584679 0.2665453 -0.005282583 1.532158 0.2142804 0.002930003 1.521612 0.2266957 0.009184189 1.509805 0.2314252 0.01219803 1.595103 0.1666751 -0.011038 1.577452 0.2499175 -0.021156 1.544735 0.2389761 -0.01218041 1.528765 0.2503203 -0.000358922 1.512081 0.2506975
182 0.06030484 1.505231 0.1756494 0.004830516 1.613396 0.1627912 -0.03882684 1.584664 0.2678989 -0.0142041 1.532649 0.2194376 -0.001588013 1.521013 0.2300679 0.004100412 1.5085 0.2362251 0.00998254 1.594064 0.1672983 -0.01213639 1.576156 0.2504695 -0.02205686 1.546891 0.2470374 -0.0122476 1.528939 0.2557477 0.0005989476 1.51091 0.2571895
183 0.05970719 1.505672 0.1755269 0.002175058 1.612671 0.1639212 -0.03899807 1.585427 0.268582 -0.02212289 1.535794 0.2290342 -0.007864835 1.520452 0.2332132 -0.002633748 1.50716 0.2427327 0.007972484 1.593464 0.1678078 -0.01357914 1.575394 0.2505716 -0.02106741 1.550345 0.2560157 -0.01177741 1.529278 0.2605884 0.003091115 1.509873 0.2635547
184 0.0590715 1.506429 0.174893 -0.00107139 1.612365 0.1655129 -0.0386117 1.588107 0.2689045 -0.03356081 1.543761 0.2446337 -0.01920258 1.520672 0.2390179 -0.009999863 1.505202 0.2537762 0.006004874 1.593376 0.1678963 -0.01528165 1.575652 0.2497166 -0.01608373 1.555624 0.2642989 -0.01038363 1.530383 0.2647642 0.006399787 1.508681 0.2672834
185 0.05821405 1.508126 0.1742753 -0.004576626 1.612662 0.1659025 -0.04038645 1.5898 0.2688868 -0.04239966 1.550052 0.2633414 -0.02486521 1.522019 0.2492328 -0.01269073 1.503278 0.2643841 0.00317287 1.593817 0.1674355 -0.0185391 1.576141 0.2483618 -0.01394702 1.557953 0.2674955 -0.007339293 1.532152 0.269649 0.008923345 1.5079 0.2691376
186 0.05749665 1.509214 0.1739442 -0.007492103 1.612576 0.1660868 -0.04192454 1.592497 0.2677249 -0.04441522 1.556777 0.2733439 -0.02509309 1.525029 0.2574188 -0.01276178 1.504145 0.2727806 0.001295535 1.594063 0.1666654 -0.02064016 1.577975 0.2465532 -0.01371846 1.56048 0.2673722 -0.003119484 1.535863 0.2727416 0.01027348 1.509836 0.2698375
187 0.05721018 1.509923 0.1735451 -0.009090431 1.612472 0.1652539 -0.04329411 1.595408 0.2653059 -0.04610932 1.564271 0.2812404 -0.02620922 1.529462 0.2660083 -0.01153284 1.505954 0.2813697 0.0001645684 1.594085 0.1655091 -0.02183189 1.580353 0.2440943 -0.01447761 1.562804 0.2650943 -0.0002136444 1.53965 0.273121 0.01100063 1.51234 0.2695763
188 0.05710764 1.50999 0.1736366 -0.007821157 1.613277 0.1640525 -0.0436001 1.597994 0.2634212 -0.043619 1.573056 0.2886577 -0.02916883 1.535085 0.2775378 -0.009175714 1.508367 0.2875124 0.000795812 1.594528 0.1649366 -0.02179201 1.582575 0.2424336 -0.01538273 1.564599 0.2631154 -0.0009118918 1.541686 0.2720729 0.01087132 1.514228 0.26926
189 0.05713372 1.509543 0.1741419 -0.00570883 1.614105 0.1632154 -0.04351137 1.599565 0.2624203 -0.04089477 1.577511 0.2903147 -0.0328725 1.54071 0.2902512 -0.007239757 1.51038 0.291779 0.002031102 1.594965 0.164951 -0.02129786 1.583967 0.2417164 -0.01561452 1.565935 0.2622734 -0.003163085 1.542226 0.2710184 0.01003296 1.515135 0.2691036
190 0.05692595 1.508893 0.1747216 -0.004549828 1.614303 0.1624687 -0.04403194 1.600285 0.2614751 -0.04084081 1.579168 0.289577 -0.02830659 1.548222 0.3027548 -0.006415898 1.511551 0.2938875 0.002771588 1.595029 0.1649715 -0.02107824 1.584767 0.2413073 -0.01562795 1.566986 0.2618684 -0.005024247 1.542477 0.2704238 0.008860432 1.515489 0.2690859
191 0.05637805 1.507977 0.1751871 -0.005037853 1.613595 0.1618178 -0.04452275 1.601125 0.2603752 -0.04064075 1.580453 0.2893116 -0.02712166 1.549622 0.3034979 -0.006808194 1.511968 0.2944694 0.002300776 1.594361 0.1648047 -0.02139518 1.585078 0.240722 -0.01594727 1.567462 0.26154 -0.006029827 1.542519 0.2701086 0.007592131 1.515415 0.269017
192 0.05646738 1.506814 0.1752559 -0.00674087 1.611551 0.160831 -0.04539395 1.601316 0.2582123 -0.04114901 1.580781 0.288096 -0.02714805 1.549874 0.3024945 -0.006661866 1.51188 0.2944633 0.0009305528 1.592488 0.1642094 -0.02219219 1.584432 0.2392829 -0.01642474 1.56712 0.260637 -0.006348982 1.542127 0.2693624 0.006930311 1.514805 0.2686036
193 0.05760464 1.505667 0.1759209 -0.01005964 1.607938 0.1606857 -0.04758103 1.598897 0.2562031 -0.04240759 1.57875 0.287033 -0.02669801 1.549291 0.3020504 -0.005220611 1.511847 0.2949812 -0.001305877 1.589338 0.1641199 -0.02285816 1.582832 0.2385129 -0.01586707 1.566238 0.2607341 -0.004572174 1.541958 0.2698987 0.008863552 1.514695 0.2695642
194 0.05920605 1.504881 0.1768407 -0.01369815 1.603937 0.1618751 -0.0496091 1.593964 0.2559823 -0.04383227 1.574831 0.2861612 -0.02627333 1.547723 0.3017129 -0.002587348 1.512398 0.2958575 -0.00351132 1.58601 0.1649152 -0.02262469 1.580685 0.2394699 -0.01445798 1.565072 0.2619243 -0.001153794 1.542151 0.2716086 0.01323109 1.515502 0.2717204
195 0.05974963 1.504531 0.1774323 -0.01601833 1.601474 0.1633083 -0.04995912 1.589969 0.2573642 -0.04354683 1.571985 0.2863739 -0.02429856 1.546804 0.3023531 0.001405344 1.513852 0.2974454 -0.005078122 1.583964 0.1660009 -0.02138327 1.579662 0.2416863 -0.01238278 1.564729 0.2637964 0.002654289 1.542972 0.2737996 0.01829449 1.517163 0.2742245
196 0.0582044 1.504355 0.1768669 -0.01677548 1.601558 0.1644147 -0.04765707 1.588188 0.2597018 -0.0404584 1.570806 0.287498 -0.02025499 1.546898 0.3029275 0.006401984 1.516715 0.2983764 -0.006153111 1.583936 0.1667338 -0.01881441 1.580726 0.2440538 -0.009341693 1.56558 0.2652707 0.006619846 1.544578 0.2749944 0.02312232 1.51986 0.2753485
197 0.05659097 1.503975 0.1764064 -0.01805267 1.600525 0.1649506 -0.04536342 1.586143 0.2592755 -0.04024722 1.567881 0.2838432 -0.02027797 1.546664 0.2990122 0.008315824 1.52088 0.2969963 -0.007532063 1.582963 0.1666742 -0.01650555 1.582709 0.2442147 -0.007763407 1.567081 0.2645606 0.008420103 1.547077 0.27424 0.02589242 1.52383 0.2753008
198 0.05492214 1.504857 0.175138 -0.02216488 1.598567 0.1629313 -0.04610115 1.587601 0.2555021 -0.0436339 1.566048 0.2753854 -0.02480755 1.54575 0.2900616 0.005445658 1.525383 0.2909283 -0.01100784 1.581517 0.1641672 -0.01756059 1.58537 0.2405764 -0.01019118 1.569714 0.2601521 0.006581374 1.550822 0.2707432 0.02536986 1.529521 0.27327
199 0.0531759 1.506134 0.1741365 -0.02689047 1.596334 0.1602308 -0.04849746 1.592212 0.2514676 -0.04753708 1.563745 0.2657979 -0.02985122 1.544856 0.279375 0.0002692422 1.529761 0.2821513 -0.01491458 1.579876 0.1606073 -0.02074314 1.587907 0.2353238 -0.01434274 1.572868 0.2545592 0.002690809 1.555293 0.2661191 0.02225396 1.536076 0.2703727
200 0.0523908 1.506621 0.1742672 -0.02928147 1.594445 0.1588034 -0.04863065 1.595644 0.2510094 -0.04675458 1.558301 0.2580691 -0.03081818 1.544388 0.2721086 -0.003522733 1.532032 0.2737621 -0.01694005 1.578252 0.1584449 -0.0230527 1.588448 0.2321572 -0.01672039 1.574437 0.2512931 0.0001446028 1.558473 0.2627192 0.01883621 1.540673 0.2677403
201 0.05243195 1.505982 0.1756819 -0.02937991 1.593288 0.1590604 -0.04798641 1.595806 0.252336 -0.04356011 1.552277 0.2529012 -0.02959115 1.543197 0.2680919 -0.004909199 1.531701 0.2676884 -0.01708632 1.577035 0.1585202 -0.02382015 1.587293 0.2319533 -0.01771856 1.573591 0.2505389 -0.0008458452 1.559361 0.2615671 0.01646818 1.542085 0.2664767
202 0.05264452 1.50463 0.1781288 -0.02875065 1.592161 0.1603243 -0.04749251 1.593702 0.2555302 -0.03881874 1.545338 0.2479471 -0.02479864 1.537899 0.2599284 -0.003784807 1.528696 0.2611043 -0.01652742 1.575789 0.1603976 -0.0238123 1.584721 0.234455 -0.01869629 1.570242 0.2514703 -0.002014302 1.557854 0.2621308 0.01428286 1.540675 0.2664895
203 0.05294097 1.503909 0.1798695 -0.02966104 1.590894 0.1614423 -0.04584359 1.59289 0.2596227 -0.02840405 1.536534 0.2382225 -0.01359546 1.530698 0.2469702 0.001230493 1.524665 0.2520853 -0.01704655 1.574779 0.162156 -0.02294793 1.583039 0.2378034 -0.02011718 1.563466 0.2514646 -0.003951318 1.553679 0.2616891 0.01256507 1.537906 0.2655877
204 0.05354205 1.503327 0.1805405 -0.03270906 1.587996 0.1632808 -0.04370387 1.592134 0.2638876 -0.01408508 1.526802 0.225086 -7.381325E-05 1.52393 0.2348668 0.009543987 1.520919 0.2431238 -0.01895634 1.572687 0.1634998 -0.02150159 1.581717 0.2410475 -0.02036495 1.550574 0.2463869 -0.005999763 1.544619 0.2569531 0.01091192 1.533535 0.2620786
205 0.05467653 1.502996 0.1803054 -0.03743545 1.582711 0.1665051 -0.04202694 1.592369 0.2660787 -0.004184215 1.518934 0.2164537 0.009853021 1.521497 0.2300777 0.01743602 1.518962 0.2389964 -0.02225595 1.56871 0.1650795 -0.02010709 1.581596 0.2425526 -0.01690601 1.540587 0.2406077 -0.00436761 1.537511 0.2524 0.01177385 1.530581 0.2584854
206 0.05530676 1.502946 0.1799961 -0.04169855 1.577508 0.1686336 -0.04095061 1.592599 0.267602 0.00025812 1.513828 0.2111688 0.01458269 1.521002 0.2276167 0.02234785 1.518264 0.2375368 -0.02550698 1.564723 0.1659086 -0.0192716 1.581856 0.243368 -0.01383283 1.536227 0.2381067 -0.00188616 1.5336 0.2505337 0.01324328 1.529328 0.2566956
207 0.05565337 1.502909 0.1799946 -0.04466869 1.573097 0.17094 -0.03991688 1.592376 0.2688448 0.00390001 1.515021 0.2095749 0.01706673 1.520383 0.2251908 0.02542849 1.518224 0.236798 -0.02800278 1.561271 0.1666226 -0.01865655 1.581967 0.243853 -0.01201137 1.535251 0.2381068 0.000402306 1.53217 0.2500983 0.01496472 1.529349 0.2561218
208 0.05625928 1.502573 0.1809758 -0.04622598 1.568197 0.1757591 -0.03874018 1.592007 0.2700148 0.007652203 1.518542 0.2118182 0.0196801 1.518604 0.2232227 0.02867746 1.518544 0.2365507 -0.0299108 1.557179 0.1687656 -0.01802581 1.581805 0.2444204 -0.01013485 1.535726 0.2403534 0.003460811 1.532157 0.2507933 0.01796218 1.530312 0.2566269
209 0.05677805 1.50242 0.1821763 -0.04738439 1.563418 0.1802051 -0.03803479 1.591868 0.271175 0.0106525 1.520601 0.214166 0.02221518 1.517643 0.223178 0.0318238 1.519678 0.2374545 -0.03161517 1.553068 0.1712443 -0.01772857 1.581599 0.2452839 -0.008175254 1.535795 0.2425865 0.006227448 1.532416 0.2519333 0.02086566 1.531474 0.2576649
210 0.05676576 1.502813 0.1823715 -0.04881421 1.559607 0.1833833 -0.0375047 1.592509 0.2717797 0.01187702 1.521158 0.2150143 0.02367445 1.51746 0.2229211 0.03389674 1.520519 0.2369291 -0.03360914 1.549771 0.1730108 -0.01791633 1.581867 0.2455139 -0.006919727 1.535795 0.2437419 0.007993032 1.532997 0.2523705 0.02286508 1.532499 0.2575237
211 0.05654355 1.503383 0.1821045 -0.04961725 1.557159 0.1856431 -0.03733182 1.59325 0.2717672 0.01211402 1.521144 0.2150128 0.02430783 1.517979 0.2224372 0.03406335 1.519966 0.2351649 -0.0350659 1.547654 0.1741005 -0.01851179 1.582106 0.2451647 -0.006571769 1.535867 0.2439552 0.008630815 1.533602 0.2521547 0.02374883 1.533197 0.2567344
212 0.05632389 1.503985 0.1819604 -0.05000116 1.55565 0.186946 -0.03718605 1.594208 0.2713791 0.01211383 1.521075 0.2150078 0.02482565 1.518875 0.2219829 0.03413793 1.520181 0.2339508 -0.03598601 1.546153 0.1747654 -0.0191122 1.58265 0.2444674 -0.006418999 1.536282 0.244048 0.009016206 1.534513 0.2518416 0.02428519 1.534374 0.2559994
213 0.05604457 1.504339 0.1821325 -0.05039017 1.554686 0.1873402 -0.03722946 1.595438 0.2706333 0.01196969 1.521175 0.2152649 0.02511886 1.519905 0.2218881 0.03431863 1.521259 0.2334927 -0.03663127 1.545008 0.1750336 -0.01966975 1.583466 0.2436069 -0.006436193 1.536927 0.2442288 0.009187996 1.535563 0.2516821 0.02454357 1.535764 0.2555786
214 0.05573272 1.504781 0.1825417 -0.05079472 1.554039 0.1871926 -0.03757574 1.596978 0.2697115 0.01175032 1.521428 0.2162669 0.02518465 1.520919 0.22253 0.0345109 1.522799 0.2337872 -0.03709705 1.54405 0.1751001 -0.02037611 1.584405 0.2427892 -0.006589557 1.537883 0.2448285 0.00920316 1.536982 0.2520157 0.02465432 1.537547 0.255614
215 0.05568955 1.504931 0.1828918 -0.05060741 1.553917 0.186902 -0.03784327 1.59818 0.2685785 0.01164841 1.521833 0.2168426 0.02521777 1.521485 0.2229068 0.03459493 1.523837 0.234033 -0.03698504 1.543676 0.1749553 -0.02076736 1.585104 0.2418654 -0.006788044 1.538678 0.2450344 0.009113653 1.538012 0.2520797 0.02460761 1.5388 0.2555671
216 0.05559875 1.505232 0.1831122 -0.05059497 1.553929 0.1867745 -0.03827793 1.599022 0.2677704 0.01150519 1.52216 0.2173213 0.02518283 1.521989 0.2231863 0.03454094 1.524642 0.2341404 -0.03696822 1.543543 0.1749704 -0.02127528 1.585524 0.2412554 -0.007065411 1.539309 0.2452132 0.008923131 1.53881 0.2521404 0.02444308 1.539769 0.2555394
217 0.05569527 1.505644 0.1832684 -0.05089337 1.55336 0.1871251 -0.03871167 1.599496 0.2671287 0.01154503 1.522433 0.217879 0.02535094 1.522611 0.2235156 0.03461725 1.525454 0.2341055 -0.03711214 1.542973 0.1755089 -0.02173855 1.585781 0.2407307 -0.007102435 1.539994 0.2454818 0.00899376 1.539701 0.2522427 0.02455435 1.540826 0.2554857
218 0.05578193 1.506024 0.1833805 -0.05160118 1.552275 0.1877555 -0.0390491 1.599732 0.2666352 0.01163975 1.522791 0.2183156 0.02555967 1.523289 0.2237397 0.03472925 1.526324 0.2339759 -0.03753314 1.542019 0.1763713 -0.02212026 1.585987 0.2402364 -0.007003672 1.540786 0.2456889 0.009198055 1.540705 0.2522624 0.02479375 1.541996 0.2553292
219 0.05578943 1.506271 0.1834403 -0.05237787 1.551082 0.1885301 -0.03919437 1.599984 0.2661853 0.01174419 1.52329 0.2184272 0.02577014 1.523926 0.2236525 0.0348832 1.527192 0.2337233 -0.03807854 1.541071 0.1772156 -0.02232586 1.586262 0.2397343 -0.00683753 1.541625 0.2456615 0.009450846 1.541677 0.2520547 0.02504957 1.543124 0.2550091
220 0.05565909 1.506359 0.1834889 -0.05318965 1.54985 0.1894709 -0.03926773 1.600319 0.2656998 0.01181469 1.5239 0.2184768 0.02589357 1.524583 0.2236256 0.03497583 1.528042 0.2336353 -0.03874452 1.540071 0.1781375 -0.02244354 1.586595 0.2392104 -0.006695739 1.542563 0.2455512 0.009643466 1.542739 0.2518212 0.02523911 1.544323 0.2547037
221 0.05562717 1.506553 0.1834889 -0.05378789 1.549004 0.1902386 -0.03915406 1.600595 0.2654418 0.0120615 1.52451 0.2184385 0.02614677 1.525334 0.2235355 0.03519925 1.528865 0.2335017 -0.03924792 1.539353 0.1789159 -0.02239591 1.586958 0.2388483 -0.006408308 1.543449 0.2453984 0.009955305 1.543747 0.2515751 0.02554067 1.545448 0.254393
222 0.05566982 1.506765 0.183558 -0.05419946 1.54823 0.191094 -0.03896549 1.600581 0.2655595 0.01238882 1.524946 0.2185686 0.02652043 1.525985 0.2235589 0.03563605 1.529684 0.2334676 -0.03964603 1.538595 0.1797757 -0.02233544 1.587119 0.2387808 -0.005960568 1.544162 0.2454719 0.01043718 1.544634 0.2515012 0.02600892 1.546498 0.2541945
223 0.05574091 1.506945 0.1837618 -0.05452213 1.54733 0.1921629 -0.03873022 1.600277 0.2660258 0.01279107 1.525295 0.2188096 0.02696449 1.52656 0.2236262 0.03612141 1.530404 0.2334724 -0.0400168 1.537673 0.1808008 -0.02229508 1.587074 0.2389773 -0.005441639 1.544713 0.245708 0.01100059 1.545382 0.251545 0.02654468 1.547446 0.2540904
224 0.05570041 1.506962 0.1840275 -0.05487145 1.54642 0.1931734 -0.03844174 1.600095 0.2664511 0.01308065 1.525567 0.2190454 0.02728256 1.527007 0.2237044 0.03652366 1.530988 0.2335039 -0.04041793 1.536737 0.1817658 -0.02224679 1.587049 0.2391607 -0.005033037 1.545158 0.2459427 0.01144736 1.546005 0.2516036 0.02696784 1.548228 0.2539954
225 0.05567398 1.506969 0.1842578 -0.05518981 1.545694 0.1938234 -0.03813991 1.600106 0.2666607 0.0133075 1.52582 0.2191913 0.02752235 1.527383 0.2237258 0.03682751 1.531546 0.2334847 -0.04073411 1.535972 0.1824518 -0.02217421 1.587156 0.2391761 -0.004708936 1.545601 0.2460676 0.01179956 1.546604 0.2515852 0.02730177 1.548964 0.2538496
226 0.05578079 1.506928 0.1843919 -0.05539387 1.544879 0.194444 -0.03767228 1.600178 0.2667605 0.01364123 1.525988 0.2193411 0.02788798 1.527645 0.2237629 0.0372518 1.532008 0.2334588 -0.0409125 1.535102 0.1831514 -0.02196869 1.587239 0.239112 -0.00426739 1.545944 0.24619 0.01227357 1.547116 0.2515492 0.02776095 1.549619 0.2536705
227 0.0558606 1.506899 0.1845036 -0.05558622 1.54407 0.1951818 -0.03726308 1.600244 0.2669496 0.01394175 1.526046 0.2195722 0.02821667 1.527835 0.2238731 0.03764799 1.53236 0.2335225 -0.04108607 1.534282 0.183921 -0.02179835 1.58729 0.2391707 -0.003839021 1.546143 0.2464251 0.01273529 1.547475 0.2516235 0.02820791 1.550127 0.2536031
228 0.05581151 1.50685 0.1846063 -0.05585278 1.543283 0.195907 -0.03703162 1.600259 0.2671379 0.01406511 1.526014 0.2198082 0.0283576 1.527899 0.2240177 0.03784952 1.532585 0.2336547 -0.04135434 1.533497 0.1846407 -0.02178934 1.587298 0.239242 -0.003590904 1.546228 0.2466676 0.01300425 1.547722 0.2517291 0.028458 1.550529 0.2535867
229 0.05560495 1.506817 0.1846938 -0.05617499 1.542669 0.1964843 -0.03701722 1.600474 0.2670946 0.01394054 1.526013 0.2199777 0.02825929 1.527959 0.2241001 0.03778728 1.532743 0.2337426 -0.04171639 1.532885 0.1851658 -0.02196384 1.587425 0.2391447 -0.003625524 1.546333 0.2468052 0.0129864 1.547946 0.2517592 0.0284201 1.550878 0.2535294
230 0.05538961 1.506768 0.1848259 -0.05651318 1.542052 0.1969529 -0.03711206 1.600836 0.2668178 0.01377167 1.526009 0.2201819 0.02809097 1.527995 0.2241946 0.03764261 1.532878 0.2338359 -0.04205929 1.53229 0.185613 -0.02219057 1.587676 0.2388684 -0.003766618 1.546489 0.246902 0.01286566 1.548191 0.251765 0.0282847 1.551223 0.2534615
231 0.05530477 1.506757 0.1849758 -0.05672154 1.541599 0.1973023 -0.03713769 1.601203 0.2665235 0.01371002 1.526055 0.2203856 0.02802461 1.52806 0.224311 0.03758809 1.533046 0.2339494 -0.04223918 1.531862 0.1859833 -0.02229754 1.587972 0.2385835 -0.003824873 1.5467 0.2469821 0.01282739 1.548462 0.2517763 0.02823751 1.55157 0.2534204
232 0.05532402 1.50684 0.1851169 -0.05685697 1.54122 0.1977696 -0.03701315 1.601359 0.2665896 0.01380186 1.526131 0.2206751 0.02811946 1.528188 0.2245279 0.03772957 1.533266 0.2341624 -0.04232192 1.531525 0.1864861 -0.02225697 1.588188 0.2385896 -0.00368255 1.546901 0.2472075 0.01298485 1.548727 0.2519246 0.02838427 1.55191 0.2535021
233 0.05534714 1.507033 0.1851403 -0.05696808 1.540896 0.198466 -0.03671789 1.601353 0.2670847 0.01402413 1.526213 0.2210588 0.02834018 1.528379 0.2248642 0.03803271 1.533538 0.2345333 -0.04238527 1.53125 0.187206 -0.02209784 1.588327 0.2389533 -0.003302959 1.547053 0.2476351 0.01337723 1.548987 0.2522496 0.02876187 1.552291 0.2537355
234 0.05532411 1.507187 0.1852969 -0.05696522 1.540982 0.1991481 -0.03639871 1.601393 0.2676906 0.01411829 1.526335 0.2214876 0.0284544 1.528546 0.2252928 0.03819418 1.53373 0.235009 -0.04242334 1.531314 0.1878522 -0.02191054 1.588501 0.2394256 -0.003040019 1.547223 0.2481021 0.01364454 1.549217 0.2526609 0.02902073 1.552598 0.2540986
235 0.05535993 1.507243 0.1856754 -0.0567908 1.541251 0.1997362 -0.03595453 1.601616 0.2681278 0.01421811 1.526525 0.221986 0.02856087 1.528752 0.2258014 0.0383423 1.534015 0.2355546 -0.04234942 1.531479 0.1883961 -0.02159319 1.588917 0.2397005 -0.002797 1.547607 0.2485484 0.0138922 1.549632 0.2530813 0.02926615 1.55305 0.2544963
236 0.05551121 1.507251 0.186203 -0.05639355 1.541491 0.2006148 -0.03528007 1.601909 0.2684854 0.01452124 1.526825 0.2225756 0.02883996 1.52914 0.226405 0.03863227 1.534526 0.2360983 -0.04216122 1.53156 0.1891441 -0.02108933 1.589553 0.2398179 -0.002315222 1.548273 0.2490215 0.01437392 1.550389 0.2535073 0.02976159 1.553846 0.2548411
237 0.05571301 1.507384 0.1865176 -0.05576949 1.542093 0.2012643 -0.03454456 1.602231 0.2687114 0.01494365 1.527266 0.2229649 0.02921283 1.52968 0.2268972 0.03898885 1.535095 0.2364089 -0.04181895 1.531963 0.1896228 -0.02049248 1.590325 0.2398004 -0.001711054 1.549006 0.2493561 0.01495813 1.551243 0.2538266 0.03039371 1.55466 0.2550346
238 0.05589883 1.50759 0.1864583 -0.05513463 1.543312 0.2010797 -0.03383679 1.602343 0.2689282 0.01538424 1.527732 0.2230547 0.02957438 1.530197 0.2271753 0.03929862 1.53548 0.2363857 -0.04135358 1.532903 0.1894919 -0.01984029 1.591004 0.2397936 -0.001079606 1.549572 0.2495169 0.01555371 1.551889 0.2540274 0.03107355 1.555138 0.2551084
239 0.05592656 1.507576 0.1864482 -0.05466796 1.544471 0.2006597 -0.03308298 1.602492 0.2692212 0.01575588 1.528001 0.2230515 0.02988911 1.530502 0.227272 0.03962986 1.535631 0.2362228 -0.04094306 1.533823 0.1892337 -0.01918193 1.591477 0.2399434 -0.0004962455 1.549873 0.2496513 0.01611454 1.552206 0.2541866 0.03170362 1.555257 0.2551508
240 0.05584315 1.507418 0.1864839 -0.05445652 1.545173 0.200466 -0.03237059 1.602969 0.2692753 0.01602127 1.52809 0.2230167 0.03015006 1.530645 0.2271948 0.0399627 1.535793 0.2359587 -0.04074185 1.534372 0.1891829 -0.01862914 1.591918 0.2399622 1.692119E-05 1.550101 0.2497302 0.01663074 1.552421 0.2542168 0.03225826 1.555346 0.2550617
241 0.05579799 1.507307 0.1865089 -0.05434198 1.545497 0.2004921 -0.03183782 1.603565 0.2691311 0.01619839 1.528165 0.2230106 0.0303678 1.530767 0.2270789 0.04024443 1.535939 0.2357309 -0.04064491 1.534611 0.1892746 -0.0182342 1.592306 0.239849 0.0003830044 1.550336 0.2497551 0.01701474 1.552623 0.254164 0.03265541 1.55548 0.2549198
242 0.05580699 1.507228 0.1863488 -0.05423098 1.545911 0.200394 -0.03115643 1.604587 0.2686371 0.01638864 1.528269 0.2228521 0.03063096 1.530871 0.2267432 0.04056977 1.536064 0.2352821 -0.04055739 1.534925 0.1892534 -0.01773814 1.592837 0.2394817 0.0007839707 1.55064 0.2496095 0.01745247 1.552842 0.2538973 0.03310439 1.555614 0.2545473
243 0.05576299 1.507076 0.1863414 -0.0541511 1.546305 0.200402 -0.03068476 1.605366 0.2683395 0.01641568 1.528254 0.2228524 0.0307262 1.530798 0.2266013 0.04073596 1.53602 0.2351021 -0.04051645 1.535231 0.1893061 -0.01738689 1.593134 0.2393387 0.000961378 1.550788 0.249586 0.01766451 1.552874 0.2537958 0.03332201 1.555568 0.2544005
244 0.0556916 1.506924 0.1863486 -0.05422515 1.546362 0.2004701 -0.03045525 1.605769 0.2682326 0.01640786 1.528163 0.2229124 0.03076321 1.530686 0.2265367 0.04081834 1.535936 0.2350136 -0.040574 1.535254 0.1894315 -0.01724971 1.59315 0.2393588 0.00104863 1.550796 0.2496312 0.0177818 1.552817 0.2537641 0.03343809 1.555486 0.2543267
245 0.05560751 1.506758 0.1863629 -0.05441832 1.546328 0.2003565 -0.03026737 1.606107 0.2681309 0.01637991 1.528087 0.2229681 0.03076697 1.530606 0.2265042 0.04085678 1.535848 0.2349632 -0.04066585 1.535196 0.1894721 -0.01715661 1.593117 0.2393775 0.001106812 1.550807 0.2496638 0.01786361 1.55279 0.2537304 0.03351828 1.555448 0.2542507
246 0.05550759 1.506589 0.1864749 -0.0545971 1.546454 0.2001452 -0.03004599 1.606742 0.2678419 0.01631408 1.528134 0.2230369 0.03073165 1.530614 0.2265232 0.0408353 1.535838 0.2349534 -0.04074418 1.535254 0.1894591 -0.0170276 1.593266 0.239262 0.001116312 1.550978 0.249663 0.01789012 1.552922 0.2536872 0.03354752 1.555542 0.2541775
247 0.05543337 1.506464 0.1866818 -0.05461829 1.546699 0.200084 -0.02981462 1.607446 0.2675134 0.01626618 1.528275 0.2231064 0.03071248 1.530695 0.2265659 0.0408074 1.535907 0.2349906 -0.04075645 1.535421 0.1894893 -0.0168667 1.593556 0.2390897 0.001105042 1.551235 0.2496515 0.01788882 1.553129 0.2536608 0.03354745 1.555709 0.2541508
248 0.05552269 1.506308 0.1870194 -0.05431072 1.547279 0.2000926 -0.02930583 1.608871 0.2667063 0.01631152 1.528553 0.2231847 0.03081703 1.530752 0.2265756 0.04087238 1.535972 0.2350349 -0.0405551 1.535846 0.1895181 -0.01642363 1.594154 0.2386491 0.001145919 1.551717 0.2495452 0.0179505 1.553454 0.2535511 0.03360555 1.555943 0.254095
249 0.05566444 1.506061 0.1873114 -0.05381455 1.548028 0.2001331 -0.02843389 1.610797 0.265616 0.01641531 1.528848 0.2231797 0.03101835 1.530717 0.2264578 0.04105731 1.535925 0.2350138 -0.04023907 1.536422 0.189503 -0.01568836 1.594875 0.2381294 0.001266673 1.552184 0.2493783 0.01810694 1.553656 0.2533768 0.03375157 1.556018 0.2540132
250 0.05568395 1.505727 0.1875274 -0.05338036 1.548943 0.2001305 -0.02727452 1.612901 0.2646818 0.01645481 1.529061 0.2232025 0.03117442 1.530486 0.2263625 0.04127308 1.53562 0.2350495 -0.0399733 1.537178 0.1894476 -0.01477652 1.59554 0.2379228 0.001389372 1.552437 0.2493641 0.01827334 1.55354 0.2533525 0.03390726 1.555706 0.2540949
251 0.05551062 1.505207 0.1879523 -0.05285608 1.550338 0.2004977 -0.0255046 1.615436 0.2639057 0.01642218 1.529337 0.2234535 0.03129562 1.530142 0.2264892 0.04159122 1.535161 0.235303 -0.03971672 1.538321 0.189746 -0.01352018 1.596341 0.238051 0.001604734 1.552758 0.2496199 0.01853906 1.553385 0.2535633 0.03416192 1.55525 0.2543812
252 0.05519203 1.504524 0.1884019 -0.05200426 1.552593 0.2006721 -0.02296213 1.618689 0.2627523 0.01637573 1.529493 0.2238922 0.03140507 1.529653 0.2267528 0.04207933 1.534701 0.2356881 -0.03925544 1.540112 0.1899588 -0.01178186 1.597501 0.2381343 0.002073848 1.553288 0.2499879 0.01905658 1.553348 0.2538506 0.0346664 1.554848 0.2547176
253 0.05479188 1.503681 0.1888734 -0.05072701 1.555667 0.2006831 -0.01974816 1.621583 0.2620517 0.01645246 1.529579 0.2246775 0.03166051 1.529165 0.2272755 0.04263916 1.534105 0.2362571 -0.03838772 1.542573 0.1902054 -0.009487794 1.598748 0.2384504 0.002928171 1.554015 0.2505559 0.01995602 1.553401 0.2543048 0.03556565 1.554462 0.2552012
254 0.05424016 1.502657 0.1894063 -0.04853238 1.559527 0.2006927 -0.01596125 1.623709 0.2622652 0.01677082 1.529723 0.22576 0.03210435 1.528573 0.2280998 0.04305726 1.533158 0.2369615 -0.03691714 1.545682 0.1903351 -0.00667888 1.599836 0.239219 0.004115731 1.554821 0.2513525 0.02116832 1.553431 0.2549832 0.03679916 1.553931 0.2558864
255 0.05375554 1.501652 0.1897521 -0.04596888 1.563496 0.2001914 -0.01190083 1.625276 0.262854 0.01708874 1.529728 0.2267983 0.03254207 1.527851 0.2289258 0.04339649 1.531925 0.2376236 -0.03503626 1.548916 0.1900768 -0.003606322 1.600772 0.2400294 0.005390672 1.55545 0.252128 0.02242593 1.553258 0.2556832 0.03807463 1.553098 0.2565818
256 0.05252555 1.500985 0.1896151 -0.04452436 1.567224 0.1993477 -0.008360213 1.626979 0.2630691 0.01681204 1.530076 0.2274634 0.03225398 1.527517 0.2292504 0.04320559 1.531239 0.2377345 -0.03413699 1.552019 0.1895813 -0.001009956 1.602116 0.2402982 0.006251797 1.556469 0.2525352 0.02323928 1.553465 0.2559393 0.03888038 1.552643 0.256756
257 0.05057352 1.500266 0.1895572 -0.04355162 1.570862 0.1981541 -0.005434681 1.628636 0.262702 0.01607043 1.531113 0.227918 0.03138851 1.527497 0.2294943 0.04268043 1.531211 0.2376317 -0.03385273 1.554957 0.1888348 0.001331201 1.603919 0.2396883 0.006988516 1.558226 0.2526527 0.02389405 1.554425 0.2558344 0.03952082 1.552946 0.256474
258 0.04829362 1.499551 0.1892598 -0.04269931 1.574122 0.1965856 -0.003329264 1.629264 0.2627195 0.01508399 1.531899 0.2281031 0.03028412 1.527418 0.2295136 0.04189448 1.531164 0.237305 -0.03375411 1.557514 0.187791 0.003065571 1.605203 0.239015 0.007473968 1.5597 0.2524906 0.02426821 1.555229 0.2554614 0.03986 1.553193 0.2559246
259 0.04588087 1.498934 0.1887796 -0.04208735 1.576847 0.1955389 -0.002104973 1.628621 0.26376 0.0138406 1.532147 0.2281296 0.02891302 1.527044 0.2293832 0.04082273 1.530787 0.2369088 -0.03386255 1.559689 0.1871272 0.003971792 1.605663 0.2389712 0.007537779 1.56046 0.2523436 0.02422471 1.555481 0.2551101 0.0397688 1.553027 0.2554035
260 0.04370202 1.498582 0.1880018 -0.04199342 1.578995 0.1951723 -0.001296072 1.62739 0.2653249 0.01255273 1.53208 0.2278709 0.02739762 1.52653 0.2289532 0.03970229 1.530244 0.236342 -0.03424371 1.56154 0.1869335 0.004424041 1.605663 0.2393954 0.007324736 1.560562 0.2521954 0.02391655 1.555202 0.2547679 0.03940745 1.552457 0.2549153
261 0.0416845 1.498271 0.1873247 -0.04225822 1.580637 0.1951817 -0.0004345305 1.626617 0.2663653 0.01144227 1.532093 0.2275674 0.02599766 1.526187 0.2284568 0.03863664 1.529817 0.2357385 -0.03484283 1.563002 0.1870261 0.004770388 1.605664 0.2397069 0.007072628 1.560601 0.2520257 0.02358751 1.554925 0.2544029 0.03903001 1.551948 0.2544028
262 0.03950378 1.49757 0.1871511 -0.0425895 1.582283 0.1949928 0.000754557 1.626351 0.2668419 0.01016869 1.531979 0.2275691 0.02442641 1.525822 0.2282445 0.03722272 1.529164 0.235422 -0.03542424 1.564371 0.1872322 0.005203668 1.605603 0.239901 0.006694921 1.560609 0.2519779 0.02310703 1.554591 0.254208 0.03848546 1.551303 0.2540681
263 0.03716122 1.497021 0.1865141 -0.04307616 1.583744 0.1948296 0.00178674 1.625956 0.2672712 0.008647958 1.531592 0.2274984 0.02265475 1.525294 0.2278274 0.0355042 1.528248 0.2348937 -0.03620968 1.565617 0.1873163 0.005400897 1.605359 0.2401147 0.006020844 1.560311 0.2518715 0.02233567 1.553949 0.2539223 0.03764341 1.550348 0.2536171
264 0.03489045 1.496463 0.1858034 -0.04388702 1.584738 0.1953386 0.002272176 1.625106 0.2677728 0.006958866 1.530864 0.2275222 0.02084531 1.524577 0.2274788 0.03363535 1.527249 0.2343775 -0.03718219 1.566539 0.1878752 0.005348344 1.605013 0.2402402 0.00508849 1.559696 0.2518287 0.02131849 1.55304 0.2537182 0.03657285 1.549169 0.2532662
265 0.03298004 1.495828 0.1853484 -0.0443828 1.585521 0.1958335 0.002493379 1.624091 0.2681614 0.005540454 1.530241 0.2274082 0.01922036 1.523914 0.2271654 0.03186999 1.526181 0.2340438 -0.03781854 1.567266 0.1884109 0.005353737 1.604701 0.2401851 0.004176517 1.559041 0.2517529 0.0203144 1.552135 0.2535786 0.03550657 1.548001 0.2530466
266 0.03130227 1.495074 0.1853832 -0.04407125 1.586431 0.1966925 0.003040437 1.623091 0.2685972 0.004381353 1.530083 0.2273449 0.01775372 1.523466 0.2271197 0.03024383 1.525282 0.2340456 -0.03795585 1.56813 0.1890332 0.005797502 1.604448 0.2401763 0.00346229 1.558754 0.2517809 0.01945542 1.551487 0.2536302 0.03456189 1.547007 0.2531092
267 0.02994603 1.494432 0.1856556 -0.04351072 1.587354 0.197442 0.003458686 1.622202 0.2690721 0.003347625 1.530296 0.227214 0.01651283 1.523292 0.2271466 0.02881189 1.524725 0.2341697 -0.03785015 1.569058 0.1894434 0.006301118 1.604227 0.2402712 0.002798244 1.558799 0.2517631 0.01861001 1.551137 0.2537351 0.03362324 1.546289 0.2533298
268 0.02848249 1.493932 0.1860373 -0.0429876 1.588518 0.198346 0.004268436 1.6214 0.2698136 0.002242058 1.530979 0.2270693 0.0150821 1.523249 0.227273 0.02731386 1.524291 0.2344101 -0.03778129 1.570296 0.1899009 0.007199046 1.604124 0.2406277 0.002193125 1.55912 0.2518959 0.01773595 1.550902 0.2539935 0.0326032 1.545572 0.2537376
269 0.02688974 1.493616 0.1862707 -0.04251816 1.590076 0.1985807 0.005271553 1.620607 0.2707474 0.001325287 1.531694 0.2270242 0.01381177 1.523315 0.2274453 0.02604254 1.523914 0.2346363 -0.0375945 1.5718 0.1901145 0.00839882 1.604121 0.2411944 0.001877562 1.559375 0.2522121 0.01711904 1.550605 0.254382 0.03181106 1.544756 0.2542023
270 0.02508475 1.493543 0.1863233 -0.04166155 1.592313 0.1979072 0.006707463 1.620107 0.2719069 0.0004712952 1.532398 0.2269974 0.01263309 1.523459 0.2276533 0.02489946 1.523541 0.2348846 -0.03702527 1.573801 0.1898516 0.009862816 1.604118 0.2421542 0.00184897 1.559472 0.2526861 0.01676185 1.550213 0.2548946 0.03125391 1.543827 0.2547158
271 0.02280774 1.494002 0.1861038 -0.04041091 1.595803 0.1957264 0.008043185 1.620191 0.2731962 -0.0008305962 1.533068 0.2273491 0.01114632 1.523762 0.2281475 0.02359153 1.523273 0.2354573 -0.03593756 1.576806 0.1888824 0.01131992 1.604455 0.2434119 0.001791712 1.559703 0.2533277 0.01633034 1.549944 0.2555483 0.03061675 1.543027 0.25535
272 0.02100731 1.494789 0.1858905 -0.03899843 1.599318 0.1926764 0.009678729 1.620927 0.2744468 -0.002065448 1.53362 0.2280926 0.009829879 1.524165 0.2289693 0.02231131 1.5231 0.2364521 -0.03448074 1.579823 0.1875431 0.01274086 1.604877 0.2448396 0.001839318 1.559968 0.2540628 0.01604505 1.549815 0.2563264 0.03017472 1.542508 0.2561607
273 0.01935895 1.495533 0.1856313 -0.03797201 1.602155 0.1899166 0.01163457 1.621558 0.2757892 -0.003237286 1.533814 0.22909 0.008685524 1.524381 0.2299679 0.02116811 1.522714 0.2376931 -0.03327641 1.582323 0.1864596 0.01415669 1.605034 0.2463809 0.002037317 1.559936 0.254896 0.01597769 1.549493 0.2571743 0.03000014 1.541918 0.2570122
274 0.01710792 1.496917 0.1842894 -0.03712128 1.605317 0.1873675 0.01417362 1.621224 0.2779738 -0.004961724 1.534006 0.2299414 0.007034525 1.524556 0.2307971 0.01959731 1.522251 0.238918 -0.03225956 1.585325 0.1853576 0.01598896 1.604772 0.2484411 0.002165003 1.559684 0.2556957 0.0157539 1.548861 0.2579634 0.02968935 1.54103 0.257845
275 0.01538429 1.498126 0.1829139 -0.03513104 1.608503 0.1866218 0.01682885 1.619617 0.2807242 -0.006083267 1.534288 0.2299591 0.005565581 1.524629 0.2312301 0.01841204 1.522047 0.2400359 -0.03069978 1.588398 0.1846754 0.01801664 1.603653 0.2508691 0.002586145 1.558976 0.256293 0.01581995 1.547786 0.2585659 0.02992331 1.539895 0.2587076
276 0.01450512 1.499288 0.1816642 -0.03074077 1.611341 0.1895661 0.01779212 1.618554 0.2828621 -0.00617464 1.53476 0.2293807 0.004398504 1.524792 0.2318783 0.01770634 1.522542 0.2417005 -0.02797679 1.591305 0.1852518 0.01892134 1.602657 0.2529433 0.002675453 1.558346 0.2565808 0.01578939 1.547126 0.2592193 0.03041796 1.539399 0.2598753
277 0.01406368 1.500192 0.1809207 -0.02678689 1.61268 0.193561 0.01878135 1.618767 0.283743 -0.006114644 1.535134 0.2296563 0.003646635 1.525344 0.2336864 0.01752433 1.523445 0.2438504 -0.02570913 1.593198 0.1867023 0.01950532 1.602336 0.2541227 0.002956144 1.558108 0.2570672 0.01639822 1.547344 0.260367 0.03152481 1.539587 0.2610615
278 0.01372291 1.500544 0.180497 -0.02382307 1.613058 0.1958956 0.01927869 1.619018 0.2837173 -0.006243475 1.535523 0.2301169 0.002885058 1.526178 0.236091 0.01717462 1.524207 0.2454123 -0.02391881 1.594161 0.1874872 0.01989292 1.602329 0.2542875 0.003093268 1.558314 0.2573078 0.0171256 1.548267 0.2615272 0.03219862 1.539891 0.2617581
279 0.01350352 1.50056 0.1804428 -0.02087732 1.613225 0.197352 0.0193817 1.619335 0.2832574 -0.006369457 1.536147 0.2307434 0.002223097 1.527414 0.2387347 0.01677382 1.52495 0.2464369 -0.02188721 1.594824 0.187937 0.02028223 1.602552 0.2539414 0.003261545 1.559067 0.2574555 0.01794687 1.549736 0.2626784 0.03245922 1.540275 0.2622508
280 0.01305555 1.500473 0.1807333 -0.01673506 1.613788 0.1973126 0.01955422 1.617452 0.2840689 -0.007498379 1.537185 0.2313921 0.0008564921 1.529177 0.2415739 0.01612856 1.526026 0.2477681 -0.01878413 1.595701 0.1875125 0.0212425 1.602069 0.2541527 0.003210886 1.560009 0.2576991 0.01849264 1.551204 0.264063 0.0323703 1.54058 0.2632471
281 0.01225273 1.500404 0.1812055 -0.01339752 1.614361 0.197506 0.01827973 1.611461 0.2869551 -0.009108575 1.537812 0.2327358 -0.0005433206 1.530754 0.2451428 0.0162017 1.526969 0.2495345 -0.01613909 1.596354 0.1878198 0.02252276 1.600248 0.2557077 0.003436069 1.560274 0.258554 0.01952015 1.55196 0.2659599 0.03283279 1.540134 0.2647341
282 0.01176077 1.500432 0.1815189 -0.01115357 1.614801 0.1984659 0.01594835 1.604731 0.2894309 -0.01077246 1.537801 0.2341328 -0.001724856 1.531649 0.2485243 0.01632611 1.527187 0.2511365 -0.01408571 1.5969 0.188711 0.02375644 1.598229 0.257792 0.003508951 1.559843 0.2595583 0.0204846 1.551971 0.2680143 0.03300926 1.538838 0.2663022
283 0.01156145 1.500492 0.1817685 -0.009904673 1.615344 0.1991413 0.01452104 1.600463 0.2908433 -0.01176538 1.537559 0.235239 -0.002335323 1.531943 0.2505994 0.01668279 1.527068 0.2523328 -0.01261219 1.597405 0.1894389 0.02487155 1.596687 0.2596049 0.003644197 1.559344 0.2603808 0.02115696 1.551602 0.2696121 0.03311427 1.537511 0.2676383
284 0.01162245 1.500583 0.1820979 -0.008799719 1.616274 0.1988408 0.01497243 1.599311 0.291609 -0.01166937 1.537669 0.2356942 -0.002179728 1.532005 0.2509208 0.01747764 1.526908 0.2528422 -0.01122146 1.598095 0.1895441 0.02635602 1.595884 0.2607349 0.004122792 1.559166 0.2609181 0.02162377 1.551135 0.270518 0.03327178 1.536543 0.2685132
285 0.01171571 1.500958 0.1820107 -0.007133243 1.617732 0.1974683 0.01572331 1.597789 0.291614 -0.01091841 1.538094 0.2352844 -0.001593833 1.531935 0.249937 0.0184274 1.526718 0.2528292 -0.009344187 1.599033 0.18923 0.02851793 1.595288 0.2613955 0.004979312 1.559094 0.2609871 0.02198795 1.550471 0.2706459 0.03365112 1.535791 0.2688558
286 0.0118983 1.501392 0.1814294 -0.004705782 1.619125 0.1964884 0.0171925 1.597272 0.2908006 -0.0100157 1.538492 0.2338729 -0.0011057 1.531881 0.2482369 0.01934837 1.526624 0.2527039 -0.006940111 1.600107 0.1890429 0.03093678 1.594992 0.2613856 0.005550958 1.558973 0.2604235 0.02194102 1.54981 0.2702331 0.03406288 1.535283 0.268958
287 0.01208613 1.501698 0.1806146 -0.0008343839 1.620229 0.1959556 0.01863622 1.595272 0.2884887 -0.009512965 1.53889 0.2320586 -0.0007293763 1.531724 0.2458375 0.01997112 1.526107 0.2525572 -0.003321503 1.601071 0.189026 0.03438512 1.594273 0.2613235 0.005931376 1.55848 0.2596413 0.02133415 1.548467 0.2697245 0.0339705 1.534012 0.2692451
288 0.01206808 1.501957 0.1795182 0.002287952 1.62104 0.1963042 0.01813601 1.590275 0.2815149 -0.00901574 1.539617 0.2298271 -0.0004121515 1.531428 0.2420239 0.01974769 1.525167 0.2512636 -0.0001592577 1.601862 0.189504 0.03798382 1.593277 0.2611337 0.006266421 1.558168 0.2585576 0.01987843 1.546814 0.2683299 0.03256213 1.532451 0.2687989
289 0.01177239 1.501995 0.1787025 0.003866099 1.622028 0.1957657 0.01817064 1.584133 0.2707315 -0.007485414 1.540641 0.2274046 5.88774E-05 1.531109 0.2378632 0.01927299 1.524085 0.2492411 0.001911979 1.602534 0.189881 0.04117452 1.59168 0.261295 0.006821323 1.558214 0.2574408 0.01829778 1.545486 0.2664233 0.03050626 1.531176 0.2677981
290 0.01106977 1.502218 0.1781955 0.004300743 1.623324 0.194577 0.01697421 1.578575 0.2598492 -0.005948788 1.541869 0.2255857 0.000821264 1.531087 0.2346095 0.01869425 1.523428 0.2474465 0.002814856 1.603432 0.1901733 0.0410685 1.58965 0.2624447 0.007430087 1.558744 0.2565356 0.01707079 1.545002 0.2646503 0.02867335 1.530683 0.2666974
291 0.01019472 1.502805 0.1777976 0.003799808 1.624664 0.1934116 0.01250465 1.573776 0.2508446 -0.004829301 1.54287 0.2244046 0.001568424 1.531169 0.2323801 0.01829158 1.523251 0.2460979 0.002604821 1.604505 0.1903449 0.03565377 1.587616 0.2638015 0.007882209 1.559394 0.2559119 0.01624897 1.545017 0.2632448 0.02749943 1.530697 0.2657748
292 0.009004846 1.503941 0.1761474 0.003210471 1.626539 0.1895696 0.008027059 1.569428 0.2415915 -0.004070109 1.544269 0.2226386 0.001484414 1.53158 0.229493 0.01773016 1.523177 0.2439148 0.001833372 1.606178 0.1887851 0.02624924 1.583926 0.2619998 0.008361653 1.559981 0.2546659 0.01541132 1.544843 0.2610627 0.02623841 1.530342 0.2639979
293 0.007946493 1.50508 0.1739078 0.001701974 1.628216 0.1846037 0.00826071 1.567437 0.2343673 -0.003219101 1.54566 0.2206162 0.0007090432 1.5321 0.2267104 0.01717882 1.523363 0.2420011 0.001512065 1.607888 0.1866633 0.01910147 1.580169 0.2579398 0.008600071 1.560235 0.2532123 0.0145697 1.544492 0.2587411 0.02533538 1.529573 0.2622555
