yixianl/unity_handgesture/data/fight_shoot_2.txt
frame right_handpalm right_thumb_tip right_index_tip right_middle_tip right_ring_tip right_pinky_tip right_thumb_joint right_index_joint right_middle_joint right_ring_joint right_pinky_joint 
0 0.04769365 1.496416 0.2076315 0.04860533 1.617341 0.2213918 -0.03835551 1.616196 0.2578258 0.009545227 1.548218 0.2126335 0.005688745 1.532894 0.2115307 -0.001504549 1.523812 0.2154207 0.05477123 1.597742 0.2177458 -0.01147884 1.594845 0.2587325 -0.01683537 1.571679 0.2223993 -0.02282695 1.554258 0.2236745 -0.02454632 1.537669 0.2259221
1 0.04768303 1.496434 0.2078387 0.04928707 1.61713 0.2229016 -0.0392487 1.615876 0.2567662 0.0096615 1.548582 0.2131317 0.005944519 1.533157 0.2108334 -0.001274668 1.524185 0.2141769 0.05538039 1.597513 0.2193215 -0.01248853 1.594523 0.2583209 -0.01670173 1.572049 0.2212221 -0.02285521 1.554636 0.222074 -0.02468944 1.537973 0.2240262
2 0.04764932 1.496472 0.2080588 0.04985106 1.616927 0.2243416 -0.04003697 1.615775 0.2554921 0.009749711 1.548986 0.2137753 0.006230165 1.533445 0.2101602 -0.001082544 1.524637 0.2130369 0.05596823 1.597311 0.2208854 -0.01350989 1.594292 0.2577121 -0.01643031 1.572462 0.2200292 -0.02278982 1.555114 0.2204535 -0.02481959 1.53841 0.2221174
3 0.047626 1.49645 0.2083878 0.05052153 1.616605 0.2259067 -0.04050267 1.616115 0.2536816 0.01001867 1.549339 0.2139021 0.006719618 1.533739 0.2093011 -0.0008496313 1.525133 0.2117789 0.05673641 1.597009 0.2225997 -0.01438849 1.594324 0.2566984 -0.01588799 1.573021 0.2186044 -0.02246026 1.555739 0.2185539 -0.02481128 1.539052 0.2199776
4 0.04764845 1.496417 0.2087058 0.05130388 1.616259 0.2273857 -0.04062174 1.61671 0.2521392 0.01042709 1.549657 0.2135508 0.007263164 1.534095 0.2083977 -0.0006329177 1.525603 0.2105546 0.05756912 1.596687 0.2241112 -0.01491631 1.594587 0.2556132 -0.01527582 1.573592 0.2171942 -0.0220267 1.556374 0.2167812 -0.02468311 1.539741 0.218061
5 0.04767083 1.496489 0.2089937 0.05241219 1.615942 0.2289254 -0.04062943 1.617597 0.2511015 0.01079206 1.550148 0.2133042 0.007967935 1.534545 0.2074931 -0.0003393056 1.526108 0.2091201 0.05867602 1.596381 0.2256817 -0.01535237 1.59507 0.2544981 -0.01456252 1.57424 0.2154855 -0.02145392 1.557073 0.2147315 -0.02442793 1.540535 0.2159285
6 0.04776929 1.496523 0.2093086 0.05332077 1.615711 0.2298616 -0.04075324 1.618251 0.2505272 0.01101712 1.550583 0.2132488 0.008611555 1.534877 0.2067225 -3.709865E-07 1.526449 0.2078713 0.05965365 1.596154 0.2268088 -0.0157551 1.595426 0.2535659 -0.01390824 1.574689 0.2139115 -0.02091089 1.557574 0.2129073 -0.02411531 1.541107 0.214041
7 0.04797737 1.496487 0.2098027 0.05426215 1.615494 0.2306225 -0.04104016 1.618784 0.2497681 0.01132605 1.550953 0.2131563 0.009265501 1.535138 0.2060353 0.0004551993 1.52663 0.2066523 0.06067422 1.59593 0.227858 -0.01624443 1.595729 0.2524691 -0.01321427 1.574932 0.2122085 -0.02034837 1.557919 0.2110378 -0.02369734 1.541492 0.2121132
8 0.0481164 1.496368 0.2103841 0.05495712 1.615241 0.2314389 -0.04156443 1.619118 0.2490997 0.01155759 1.551116 0.2131017 0.009719754 1.535197 0.2055515 0.0007951563 1.526623 0.2056078 0.06145617 1.595674 0.2289471 -0.01689477 1.59589 0.2514177 -0.01263289 1.574882 0.2105952 -0.0199263 1.558032 0.2093419 -0.02338018 1.541635 0.2103793
9 0.04810755 1.496297 0.2108924 0.05535869 1.614992 0.2324629 -0.04225477 1.619362 0.2483377 0.0115043 1.551304 0.2130905 0.009863328 1.535231 0.2052165 0.0008868901 1.526576 0.2046945 0.06194424 1.595438 0.2301119 -0.01767435 1.596001 0.2504087 -0.01233873 1.574792 0.2092608 -0.01974878 1.558091 0.207927 -0.02327894 1.54172 0.2089216
10 0.04798801 1.496301 0.2114146 0.05561078 1.614677 0.2344053 -0.04297877 1.619712 0.2466762 0.0112058 1.551685 0.2131961 0.009870866 1.535383 0.2049237 0.0009466682 1.526585 0.2038565 0.06230986 1.595166 0.2320167 -0.01856781 1.59621 0.2491941 -0.0121628 1.574841 0.2081315 -0.01964929 1.558262 0.2066595 -0.02318754 1.541871 0.2075516
11 0.04804344 1.496372 0.2117883 0.05583159 1.614386 0.2365405 -0.04340567 1.620063 0.2446133 0.01110831 1.551959 0.2133638 0.01014137 1.535475 0.2046123 0.001237338 1.526619 0.2031778 0.06265237 1.59493 0.2340126 -0.01920783 1.59643 0.2479336 -0.01171782 1.574842 0.2071762 -0.01932419 1.558425 0.2055757 -0.02288586 1.542031 0.20635
12 0.04835202 1.496391 0.2122942 0.05630572 1.614065 0.2387635 -0.04349591 1.620432 0.2423743 0.0114184 1.55207 0.2133911 0.01077701 1.535406 0.2043778 0.001831777 1.52657 0.202574 0.06319347 1.594643 0.2360967 -0.0195542 1.596661 0.246605 -0.01097344 1.574787 0.2062527 -0.0186147 1.558478 0.2044963 -0.02226741 1.542127 0.2051909
13 0.0487391 1.496286 0.2129086 0.05697184 1.613677 0.2409431 -0.04348402 1.62064 0.2401923 0.01199328 1.552019 0.2132387 0.01153079 1.535282 0.2041551 0.002494321 1.526444 0.2020282 0.06381268 1.594247 0.2381372 -0.01977461 1.596779 0.2453056 -0.01019393 1.574661 0.2054267 -0.01780537 1.558407 0.2035044 -0.02155386 1.542113 0.2041377
14 0.04909161 1.496072 0.213594 0.05786226 1.613213 0.2431812 -0.04354438 1.620619 0.2379382 0.01273847 1.551711 0.213083 0.01229028 1.535007 0.2040477 0.003070842 1.526209 0.2016063 0.06444518 1.593716 0.2401586 -0.02003736 1.59674 0.243971 -0.009408691 1.574304 0.2046461 -0.01700397 1.558127 0.2025967 -0.02091435 1.541941 0.2032136
15 0.04938968 1.495861 0.2142769 0.05881632 1.612799 0.2451727 -0.04367213 1.620454 0.2363408 0.01359732 1.551225 0.2130598 0.01302526 1.534674 0.2041001 0.003590735 1.526008 0.20133 0.06500681 1.59321 0.2418665 -0.02026515 1.596613 0.2429989 -0.008607239 1.573818 0.2040359 -0.01625661 1.557762 0.20192 -0.0203892 1.541728 0.2025593
16 0.04973327 1.495641 0.2149334 0.05992795 1.612184 0.2476321 -0.04372501 1.620241 0.2356294 0.01487792 1.550687 0.2132493 0.01414002 1.534291 0.2044666 0.004315876 1.525914 0.2010879 0.06575595 1.592534 0.2440024 -0.02030925 1.596438 0.2424401 -0.007389562 1.573375 0.2035787 -0.01503817 1.557425 0.2013054 -0.01960953 1.541676 0.2019552
17 0.05008266 1.495334 0.2155855 0.06057823 1.611499 0.2494259 -0.04353768 1.620094 0.2353991 0.01617772 1.550172 0.213581 0.01540412 1.533795 0.2049416 0.005119313 1.525745 0.2008517 0.0663816 1.591847 0.2457564 -0.02009361 1.596287 0.2420751 -0.00595499 1.572975 0.2031793 -0.0135684 1.557098 0.2007368 -0.0186602 1.541679 0.2013957
18 0.05048857 1.494831 0.2164045 0.0606645 1.610904 0.2503458 -0.04328262 1.619823 0.2351194 0.01770154 1.549335 0.2137878 0.01663593 1.533051 0.205413 0.005986174 1.525314 0.200528 0.0666688 1.591262 0.2469412 -0.01978948 1.596033 0.2416538 -0.004365583 1.572344 0.2026667 -0.01198602 1.556553 0.2001234 -0.01760061 1.541471 0.2008218
19 0.05086881 1.494191 0.2174423 0.06018928 1.610557 0.2503929 -0.04317511 1.619348 0.2343011 0.01925644 1.548293 0.2138127 0.01772668 1.532109 0.2058965 0.006809752 1.5247 0.2001979 0.06648779 1.590918 0.2475204 -0.01962702 1.595649 0.2409943 -0.002903332 1.571529 0.2020683 -0.01047901 1.555772 0.1994781 -0.01660856 1.541025 0.200245
20 0.05114029 1.493646 0.2185318 0.05944762 1.610277 0.2504525 -0.04302401 1.619033 0.2334567 0.02090734 1.547353 0.2137285 0.01869272 1.531387 0.2064396 0.007493036 1.524311 0.199881 0.06611402 1.590676 0.2481847 -0.01948181 1.595389 0.2404237 -0.001483124 1.570977 0.201603 -0.009015652 1.555238 0.1989162 -0.01569504 1.540846 0.1996907
21 0.05136469 1.493165 0.2196103 0.05887342 1.609768 0.2511561 -0.04271653 1.618891 0.2327886 0.02253665 1.546811 0.2137344 0.01976282 1.531069 0.2068562 0.00826292 1.524337 0.1993432 0.06596406 1.590254 0.2494356 -0.01918956 1.595264 0.2399441 0.0001323276 1.570818 0.2012172 -0.00741706 1.555137 0.1983292 -0.014667 1.54111 0.1990053
22 0.0514772 1.492947 0.2202699 0.058836 1.609063 0.253078 -0.04214423 1.619224 0.232657 0.0239643 1.546838 0.2140925 0.02099013 1.531381 0.207104 0.009104398 1.525069 0.1984511 0.0661068 1.589598 0.2515693 -0.01870766 1.595456 0.2397412 0.002061444 1.571218 0.2010092 -0.005671653 1.55573 0.1977523 -0.01355881 1.542127 0.1981799
23 0.05124347 1.492642 0.2208046 0.05910003 1.608014 0.2554654 -0.04172772 1.619607 0.2333099 0.02496786 1.546802 0.2147851 0.02197671 1.53163 0.2072769 0.009699775 1.525776 0.1977317 0.06637106 1.588555 0.2539054 -0.01825492 1.595685 0.2398718 0.003908531 1.571555 0.2009858 -0.004226431 1.556435 0.1973727 -0.01266926 1.543227 0.1975353
24 0.05085734 1.492281 0.2211136 0.05935157 1.606815 0.2574678 -0.04134522 1.619956 0.2341648 0.02576764 1.546712 0.215392 0.02279261 1.531669 0.2073844 0.01022744 1.526156 0.197249 0.06664342 1.587375 0.2558225 -0.01779306 1.595897 0.2400538 0.005471219 1.571732 0.2009237 -0.003019638 1.556954 0.1970416 -0.01186376 1.544061 0.1969746
25 0.05059631 1.491952 0.2212753 0.05954015 1.605673 0.2588626 -0.04084308 1.620287 0.2350183 0.02655947 1.546526 0.215869 0.0235712 1.531523 0.2074482 0.01078305 1.526326 0.1969816 0.06698065 1.586289 0.2572351 -0.01722257 1.5961 0.2402341 0.006883579 1.571725 0.2008047 -0.001908113 1.557241 0.1967542 -0.01107311 1.544609 0.1965199
26 0.05041344 1.491605 0.22127 0.05975802 1.604542 0.2598072 -0.0402918 1.620481 0.2355446 0.02739139 1.546194 0.2161296 0.02427826 1.531247 0.2073758 0.01127496 1.526448 0.1966149 0.06738348 1.585225 0.2582344 -0.01661552 1.596217 0.2402879 0.008167465 1.571554 0.2005703 -0.0009161312 1.557347 0.1964215 -0.01042103 1.544989 0.1960883
27 0.05034447 1.491313 0.2212407 0.05993181 1.60371 0.2603148 -0.03989449 1.620493 0.2358184 0.02812589 1.545872 0.2162104 0.02478551 1.530968 0.2073207 0.01167269 1.526524 0.1962669 0.0677195 1.58445 0.2588218 -0.01614599 1.59622 0.2402911 0.009122331 1.571349 0.2003317 -0.0001550873 1.557326 0.1961371 -0.009946234 1.545198 0.1957583
28 0.05023132 1.491091 0.2214472 0.06001051 1.603138 0.2606985 -0.03969387 1.620481 0.2361269 0.02870577 1.545549 0.2163638 0.02515808 1.530703 0.20745 0.01188058 1.526613 0.1961097 0.06788064 1.5839 0.2593263 -0.01591251 1.596191 0.240474 0.009761993 1.571135 0.2002586 0.0003632234 1.557226 0.196044 -0.009725985 1.545339 0.1956469
29 0.05004306 1.49088 0.2217277 0.05990666 1.602724 0.2611234 -0.03962301 1.620433 0.2363933 0.02899698 1.545271 0.2165763 0.02530964 1.530493 0.2076938 0.01186704 1.526733 0.1960879 0.06780872 1.583491 0.2598371 -0.01586445 1.596105 0.2407494 0.01008613 1.570989 0.2003823 0.0006336333 1.557135 0.1961329 -0.009724723 1.54546 0.1957137
30 0.0499233 1.490683 0.2219931 0.05982073 1.602405 0.2615371 -0.03949501 1.62038 0.2365346 0.0292054 1.545057 0.2167828 0.02543676 1.530359 0.207965 0.01187181 1.526874 0.1961296 0.0677279 1.583169 0.2603067 -0.01580356 1.596002 0.2410052 0.01032601 1.570912 0.2005851 0.0008609113 1.557076 0.1962864 -0.009719327 1.545574 0.1958329
31 0.04991434 1.490426 0.2221629 0.05982472 1.602097 0.2618062 -0.03927033 1.620246 0.2364771 0.02943857 1.544769 0.2169189 0.02561021 1.530167 0.2081744 0.01193074 1.526892 0.1961574 0.06771018 1.582849 0.2606181 -0.01568136 1.595808 0.2411505 0.01055796 1.570757 0.2007618 0.001095136 1.556925 0.1964143 -0.009660535 1.545558 0.1959291
32 0.04995326 1.490185 0.2222144 0.05985348 1.601935 0.2617337 -0.03913643 1.620057 0.2359624 0.02954892 1.544479 0.2169037 0.0256862 1.529914 0.2082802 0.01194472 1.526703 0.1961458 0.06769847 1.582667 0.2606039 -0.01566757 1.595574 0.240989 0.01062655 1.570513 0.2007605 0.00120291 1.556649 0.1963944 -0.009645673 1.545353 0.1958971
33 0.04998593 1.489936 0.2223332 0.05982715 1.601882 0.2614694 -0.03920005 1.619804 0.2352936 0.02948865 1.544155 0.2168602 0.0256018 1.529565 0.2084178 0.01190732 1.526312 0.1961584 0.06762306 1.582586 0.2604572 -0.01584293 1.595283 0.240668 0.01053722 1.570155 0.2006634 0.001197243 1.556226 0.1962923 -0.009684845 1.544954 0.1957827
34 0.05005697 1.489724 0.2225557 0.05966143 1.602119 0.2608009 -0.03952543 1.619484 0.2343165 0.02931726 1.543836 0.2167527 0.02544496 1.529129 0.2085182 0.01183518 1.525681 0.1961639 0.06741541 1.582794 0.2600341 -0.01624814 1.594958 0.2400468 0.01027412 1.569671 0.2003952 0.001086051 1.555623 0.1960493 -0.009760774 1.544325 0.1955451
35 0.05003882 1.489599 0.222856 0.05942903 1.602454 0.2602264 -0.03991438 1.619286 0.2336258 0.02909687 1.543633 0.2166739 0.02526155 1.528793 0.2086059 0.01170301 1.525084 0.1963068 0.06714712 1.583106 0.2596825 -0.01668426 1.594757 0.2395609 0.009926724 1.569303 0.2001869 0.0008964901 1.555129 0.1958802 -0.009856416 1.543762 0.1953874
36 0.04987425 1.489415 0.2232177 0.05902676 1.602742 0.2596106 -0.04036371 1.619077 0.2329954 0.02872651 1.543368 0.2166319 0.02495152 1.528373 0.2087577 0.01140754 1.524382 0.1966249 0.06673637 1.583383 0.2592801 -0.01716997 1.594549 0.2391273 0.009433145 1.568875 0.2000413 0.0005624343 1.554563 0.1958065 -0.0100837 1.543117 0.1953436
37 0.0496467 1.489199 0.2236089 0.05831019 1.60303 0.2588967 -0.041033 1.618663 0.2322935 0.02817556 1.543026 0.2166133 0.02438373 1.527866 0.209018 0.01096626 1.523528 0.1970744 0.06609077 1.583693 0.258764 -0.01784762 1.594202 0.2387714 0.008692081 1.568335 0.1999561 -1.079017E-05 1.553872 0.1958346 -0.01049126 1.542301 0.1954367
38 0.04954277 1.489093 0.2239255 0.05747053 1.603366 0.2582888 -0.04190681 1.618034 0.2315094 0.02762599 1.542785 0.216603 0.02385077 1.527493 0.2092536 0.01069075 1.522813 0.1975012 0.06538251 1.584081 0.2583357 -0.01869852 1.593734 0.2385005 0.007900091 1.567872 0.199915 -0.0006120654 1.553261 0.195872 -0.01086427 1.541505 0.1955015
39 0.04966977 1.489155 0.224076 0.05678646 1.603737 0.2578633 -0.0426546 1.617403 0.2307045 0.02726976 1.542693 0.216592 0.02350487 1.527331 0.2094269 0.0106425 1.522377 0.1978156 0.06482945 1.584506 0.2580372 -0.01943707 1.593288 0.2382748 0.00727872 1.567589 0.1999284 -0.001047972 1.552854 0.1959097 -0.01107101 1.540907 0.1955253
40 0.04996457 1.48943 0.2240258 0.05641216 1.604234 0.257675 -0.04294665 1.617133 0.2301892 0.02726628 1.54285 0.2165612 0.02340392 1.527511 0.2095605 0.01087623 1.522363 0.1980513 0.06454097 1.58504 0.2578492 -0.01975987 1.593146 0.2381976 0.007004712 1.567643 0.2000012 -0.001192681 1.552829 0.1959768 -0.01101315 1.540708 0.1955627
41 0.05008471 1.489616 0.2240134 0.05589115 1.604557 0.2576157 -0.0432637 1.616905 0.2300539 0.02710161 1.542961 0.2166021 0.02318106 1.527648 0.2097093 0.01089149 1.522372 0.1983021 0.06412438 1.585407 0.2577722 -0.0201042 1.592998 0.2383216 0.006629888 1.567686 0.2001726 -0.00146974 1.552812 0.1961389 -0.0111299 1.540554 0.195705
42 0.05005343 1.489724 0.2241808 0.05531386 1.604882 0.2573762 -0.04373159 1.616634 0.2300113 0.02679818 1.543015 0.2166544 0.02280539 1.527677 0.2099159 0.01073024 1.522276 0.198575 0.06363091 1.58577 0.2575966 -0.02055969 1.592821 0.2384658 0.006139581 1.567627 0.2002929 -0.001853264 1.552674 0.1962928 -0.0113955 1.540311 0.195882
43 0.050241 1.489828 0.2245729 0.05441672 1.605475 0.2567683 -0.04458949 1.615865 0.2296404 0.02631543 1.543083 0.2165598 0.02243662 1.527599 0.2100931 0.01053888 1.522011 0.1989041 0.06285821 1.586422 0.2570822 -0.02129016 1.592332 0.2384167 0.005263238 1.567344 0.2003055 -0.002463013 1.552175 0.1964459 -0.011846 1.539652 0.1961633
44 0.05046885 1.489944 0.2249813 0.05393978 1.605534 0.2566217 -0.04505674 1.615402 0.2295721 0.02596051 1.542934 0.216631 0.02213737 1.527388 0.2102716 0.01029605 1.521727 0.1991497 0.06242046 1.5865 0.2569772 -0.02172244 1.591971 0.2384979 0.004757416 1.567056 0.2004238 -0.002861337 1.5518 0.1966215 -0.01218448 1.539218 0.1963921
45 0.05129243 1.490164 0.2252483 0.05330296 1.606285 0.2557704 -0.04552655 1.614369 0.2284071 0.02551073 1.543076 0.2163854 0.02196784 1.52726 0.2103076 0.01035449 1.521277 0.1994367 0.06185735 1.587289 0.2561753 -0.02225269 1.59126 0.238164 0.0037776 1.566671 0.2004475 -0.003426432 1.551112 0.1968148 -0.01244527 1.538276 0.196763
46 0.05186462 1.490531 0.2251054 0.05322907 1.607421 0.2553835 -0.0452475 1.614334 0.2272648 0.02522277 1.543774 0.2159152 0.02200807 1.527759 0.2099133 0.01057849 1.521464 0.1994042 0.06168331 1.588382 0.2555089 -0.02227683 1.591318 0.2377988 0.003046037 1.56692 0.2003686 -0.003846469 1.551146 0.1968609 -0.01248893 1.538029 0.1969779
47 0.05221138 1.490763 0.2250858 0.05333847 1.607858 0.2555161 -0.04506026 1.61436 0.2269143 0.02505263 1.543986 0.2158708 0.0219548 1.527912 0.2098129 0.0105707 1.521461 0.1995078 0.06169364 1.588778 0.2553761 -0.02222725 1.591361 0.2377442 0.002684676 1.566916 0.2004863 -0.004155199 1.551105 0.1970542 -0.01260185 1.537857 0.1972795
48 0.05247162 1.490944 0.2250633 0.0533624 1.608124 0.2555786 -0.04500369 1.614294 0.226639 0.02487244 1.544092 0.2158554 0.02183675 1.527971 0.209755 0.01049132 1.521405 0.199591 0.06165386 1.589021 0.2552617 -0.02224591 1.591335 0.2376835 0.00235542 1.566858 0.200582 -0.004455631 1.551027 0.1972101 -0.01275921 1.537684 0.1975213
49 0.05265642 1.490934 0.2252618 0.05313063 1.6084 0.2552121 -0.04521044 1.613902 0.2265578 0.02446661 1.544069 0.2158511 0.0215658 1.527853 0.2097477 0.01026364 1.521167 0.1998055 0.06138153 1.589283 0.2548631 -0.02248068 1.591039 0.2378021 0.001715479 1.566617 0.2007685 -0.004994169 1.550714 0.1974844 -0.0131162 1.53724 0.1979094
50 0.05298426 1.490947 0.2255551 0.05283903 1.608799 0.2546887 -0.04544933 1.613388 0.2266312 0.02395096 1.544104 0.2158958 0.02130324 1.527764 0.2097902 0.01005038 1.52094 0.2001087 0.06104479 1.589665 0.2543654 -0.02275965 1.590622 0.2380955 0.0008961977 1.566388 0.2011248 -0.005620192 1.550359 0.1979175 -0.01350854 1.536718 0.1984572
51 0.05342999 1.490985 0.2256239 0.05281967 1.609178 0.2541188 -0.04544683 1.612959 0.2267503 0.0236324 1.544145 0.2158374 0.02119678 1.527747 0.2097504 0.009999407 1.520765 0.200349 0.06094197 1.590012 0.253766 -0.02281013 1.590266 0.2384313 0.0002262113 1.566259 0.201511 -0.006106706 1.550104 0.1983576 -0.01372587 1.536291 0.1989854
52 0.05383495 1.491 0.2255004 0.05285294 1.609441 0.2535899 -0.04538796 1.612525 0.2266484 0.02345595 1.544101 0.2156673 0.02113545 1.527709 0.2096572 0.009981385 1.520557 0.2005234 0.06091275 1.590251 0.2531559 -0.0227927 1.589939 0.238608 -0.0003188151 1.566113 0.201809 -0.006502299 1.549852 0.1987052 -0.013874 1.535895 0.1994036
53 0.05411166 1.490947 0.2252342 0.05277592 1.609516 0.253229 -0.04547465 1.61198 0.2262124 0.02331997 1.54393 0.2153865 0.02105619 1.527554 0.2095079 0.009925337 1.520243 0.200573 0.06081475 1.59032 0.2526653 -0.02288853 1.58955 0.2384927 -0.0007978018 1.565849 0.2019072 -0.006838777 1.549494 0.1988481 -0.01402657 1.535444 0.1995969
54 0.05428507 1.490929 0.2249219 0.05259624 1.609539 0.2529933 -0.04580992 1.611396 0.225642 0.02317361 1.543729 0.2150298 0.02094218 1.527362 0.2093058 0.009854084 1.519893 0.2005088 0.06063337 1.590347 0.2522736 -0.02314003 1.589167 0.2381592 -0.001216997 1.565532 0.2017837 -0.007139916 1.549104 0.1987806 -0.01418446 1.534991 0.1995774
55 0.05440021 1.490979 0.224712 0.05233844 1.609603 0.252811 -0.04646668 1.610729 0.2252498 0.02299983 1.543609 0.2146554 0.02080331 1.527238 0.2090556 0.009721693 1.519626 0.2004386 0.06042694 1.590436 0.2519737 -0.02353359 1.588788 0.2378147 -0.001626917 1.565268 0.2015693 -0.007461871 1.548786 0.1986399 -0.01438709 1.534618 0.1995026
56 0.05458543 1.491043 0.2246048 0.05225205 1.609679 0.2526641 -0.04698944 1.610139 0.2251071 0.0229812 1.543503 0.2143708 0.02074958 1.527132 0.2088686 0.009692017 1.519386 0.2004546 0.0603568 1.590524 0.2517147 -0.02375705 1.588476 0.2376116 -0.001858281 1.565047 0.2014222 -0.007669435 1.548541 0.1985871 -0.01446907 1.534313 0.1995336
57 0.05479923 1.49101 0.2245977 0.05223852 1.60964 0.2525654 -0.04725314 1.609687 0.2251177 0.02307976 1.543342 0.2141468 0.02075781 1.526973 0.2087435 0.009733245 1.519125 0.2005341 0.06037677 1.590502 0.2515378 -0.02379049 1.588209 0.2375212 -0.001957861 1.564798 0.2013419 -0.007781672 1.548285 0.198609 -0.01447151 1.534001 0.1996462
58 0.05497607 1.490897 0.2246507 0.05219963 1.609485 0.2525121 -0.04734011 1.609348 0.2251094 0.02323292 1.543106 0.2139728 0.0207902 1.526733 0.2086914 0.009796293 1.518795 0.2006482 0.06040783 1.590378 0.2514432 -0.02373248 1.587983 0.2374545 -0.001979254 1.564503 0.2012933 -0.007827241 1.547987 0.1986656 -0.01443135 1.533666 0.1997929
59 0.05507195 1.49068 0.2247402 0.05204888 1.609234 0.2524324 -0.04739915 1.608967 0.2248783 0.02332267 1.542762 0.2137571 0.02075454 1.526363 0.2086441 0.009781718 1.518359 0.2007278 0.06033387 1.59016 0.251332 -0.02372003 1.587705 0.237289 -0.00205816 1.564102 0.2011994 -0.007910876 1.547572 0.1986872 -0.01446267 1.533234 0.1999159
60 0.05515688 1.490515 0.224876 0.05178513 1.609015 0.252487 -0.04754398 1.608598 0.224898 0.02339214 1.542456 0.2136288 0.02068038 1.526047 0.2086739 0.009744729 1.517994 0.2008429 0.0601647 1.589981 0.2513426 -0.0237851 1.587428 0.237335 -0.002177461 1.563742 0.201221 -0.008033709 1.547205 0.1988045 -0.01453466 1.532851 0.2001178
61 0.05524496 1.490416 0.2250192 0.05147265 1.608866 0.2526456 -0.04779011 1.608239 0.2254545 0.02342858 1.542238 0.2136438 0.02057263 1.525883 0.2087649 0.009676848 1.517785 0.2010348 0.05994762 1.589876 0.2514534 -0.02391571 1.587137 0.2377967 -0.002366391 1.563502 0.2014751 -0.00824707 1.546974 0.1991098 -0.01465854 1.532577 0.2004706
62 0.05528851 1.490347 0.2251006 0.05119814 1.608792 0.2526472 -0.0480482 1.607914 0.2263883 0.02334853 1.542109 0.2138198 0.02037495 1.525845 0.2089382 0.009517081 1.517695 0.201331 0.05975926 1.58984 0.2514566 -0.02404309 1.58686 0.2385534 -0.002636884 1.563396 0.2019467 -0.00856095 1.546885 0.199593 -0.01485474 1.532427 0.200968
63 0.05532034 1.490207 0.2249568 0.05087167 1.608751 0.252166 -0.04851056 1.607386 0.2276827 0.02317463 1.541848 0.2139467 0.02006713 1.525733 0.2090134 0.009310855 1.517518 0.2015921 0.05949026 1.589824 0.2510166 -0.0242637 1.586397 0.2394635 -0.003016887 1.563182 0.202418 -0.009009849 1.546703 0.200068 -0.01512105 1.532144 0.2014338
64 0.05540554 1.49009 0.2247795 0.05061838 1.608885 0.2512965 -0.04910643 1.606737 0.2288596 0.02300378 1.541521 0.2139752 0.01975998 1.525562 0.2090029 0.009153818 1.517253 0.2017967 0.05920827 1.589944 0.2502121 -0.02454591 1.585869 0.2401938 -0.00341498 1.562867 0.2027524 -0.009469024 1.546416 0.2004367 -0.01535755 1.531739 0.2018071
65 0.05557884 1.490107 0.224604 0.05035461 1.609266 0.250075 -0.04965688 1.606158 0.2297798 0.02289219 1.54126 0.2139013 0.01950672 1.525474 0.2088857 0.009088784 1.517039 0.2019401 0.05889416 1.590298 0.249098 -0.02480478 1.585446 0.2407621 -0.003785664 1.562587 0.2029746 -0.009914064 1.54617 0.2007293 -0.01553116 1.531356 0.2021246
66 0.05584885 1.490304 0.2243704 0.050065 1.609873 0.2485354 -0.05007794 1.605734 0.2305201 0.02278037 1.541157 0.2137053 0.01928066 1.52554 0.2086631 0.009030771 1.516993 0.2020173 0.05855403 1.590877 0.2477052 -0.02498562 1.585189 0.2412567 -0.004170723 1.56246 0.2031376 -0.01035781 1.546059 0.2009834 -0.01570546 1.531108 0.2024243
67 0.05613519 1.490732 0.2238335 0.04963203 1.610717 0.2466945 -0.05053339 1.605375 0.2316143 0.02240756 1.541325 0.2134835 0.01888035 1.525877 0.2084071 0.008800434 1.517203 0.2021722 0.05809883 1.59171 0.2459752 -0.02516729 1.585019 0.2420423 -0.004865102 1.562587 0.20352 -0.01106297 1.546163 0.2014509 -0.01607033 1.531039 0.2029197
68 0.05636035 1.491114 0.2232259 0.04906384 1.611476 0.2451128 -0.05103723 1.604891 0.2330837 0.02181671 1.541386 0.2135496 0.01834084 1.526099 0.2083979 0.008450679 1.517302 0.2026238 0.05744934 1.592437 0.2443731 -0.02538423 1.584708 0.2431199 -0.005717135 1.562613 0.2042245 -0.0119102 1.546158 0.2022257 -0.01653834 1.530845 0.2036816
69 0.05645398 1.49137 0.2226357 0.04828251 1.612115 0.2435406 -0.05166971 1.60412 0.2344029 0.021023 1.541253 0.2138077 0.01762555 1.526103 0.2086364 0.007983906 1.517176 0.2033482 0.05654568 1.593028 0.242722 -0.02570111 1.584203 0.2441243 -0.006743376 1.56241 0.2051072 -0.01291386 1.54591 0.2032136 -0.01713419 1.530405 0.2046617
70 0.05641921 1.491522 0.2221293 0.04718843 1.612681 0.2416644 -0.05230376 1.60322 0.2352071 0.02017712 1.54094 0.2140411 0.01685968 1.525914 0.208992 0.007509552 1.516883 0.2042247 0.05530131 1.593534 0.2408021 -0.02606561 1.583648 0.2448681 -0.007844971 1.562024 0.2059873 -0.01397173 1.545454 0.2042559 -0.01777892 1.529765 0.2057296
71 0.05639767 1.491761 0.2217379 0.04621083 1.613202 0.239951 -0.05279648 1.602571 0.2357474 0.01946842 1.540775 0.2140825 0.0162717 1.52581 0.2092193 0.007128937 1.516718 0.204941 0.05415315 1.593988 0.2390317 -0.02629556 1.583349 0.2453647 -0.008768735 1.561814 0.2066583 -0.01482235 1.545152 0.2051107 -0.01830228 1.529324 0.2066504
72 0.05638687 1.492065 0.2212306 0.04546604 1.613709 0.238464 -0.05322134 1.602083 0.2364584 0.01886982 1.540719 0.2139873 0.01579754 1.52579 0.209315 0.00677611 1.516671 0.2055347 0.05318224 1.594413 0.23738 -0.02638426 1.583214 0.2458285 -0.009561429 1.561723 0.2072027 -0.01555018 1.544975 0.2058684 -0.01876851 1.529043 0.2075097
73 0.05641021 1.492497 0.2205196 0.04502 1.614298 0.2371016 -0.05363383 1.601645 0.2372009 0.01832853 1.540736 0.2138227 0.01532417 1.525815 0.2093813 0.006362168 1.516684 0.2061294 0.05242214 1.594902 0.2357067 -0.02639329 1.58319 0.2462215 -0.0103064 1.561653 0.2076716 -0.01624144 1.544849 0.2066073 -0.01926031 1.528862 0.2083974
74 0.05638344 1.492971 0.2196672 0.04467133 1.614872 0.2358353 -0.05407421 1.601211 0.2381528 0.01786466 1.540671 0.2137241 0.01483687 1.525759 0.209587 0.005950808 1.516654 0.2068259 0.05171929 1.595377 0.2341004 -0.02641824 1.583161 0.2467153 -0.01101842 1.561458 0.2081501 -0.01690845 1.544634 0.2073841 -0.01977156 1.528629 0.2093456
75 0.05631857 1.493484 0.2187473 0.044032 1.615484 0.2339488 -0.05464097 1.600559 0.2391292 0.01724176 1.540467 0.213651 0.01416167 1.525487 0.2100255 0.005436928 1.516418 0.2078518 0.05077051 1.595907 0.2319953 -0.02652358 1.583033 0.2472629 -0.01202954 1.561 0.2088054 -0.0177798 1.544133 0.2084505 -0.02042746 1.528114 0.210675
76 0.05625847 1.493929 0.218006 0.04329704 1.616081 0.231598 -0.05517684 1.599835 0.2401321 0.01645847 1.540115 0.2135812 0.01338353 1.524981 0.2107044 0.00493728 1.515918 0.2091626 0.04968804 1.596403 0.2295558 -0.02662148 1.582869 0.2479105 -0.0132955 1.560323 0.2096907 -0.01874498 1.543351 0.2098216 -0.02108291 1.527317 0.2123863
77 0.05625542 1.494417 0.2172302 0.04220379 1.616726 0.2284104 -0.05559798 1.599226 0.241235 0.01564945 1.539641 0.2134517 0.01264135 1.524327 0.2115564 0.004549639 1.515267 0.2106948 0.04835593 1.596961 0.2264883 -0.02662372 1.582794 0.2486194 -0.01467034 1.559464 0.2107479 -0.01968065 1.542359 0.2114284 -0.02163408 1.526338 0.2143993
78 0.05635109 1.494872 0.2165285 0.04088539 1.617199 0.2249683 -0.05585388 1.598764 0.2428142 0.01510711 1.539081 0.2134382 0.0122169 1.523626 0.2125197 0.004361141 1.514587 0.2123196 0.04714477 1.597434 0.2233733 -0.0264491 1.582773 0.2495449 -0.01576749 1.558523 0.2118907 -0.02032685 1.541317 0.2131107 -0.02194816 1.525371 0.2165087
79 0.05658068 1.495287 0.2158289 0.03939231 1.617458 0.2214646 -0.05607674 1.598219 0.2454334 0.01476977 1.538416 0.2133996 0.01198648 1.522879 0.21348 0.004265462 1.513797 0.2138885 0.0461253 1.597813 0.2202541 -0.02615323 1.582616 0.2508655 -0.01671271 1.557381 0.2131209 -0.02080089 1.540124 0.2148819 -0.02209036 1.524312 0.2187224
80 0.05679235 1.49573 0.2150961 0.03786132 1.617613 0.2184355 -0.05624022 1.597644 0.2482117 0.01446039 1.5379 0.2134793 0.01185347 1.522346 0.2143303 0.004161553 1.51317 0.2152042 0.04529127 1.598192 0.2175572 -0.02586644 1.582396 0.2522608 -0.01751219 1.556399 0.2143944 -0.02116045 1.539109 0.2165775 -0.02216208 1.523443 0.2207799
81 0.0567704 1.496128 0.2143441 0.03628986 1.617714 0.2159476 -0.05646117 1.597136 0.2504056 0.01399542 1.537565 0.2136136 0.01157088 1.522009 0.2149962 0.003866779 1.512709 0.216156 0.04437784 1.598536 0.215311 -0.02577388 1.582182 0.2533954 -0.01829089 1.555667 0.2154949 -0.02157547 1.538353 0.2179609 -0.02235038 1.522813 0.2224185
82 0.05665543 1.496531 0.213573 0.03476275 1.617888 0.2135516 -0.05666836 1.596645 0.2521383 0.01340518 1.537374 0.2139045 0.01120038 1.521797 0.215554 0.003490311 1.512363 0.2169638 0.04329398 1.598884 0.2131437 -0.02574322 1.581976 0.2543896 -0.01905818 1.555095 0.2165945 -0.0220289 1.537762 0.219271 -0.02256629 1.52231 0.2239048
83 0.05652324 1.496884 0.2128356 0.03346208 1.618182 0.2111902 -0.05678092 1.596147 0.253592 0.01273633 1.537199 0.2143176 0.01071741 1.521604 0.2161348 0.003060726 1.512017 0.2177268 0.04203672 1.599182 0.2110046 -0.02566869 1.581751 0.2553644 -0.01980694 1.55458 0.2178123 -0.02250618 1.537238 0.2206724 -0.02276503 1.521836 0.2254243
84 0.05638113 1.497263 0.2120137 0.0324931 1.618562 0.2094048 -0.05667537 1.595792 0.2548203 0.01218619 1.537118 0.2148105 0.01031806 1.521537 0.2166987 0.0026716 1.511806 0.2184033 0.0409083 1.599482 0.2093539 -0.02543282 1.581606 0.2563369 -0.02033965 1.554273 0.2190545 -0.02283698 1.536921 0.2220257 -0.02287773 1.521552 0.2268365
85 0.05620966 1.497732 0.211041 0.03133243 1.619065 0.2077077 -0.05634774 1.595508 0.256164 0.01173478 1.53715 0.2154672 0.009992586 1.521623 0.2173488 0.002242777 1.511776 0.2192103 0.03949996 1.599867 0.2077611 -0.02498561 1.581515 0.2575051 -0.02071476 1.5541 0.220538 -0.02305124 1.53675 0.2235738 -0.0229525 1.521426 0.2284291
86 0.05600541 1.498165 0.2099926 0.02992535 1.619484 0.2056802 -0.05614886 1.594974 0.2574981 0.01149757 1.537022 0.2161334 0.009755 1.521607 0.2180276 0.001900175 1.511634 0.220096 0.03773816 1.600129 0.2059179 -0.02462736 1.581241 0.2585613 -0.02098355 1.553604 0.2219588 -0.02322688 1.53633 0.2251613 -0.02297061 1.521076 0.2301006
87 0.05594109 1.498558 0.2089773 0.02904951 1.619991 0.203765 -0.0559916 1.594227 0.2594032 0.01140242 1.536622 0.2166261 0.009656801 1.521333 0.2185759 0.001837827 1.511223 0.2209431 0.03585323 1.600253 0.2041523 -0.02429481 1.580781 0.2595983 -0.02122396 1.552661 0.2232985 -0.02331869 1.535507 0.2268159 -0.02275216 1.520336 0.2318878
88 0.05581714 1.498952 0.2077193 0.02800751 1.620352 0.2006365 -0.05584969 1.593102 0.2616236 0.01123107 1.535975 0.2168691 0.009608877 1.52088 0.2191671 0.002028337 1.51069 0.222087 0.03333488 1.600171 0.2014141 -0.02388299 1.580276 0.2605568 -0.02157652 1.551293 0.2248101 -0.02333412 1.534306 0.2288905 -0.02224121 1.519287 0.234236
89 0.05541319 1.499245 0.2063381 0.02653835 1.620385 0.1972454 -0.05551405 1.591799 0.2637508 0.01086788 1.535297 0.2169102 0.009432023 1.520476 0.2197445 0.002274412 1.510272 0.2234485 0.03051638 1.599906 0.1985985 -0.02320448 1.579875 0.2617076 -0.0219436 1.549965 0.2268089 -0.02325323 1.53316 0.2315299 -0.02149163 1.518315 0.2371169
90 0.05470955 1.499728 0.2041837 0.02511391 1.620634 0.1940001 -0.05464091 1.590426 0.2663414 0.01045182 1.534804 0.21654 0.009136082 1.520353 0.2199286 0.002521571 1.510188 0.2247068 0.02782875 1.599956 0.1958886 -0.02197633 1.579553 0.2632454 -0.02205283 1.548895 0.2292251 -0.02289838 1.532302 0.2345811 -0.02039119 1.517611 0.2402778
91 0.05405203 1.500284 0.201602 0.02336112 1.621033 0.1919905 -0.05333163 1.588903 0.2692522 0.009330264 1.534394 0.2163154 0.008530607 1.520233 0.2200303 0.003062043 1.510173 0.2257468 0.02541475 1.60026 0.193887 -0.02046761 1.579093 0.2645286 -0.0222069 1.547898 0.232067 -0.02222371 1.531421 0.2379126 -0.01865562 1.516814 0.2434217
92 0.0534445 1.50125 0.1990952 0.01883831 1.621132 0.1917427 -0.05281334 1.58665 0.2716033 0.008015783 1.533809 0.2163441 0.008341893 1.519974 0.2202714 0.004047747 1.509928 0.2272685 0.02205759 1.600431 0.1926894 -0.01978029 1.578421 0.264882 -0.02228192 1.546631 0.2350259 -0.02094937 1.530306 0.2412811 -0.01622299 1.51606 0.2468318
93 0.05244088 1.502391 0.1978524 0.01209218 1.62023 0.193899 -0.05289482 1.584874 0.2752523 0.006003838 1.533168 0.2172607 0.008187879 1.519749 0.2211598 0.004848174 1.509307 0.2295004 0.01821099 1.600245 0.1925528 -0.02029019 1.57793 0.2655055 -0.02299256 1.545349 0.2383919 -0.01982358 1.529173 0.2446821 -0.0139404 1.515633 0.2505632
94 0.05092527 1.504149 0.1975468 0.007450693 1.620149 0.1972623 -0.05256779 1.586474 0.2788221 0.003619889 1.533596 0.2190147 0.007350582 1.520506 0.2226399 0.004953715 1.509713 0.2324285 0.01486789 1.600924 0.1935856 -0.0210753 1.579177 0.2663526 -0.02412413 1.545605 0.2418426 -0.01943843 1.529524 0.2479024 -0.01267679 1.516647 0.2540929
95 0.0489925 1.506776 0.1976565 0.004565891 1.621839 0.1994737 -0.05246702 1.589817 0.2819029 0.0009380315 1.53525 0.2213917 0.005552695 1.522203 0.2242603 0.004137749 1.511489 0.2354402 0.01198554 1.602799 0.1950098 -0.02218837 1.581673 0.2674158 -0.02563078 1.547196 0.2454294 -0.0197504 1.531204 0.2512745 -0.01219842 1.518878 0.2576949
96 0.0465016 1.508988 0.1964987 0.002550024 1.623888 0.1973124 -0.05216745 1.592616 0.2839722 -0.002900335 1.537072 0.2244335 0.00186977 1.524719 0.2294261 0.002246185 1.514245 0.2404184 0.008205397 1.603934 0.1952671 -0.0235747 1.583404 0.2675772 -0.02783992 1.548738 0.2493336 -0.02131102 1.5332 0.2562604 -0.01233981 1.52086 0.2622696
97 0.04531354 1.50914 0.1961377 0.0008455637 1.623021 0.1935972 -0.05024045 1.59546 0.2857808 -0.006738218 1.537652 0.2292327 -0.002171622 1.526897 0.2381664 0.0007121792 1.516227 0.2473488 0.004542266 1.602654 0.1951945 -0.02395102 1.584331 0.2674991 -0.02937515 1.549595 0.2539225 -0.0220005 1.534909 0.2636752 -0.0113167 1.521607 0.2685185
98 0.04411286 1.507521 0.1971305 -0.001846827 1.619137 0.1890854 -0.04470914 1.601004 0.2884316 -0.0103377 1.536957 0.2343062 -0.00708459 1.528984 0.2492194 -0.001418213 1.518544 0.2592852 0.0006361943 1.599354 0.1946794 -0.02183219 1.586735 0.2684577 -0.02915768 1.550352 0.2592779 -0.01987429 1.53846 0.2744772 -0.006674148 1.523438 0.2806869
99 0.04265484 1.506699 0.1976599 -0.008054778 1.614937 0.1864517 -0.04060397 1.604994 0.2896824 -0.01775491 1.537846 0.2420019 -0.01706703 1.532088 0.2641326 -0.005507972 1.519169 0.2756357 -0.005028541 1.59625 0.1946858 -0.01916357 1.589193 0.2697714 -0.02794921 1.55354 0.2672623 -0.01192684 1.545662 0.2885807 0.004076291 1.525621 0.2933513
100 0.04037271 1.50743 0.1980383 -0.01623361 1.612693 0.1873801 -0.03479084 1.611864 0.2907741 -0.02444931 1.542299 0.2526624 -0.02244625 1.539224 0.2797384 -0.005621201 1.524814 0.2911393 -0.01139977 1.594553 0.1957554 -0.01595549 1.593924 0.2705247 -0.02502546 1.560507 0.2752497 -0.00344161 1.553329 0.295641 0.01406441 1.530187 0.2991479
101 0.03783686 1.509113 0.1961783 -0.02390852 1.612587 0.1910655 -0.03056301 1.613875 0.2927175 -0.02271536 1.544521 0.2549501 -0.01951288 1.541962 0.2818323 -0.003997443 1.530598 0.2945497 -0.01686382 1.594312 0.1971701 -0.01322285 1.596918 0.2707798 -0.02233157 1.563267 0.276926 0.0008653345 1.55786 0.2955978 0.01903534 1.535905 0.2984472
102 0.03514523 1.511049 0.1934022 -0.03083061 1.612561 0.1910083 -0.03278309 1.611119 0.2923113 -0.0151073 1.543848 0.2479438 -0.01542981 1.541374 0.2739608 -0.002671903 1.53375 0.2862553 -0.02221157 1.594323 0.1943057 -0.01368037 1.598716 0.2690037 -0.0216076 1.56115 0.2720222 0.0006809547 1.560471 0.2908266 0.01903244 1.542034 0.293432
103 0.0334129 1.511252 0.1937049 -0.03603616 1.610604 0.1914879 -0.03460346 1.607874 0.2926315 -0.007719347 1.544233 0.2416101 -0.009604876 1.540371 0.2664021 0.0003056382 1.535188 0.2776218 -0.02644716 1.592591 0.1929191 -0.01428298 1.599888 0.2680985 -0.01991036 1.55834 0.26701 -0.0009142737 1.561084 0.2865482 0.01751305 1.546816 0.2897131
104 0.03329211 1.510071 0.1958584 -0.03996399 1.606784 0.1951313 -0.03134212 1.605606 0.2968937 -0.00411319 1.541008 0.2369942 -0.002039669 1.536599 0.2590531 0.005849906 1.533857 0.2710322 -0.02960253 1.589053 0.1944821 -0.01288213 1.599166 0.2698858 -0.01661899 1.554662 0.2645065 -0.001714835 1.556606 0.2825908 0.01686536 1.54744 0.2874795
105 0.0344501 1.508357 0.1976589 -0.04245439 1.602422 0.1983592 -0.02807916 1.605044 0.2998352 -0.006393697 1.533153 0.2340346 0.002491173 1.529107 0.2517296 0.01175562 1.531524 0.2663255 -0.03152203 1.585001 0.1963538 -0.0114983 1.597859 0.2712887 -0.01364022 1.551826 0.2646514 -0.0006949637 1.550327 0.2789019 0.01736304 1.5458 0.2856143
106 0.03535743 1.507259 0.199655 -0.04630015 1.596219 0.2056986 -0.02248063 1.610916 0.301376 -0.004454932 1.53149 0.2362071 0.007331665 1.524008 0.2470507 0.01948764 1.529446 0.2617358 -0.03503235 1.57966 0.2000203 -0.009416744 1.598601 0.2722448 -0.01014189 1.551237 0.2675766 0.003634458 1.546641 0.2768342 0.01941778 1.544487 0.2827399
107 0.03510507 1.506231 0.2023805 -0.04749311 1.592059 0.2120102 -0.01661589 1.619147 0.3003052 -0.00154084 1.531628 0.2412989 0.01116809 1.524681 0.247286 0.0227761 1.526173 0.2591703 -0.03732111 1.575916 0.2035087 -0.007136775 1.60147 0.2721908 -0.008020846 1.553215 0.2714673 0.00690901 1.547369 0.2777127 0.0214204 1.544069 0.2808163
108 0.03448064 1.505928 0.2044362 -0.04868063 1.589932 0.2155243 -0.01351969 1.624151 0.298651 -0.0001615527 1.532674 0.2463081 0.01301683 1.526068 0.2492349 0.02420282 1.526443 0.2592989 -0.0391471 1.573717 0.206379 -0.00575218 1.604299 0.2714082 -0.006984167 1.556071 0.2747724 0.008711371 1.549492 0.2791286 0.02329211 1.545427 0.280763
109 0.03423674 1.505581 0.2057911 -0.0500702 1.587894 0.218199 -0.01172975 1.626536 0.2972163 0.0007735767 1.533355 0.2495028 0.01435077 1.526776 0.2502261 0.02561521 1.527619 0.2596003 -0.04067146 1.571598 0.2090539 -0.004885287 1.606104 0.2702065 -0.005985313 1.557948 0.2768115 0.01022833 1.550833 0.279748 0.02516014 1.547008 0.2808447
110 0.03385375 1.505072 0.2069166 -0.0515853 1.585728 0.2207762 -0.01020968 1.628384 0.2957059 0.001047088 1.533382 0.2515783 0.01475209 1.52679 0.2512184 0.02671332 1.528599 0.2605628 -0.04216336 1.569527 0.2115282 -0.004197284 1.607339 0.2690488 -0.005122357 1.559001 0.2781328 0.01135467 1.551749 0.280301 0.02657708 1.548499 0.2812165
111 0.03323073 1.504341 0.2080936 -0.05280408 1.583977 0.2229596 -0.008357467 1.630542 0.2936648 0.001194883 1.533543 0.2526169 0.01494218 1.527021 0.2519628 0.0275223 1.529514 0.2613046 -0.04350454 1.56788 0.2134545 -0.003370077 1.608523 0.2676192 -0.00439073 1.559974 0.2786125 0.01215213 1.552831 0.2805244 0.02751876 1.549987 0.2813534
112 0.03247848 1.503509 0.2092742 -0.05392656 1.582662 0.2242547 -0.006759929 1.632833 0.2911003 0.001212018 1.533931 0.253069 0.01506361 1.527548 0.252495 0.02812893 1.530419 0.2616528 -0.04478775 1.566533 0.2146887 -0.002757965 1.609613 0.265951 -0.00381986 1.56107 0.2785621 0.012713 1.554153 0.280466 0.0281174 1.551476 0.2811514
113 0.03174257 1.502578 0.2105161 -0.05510757 1.581323 0.2250074 -0.005695261 1.634665 0.2885618 0.001081961 1.534255 0.2533736 0.01508138 1.528081 0.2529663 0.02854325 1.531226 0.2618422 -0.0460871 1.565112 0.215497 -0.002531562 1.610366 0.2643296 -0.003474129 1.562104 0.2783175 0.01305326 1.555454 0.2802933 0.02845675 1.55284 0.2808027
114 0.03123047 1.501882 0.211645 -0.05638141 1.579554 0.2262921 -0.005070364 1.635819 0.2866098 0.0009009725 1.534342 0.2538936 0.0151239 1.528525 0.2536454 0.02890509 1.532008 0.2621166 -0.04755897 1.563336 0.2166381 -0.002602057 1.61078 0.2631 -0.003180246 1.562943 0.2782387 0.01337651 1.556656 0.2802717 0.02877643 1.554105 0.2805644
115 0.03102636 1.501526 0.2124608 -0.05733815 1.578255 0.2274146 -0.004333118 1.63644 0.2857208 0.001069798 1.534395 0.2545541 0.01541271 1.528875 0.2542439 0.02947994 1.532506 0.2623863 -0.04861046 1.561978 0.2177938 -0.002418068 1.611039 0.2625786 -0.002610109 1.563497 0.2784736 0.01399877 1.557464 0.2804172 0.02939181 1.554957 0.2804559
116 0.03098348 1.501362 0.2133385 -0.05798481 1.577378 0.2281765 -0.003708072 1.637147 0.2849396 0.001465132 1.5347 0.2551846 0.01580964 1.52936 0.2548474 0.03001499 1.533076 0.2626229 -0.04933806 1.560942 0.2187753 -0.00225161 1.61139 0.2621903 -0.00197186 1.56417 0.2787546 0.01469443 1.558389 0.2805874 0.03007892 1.555894 0.2803552
117 0.03108897 1.501323 0.2145334 -0.05854177 1.576523 0.2288707 -0.003813749 1.638127 0.2837527 0.001916673 1.53532 0.2559211 0.01630197 1.530168 0.2555864 0.03044769 1.533993 0.262985 -0.04995118 1.55991 0.2197513 -0.002525973 1.611924 0.2615513 -0.001545186 1.565207 0.2790091 0.0151953 1.559703 0.280756 0.03058408 1.557236 0.2802791
118 0.03140736 1.501451 0.2159931 -0.05935641 1.575282 0.2298145 -0.004877768 1.639134 0.2824276 0.002362495 1.536261 0.2569556 0.01686087 1.531232 0.2565495 0.03081666 1.53524 0.2636493 -0.05061044 1.558586 0.2210145 -0.003395173 1.612483 0.2608341 -0.001402105 1.566561 0.2794123 0.01544807 1.561277 0.2810398 0.03086963 1.558928 0.2803635
119 0.03203195 1.501804 0.2175277 -0.05985712 1.574179 0.2308587 -0.005861406 1.639675 0.2822497 0.002822651 1.537227 0.2581466 0.01744457 1.532284 0.2576374 0.0312828 1.536478 0.2646329 -0.05092359 1.557465 0.22229 -0.004210417 1.612803 0.2609599 -0.001348315 1.567765 0.2801521 0.01561295 1.562613 0.2816685 0.03107663 1.560447 0.2808923
120 0.03275586 1.502393 0.2187261 -0.06021475 1.573334 0.2319044 -0.006739944 1.639824 0.283114 0.003309447 1.537988 0.2594595 0.01804297 1.533193 0.2586589 0.03172239 1.537509 0.2656119 -0.05104845 1.556637 0.2235487 -0.004935968 1.612895 0.2618919 -0.00121279 1.568635 0.2811897 0.01586628 1.56354 0.2825197 0.03136968 1.561608 0.2816442
121 0.03344221 1.503499 0.2194617 -0.06112441 1.572246 0.2333935 -0.008427197 1.639566 0.2851065 0.003548215 1.538474 0.2608772 0.01863675 1.534214 0.2596895 0.03219646 1.538689 0.2666677 -0.05144899 1.555758 0.2251845 -0.00626862 1.612747 0.2637395 -0.001286576 1.569105 0.2825747 0.01593613 1.564242 0.2836598 0.03148191 1.562706 0.282644
122 0.03428785 1.504851 0.219751 -0.06248617 1.570602 0.234934 -0.01104217 1.639562 0.2860506 0.003726826 1.538883 0.2617525 0.01909922 1.535309 0.2601832 0.03228375 1.539981 0.2671627 -0.05206777 1.554541 0.2267637 -0.008245084 1.61272 0.2647377 -0.001717902 1.569485 0.2833691 0.01567236 1.565031 0.2842464 0.03125788 1.563992 0.2831129
123 0.03511875 1.506009 0.220156 -0.06363769 1.569158 0.2356176 -0.01356709 1.640168 0.2855367 0.003914491 1.539524 0.2622615 0.01944381 1.53643 0.2604657 0.032265 1.541272 0.2674344 -0.05245787 1.553467 0.2277227 -0.01005233 1.613026 0.2646911 -0.002205354 1.570126 0.2836708 0.0153112 1.566037 0.2844473 0.0309171 1.565385 0.2832567
124 0.03630188 1.507147 0.2206769 -0.06400943 1.568164 0.2356734 -0.01571595 1.640811 0.2847432 0.004449246 1.540445 0.2625626 0.01998457 1.537465 0.2608302 0.03251232 1.54259 0.2677172 -0.05223784 1.55271 0.2281574 -0.01147985 1.613351 0.2644346 -0.002516966 1.570918 0.2838095 0.01510405 1.567164 0.2845801 0.03072516 1.566807 0.2833821
125 0.03754789 1.508066 0.2213062 -0.06372505 1.567562 0.235969 -0.0170777 1.641116 0.2844368 0.005095879 1.541237 0.2629962 0.02071271 1.538436 0.2613872 0.03300074 1.543717 0.2681762 -0.05164885 1.55223 0.2286792 -0.01226267 1.613616 0.2643143 -0.002442306 1.571663 0.2840785 0.01524679 1.568217 0.2848638 0.03088491 1.56805 0.2836278
126 0.03851165 1.508726 0.2218256 -0.06356268 1.567056 0.2363985 -0.01793985 1.641157 0.2845244 0.005593272 1.541569 0.2633125 0.02120782 1.539007 0.2618846 0.03336092 1.544449 0.2685711 -0.05122079 1.55187 0.229248 -0.01275195 1.613755 0.264377 -0.00236186 1.571934 0.2843785 0.01535477 1.568817 0.2852136 0.03100222 1.568797 0.283951
127 0.0392637 1.509197 0.2222467 -0.06376813 1.566198 0.2365908 -0.0191309 1.640994 0.2844132 0.005972577 1.541475 0.2633477 0.02146493 1.539314 0.2621781 0.03354805 1.545008 0.2687555 -0.05103205 1.55124 0.229671 -0.01350983 1.613708 0.2642762 -0.002480619 1.571728 0.2845172 0.01523313 1.569092 0.2854581 0.03088072 1.56927 0.2841868
128 0.04002236 1.509615 0.2224043 -0.06396882 1.565126 0.2367062 -0.0206396 1.640768 0.283804 0.006352856 1.541245 0.2630312 0.0217198 1.539587 0.2621102 0.03367183 1.545581 0.2686128 -0.05088221 1.550418 0.2299218 -0.01451024 1.613485 0.2638558 -0.00270626 1.571348 0.2843134 0.0149957 1.56926 0.2853753 0.03063767 1.569713 0.2841188
129 0.04095069 1.50984 0.2225055 -0.06396274 1.563764 0.2369119 -0.02223007 1.640132 0.283147 0.006775014 1.540997 0.2625402 0.02211938 1.539895 0.2617891 0.03385497 1.546114 0.2682816 -0.05061413 1.549288 0.2301454 -0.01552527 1.612943 0.2632786 -0.002838769 1.571036 0.283818 0.0148503 1.569461 0.284981 0.03048033 1.570222 0.2837459
130 0.04177437 1.510012 0.2222313 -0.06394321 1.56241 0.2370324 -0.02337835 1.639276 0.282968 0.007244305 1.540729 0.2619071 0.02261725 1.540084 0.2612565 0.03426786 1.546399 0.2678443 -0.05035475 1.548184 0.2302154 -0.01622759 1.612264 0.2630171 -0.002733236 1.570612 0.2833237 0.01493974 1.569436 0.2845179 0.03054514 1.570469 0.2832721
131 0.04227175 1.509948 0.2218106 -0.06416814 1.560963 0.2369805 -0.02425251 1.638232 0.2831599 0.007550136 1.540302 0.2612846 0.02293717 1.539991 0.2606953 0.03455787 1.546305 0.2673936 -0.05034402 1.546985 0.230129 -0.01681013 1.61141 0.2630497 -0.00264409 1.56996 0.2829348 0.01501246 1.569088 0.2841145 0.0305895 1.57033 0.2828307
132 0.04265575 1.50968 0.2214177 -0.06453602 1.559319 0.2369084 -0.02517019 1.637197 0.2831396 0.007776181 1.539724 0.2607357 0.02314176 1.539655 0.2602005 0.03475653 1.546047 0.2669399 -0.05047901 1.545588 0.2300278 -0.01742603 1.610459 0.2630171 -0.00261276 1.569185 0.282568 0.01502871 1.56858 0.283725 0.03057861 1.570003 0.2823984
133 0.04323953 1.509377 0.2211376 -0.06473726 1.557387 0.2369638 -0.02628007 1.636321 0.2824242 0.008102803 1.539093 0.2603101 0.02338554 1.53925 0.2597805 0.03498728 1.545923 0.2665026 -0.05045302 1.543924 0.2300163 -0.01812092 1.609516 0.2625509 -0.002630013 1.568447 0.2821412 0.01500973 1.568104 0.2832943 0.03053159 1.569758 0.2819628
134 0.04435375 1.509026 0.2209081 -0.06446626 1.555053 0.2372534 -0.02727808 1.63553 0.2808848 0.008781105 1.538402 0.2598572 0.02399401 1.538787 0.2592813 0.03548217 1.545826 0.2659471 -0.04999292 1.54187 0.2301503 -0.01868382 1.608451 0.2615809 -0.002499876 1.567665 0.2815378 0.01514868 1.567599 0.2826859 0.03063431 1.56955 0.2813746
135 0.04532287 1.508713 0.2207815 -0.06412363 1.553183 0.237555 -0.02773369 1.634927 0.2796934 0.009444177 1.537745 0.2595627 0.02463443 1.538348 0.2589971 0.03605515 1.545659 0.2656114 -0.0494469 1.540248 0.2304095 -0.01889359 1.607551 0.2609364 -0.002251286 1.566956 0.2811411 0.01538639 1.56714 0.2823004 0.03083893 1.569307 0.2809995
136 0.04617515 1.508195 0.2208736 -0.06376737 1.551355 0.2379505 -0.02796848 1.634139 0.2789979 0.01009164 1.536904 0.2595657 0.02530857 1.537716 0.2590319 0.0366859 1.545259 0.2655508 -0.04893355 1.538594 0.2308153 -0.01895152 1.606563 0.2606194 -0.001893605 1.566119 0.2810422 0.01572179 1.566551 0.2821928 0.03114463 1.568876 0.2808595
137 0.04676958 1.507751 0.2211414 -0.06346962 1.550001 0.2384625 -0.02813317 1.633482 0.2787656 0.01058128 1.536227 0.259812 0.02586565 1.537227 0.2592891 0.03719156 1.54488 0.2657156 -0.04856309 1.537325 0.2313278 -0.0189835 1.605796 0.2606149 -0.001560738 1.565462 0.2812167 0.0160321 1.566088 0.2823346 0.03143091 1.568516 0.2809435
138 0.04763415 1.507112 0.2214689 -0.06281935 1.548365 0.239003 -0.028242 1.63247 0.2786798 0.01136406 1.535285 0.2602279 0.02674923 1.536439 0.2597016 0.03798306 1.544165 0.2660202 -0.04789594 1.535722 0.2318482 -0.01891096 1.604725 0.2607099 -0.000967089 1.564481 0.281589 0.01660984 1.56533 0.282623 0.03197676 1.567886 0.2811292
139 0.04864338 1.506771 0.2217195 -0.06199027 1.547177 0.2391896 -0.02837713 1.6316 0.2786653 0.01224135 1.534543 0.2606202 0.02768779 1.535834 0.2600522 0.03881802 1.543595 0.2663633 -0.04703153 1.53457 0.2320522 -0.01879554 1.603875 0.2608095 -0.0003601962 1.56364 0.2819725 0.01721305 1.564669 0.2829435 0.03254824 1.567375 0.2813907
140 0.0498178 1.506461 0.2218618 -0.06116803 1.546154 0.2390414 -0.02837802 1.630718 0.2784353 0.01299287 1.533811 0.2607641 0.02848638 1.535253 0.2601755 0.03950426 1.543021 0.2665485 -0.04615385 1.533586 0.2319573 -0.01859726 1.603037 0.2606286 9.906219E-05 1.56282 0.2820675 0.01766935 1.563982 0.2830429 0.03298249 1.566821 0.2815004
141 0.05074132 1.506141 0.2223689 -0.06015917 1.545413 0.238598 -0.02867121 1.630054 0.2774842 0.01350476 1.533478 0.2607597 0.02904033 1.535152 0.2602282 0.03988332 1.543079 0.2666821 -0.04517827 1.532771 0.2315827 -0.01864195 1.602448 0.2597157 0.0001133196 1.562519 0.281765 0.01766926 1.563858 0.2828564 0.0329586 1.566894 0.2814263
142 0.05145817 1.505842 0.2224842 -0.05943562 1.544869 0.2383803 -0.02872297 1.629424 0.2768207 0.01385838 1.533162 0.2604627 0.02940267 1.534956 0.2599981 0.040151 1.542989 0.266499 -0.04453005 1.532157 0.2313323 -0.01858491 1.601865 0.2590473 0.0001752286 1.562209 0.2813371 0.01771893 1.563666 0.2824961 0.03299159 1.566817 0.2811269
143 0.05202688 1.505619 0.2223344 -0.05887841 1.544363 0.2379054 -0.02885272 1.628802 0.2761897 0.01412774 1.532891 0.259982 0.02969156 1.534787 0.2595828 0.04037244 1.5429 0.2661254 -0.04400941 1.531609 0.2308559 -0.01859251 1.601319 0.2583729 0.0002168103 1.561935 0.2807793 0.0177495 1.563494 0.2819866 0.03300474 1.566743 0.2806593
144 0.05233955 1.505449 0.2219548 -0.05863599 1.543942 0.2369981 -0.02914802 1.62829 0.2755178 0.01419439 1.532651 0.2593648 0.02982214 1.534689 0.2590147 0.04046896 1.542755 0.2656546 -0.04372637 1.531189 0.2300395 -0.01874161 1.600852 0.2577207 0.0001284331 1.561644 0.2801566 0.01765115 1.563272 0.2814108 0.03289371 1.566583 0.2801237
145 0.05254975 1.505384 0.2216435 -0.0584983 1.543745 0.2357276 -0.02948537 1.628138 0.2745267 0.014212 1.532687 0.2587824 0.02989462 1.534825 0.2584944 0.04047967 1.542806 0.2652147 -0.04350882 1.530981 0.2289714 -0.01888336 1.600699 0.2568521 -1.427707E-05 1.56168 0.2794487 0.01750106 1.563338 0.2807817 0.03274287 1.56667 0.2795566
146 0.05278821 1.50549 0.2213999 -0.058372 1.543753 0.23436 -0.0296586 1.628382 0.2733476 0.01430254 1.533066 0.25823 0.03002942 1.535218 0.2579901 0.04055732 1.543148 0.2647267 -0.04327948 1.530972 0.2278766 -0.01889588 1.600866 0.2558929 -3.750045E-05 1.562096 0.2787114 0.01747833 1.563755 0.2800994 0.03272463 1.567078 0.2789126
147 0.05312846 1.505676 0.2211441 -0.05811022 1.544005 0.2330097 -0.02955425 1.628916 0.271908 0.01454502 1.533652 0.2575753 0.03029286 1.535777 0.2573952 0.0407639 1.543667 0.2641045 -0.04293779 1.531183 0.226805 -0.01868446 1.601272 0.254723 0.0001144987 1.562765 0.2778285 0.01763072 1.564413 0.279268 0.03288726 1.567697 0.2781085
148 0.05348941 1.505899 0.2210196 -0.05766159 1.544718 0.2316941 -0.02905299 1.629839 0.2702398 0.01484605 1.534528 0.2568574 0.03062559 1.536542 0.2568028 0.04108346 1.544459 0.2634108 -0.0425091 1.531743 0.2257702 -0.01817903 1.601989 0.2534003 0.000452465 1.563827 0.276818 0.0179598 1.565446 0.2783127 0.03323698 1.568639 0.2771667
149 0.0536468 1.506173 0.2208344 -0.05719878 1.545855 0.230702 -0.02827223 1.630971 0.2689551 0.01512916 1.535486 0.2562341 0.03089954 1.53727 0.2563082 0.04144156 1.545247 0.2627913 -0.04218405 1.532658 0.2249244 -0.01751203 1.6029 0.2524153 0.0008829135 1.564929 0.2760239 0.01839016 1.566456 0.2775499 0.03369634 1.569507 0.2764004
150 0.05360586 1.506407 0.2205317 -0.05676949 1.547153 0.2300505 -0.02735769 1.632121 0.26805 0.01537835 1.53623 0.2557469 0.03108255 1.537776 0.2559125 0.04178979 1.545778 0.2623469 -0.04194959 1.533738 0.2242794 -0.01678219 1.603811 0.2518084 0.001316013 1.565731 0.2755304 0.0188271 1.567132 0.277086 0.03416228 1.57003 0.2759429
151 0.05353611 1.50655 0.2205168 -0.0560916 1.549129 0.2294593 -0.02576361 1.633694 0.2672184 0.01565453 1.536978 0.2554831 0.03126471 1.538274 0.2557393 0.0421405 1.546167 0.2621944 -0.04162176 1.535352 0.2236545 -0.01558602 1.605011 0.251384 0.001863453 1.566634 0.2752084 0.01937434 1.567818 0.2768504 0.03475445 1.570477 0.2757635
152 0.05349496 1.506654 0.2207524 -0.0553626 1.551342 0.2288158 -0.02364121 1.635235 0.2671475 0.01585157 1.537661 0.2555377 0.03143654 1.538709 0.2558457 0.0424143 1.546307 0.262431 -0.04123954 1.537207 0.223005 -0.01400583 1.606282 0.2514311 0.002438224 1.567599 0.2751106 0.01995612 1.568445 0.2768954 0.03539271 1.57079 0.275933
153 0.05346346 1.506873 0.2208612 -0.05457287 1.553872 0.2288779 -0.02073395 1.637088 0.2674192 0.01615479 1.538422 0.2557558 0.03176476 1.539189 0.2560039 0.04287787 1.546393 0.2627426 -0.04082112 1.539443 0.2228844 -0.01185813 1.607899 0.2516471 0.003334682 1.568781 0.2751413 0.02087056 1.569165 0.2770321 0.03636645 1.571115 0.2761749
154 0.0533299 1.507001 0.2207367 -0.05394449 1.55618 0.2288179 -0.01764031 1.638874 0.2675804 0.01656269 1.539024 0.2559074 0.03211218 1.539275 0.2562073 0.04345705 1.54637 0.2629418 -0.04038513 1.541575 0.2228094 -0.009621708 1.609439 0.251782 0.004329536 1.569655 0.2752806 0.02187419 1.569601 0.2772259 0.03741268 1.571188 0.2764302
155 0.05306702 1.506785 0.2204613 -0.05311245 1.558619 0.2277537 -0.01425876 1.640298 0.2677051 0.0169196 1.539408 0.2555609 0.03229102 1.539116 0.2561032 0.04380822 1.546016 0.2628898 -0.03980231 1.543737 0.2218492 -0.007167303 1.610687 0.251742 0.005198174 1.570215 0.2750055 0.02270177 1.569738 0.2771457 0.03827886 1.570904 0.2765178
156 0.05275942 1.506339 0.2202454 -0.05218592 1.560847 0.2258958 -0.01127269 1.64173 0.2665408 0.01702793 1.539741 0.254815 0.03220295 1.53893 0.2558336 0.04398553 1.545798 0.2626683 -0.03908096 1.545691 0.2202381 -0.004861491 1.611903 0.2506976 0.005806205 1.570801 0.2742021 0.02321908 1.569957 0.2767027 0.03883621 1.57068 0.2763549
157 0.05233565 1.506096 0.2196685 -0.05152348 1.562832 0.2237002 -0.008937053 1.643133 0.2646668 0.01703461 1.540359 0.2537045 0.03203759 1.539022 0.2551962 0.04399922 1.545933 0.2619424 -0.03858691 1.547436 0.2183443 -0.003025865 1.613125 0.2490345 0.00621729 1.571648 0.2729294 0.02353383 1.570496 0.2757461 0.03918137 1.5708 0.2756248
158 0.05187647 1.505695 0.2191694 -0.05050298 1.56502 0.2207994 -0.006389349 1.644281 0.2630776 0.01710934 1.540921 0.2525984 0.03194764 1.539084 0.2545078 0.04407311 1.546036 0.2610607 -0.03781569 1.549252 0.2159659 -0.001034171 1.614163 0.2474671 0.006825981 1.572592 0.2715233 0.0240436 1.571124 0.2746137 0.03970158 1.570993 0.2746899
159 0.05125938 1.505223 0.2183502 -0.04929904 1.567264 0.2174781 -0.004169588 1.645155 0.2615427 0.017085 1.541392 0.2512571 0.03179337 1.539096 0.2534998 0.04388104 1.545861 0.2599274 -0.03695489 1.551084 0.2131517 0.0007366082 1.615018 0.2458279 0.007344265 1.573336 0.2699776 0.02446775 1.57153 0.2733026 0.04012457 1.570969 0.2735565
160 0.05020981 1.504586 0.2174901 -0.04830079 1.569322 0.2140668 -0.002374723 1.64586 0.2598771 0.01670258 1.541802 0.2498413 0.03131932 1.539004 0.2524132 0.04328823 1.545465 0.2587465 -0.03636896 1.552713 0.2102517 0.002095203 1.61566 0.2441633 0.007555579 1.573945 0.2684116 0.02458447 1.571778 0.2719326 0.04022579 1.570778 0.2723357
161 0.04906893 1.50386 0.2167011 -0.04752279 1.570916 0.210593 -0.001192763 1.646358 0.2579224 0.01601955 1.541997 0.2483706 0.03049617 1.538689 0.2513655 0.04244772 1.545018 0.2576211 -0.03594925 1.553946 0.2073062 0.002989676 1.616063 0.2423209 0.007342408 1.574311 0.2667756 0.02425761 1.571834 0.2705545 0.03986875 1.570453 0.2711678
162 0.04817638 1.503064 0.216123 -0.0465633 1.572113 0.2071335 -0.0003171113 1.646621 0.2556938 0.01538955 1.542137 0.2468438 0.02969339 1.538358 0.2503199 0.04162649 1.544677 0.2565035 -0.03534461 1.554818 0.2043485 0.003733989 1.616259 0.2402046 0.007008341 1.574638 0.2649501 0.02379846 1.571904 0.2690508 0.03937325 1.570214 0.2699431
163 0.04766525 1.502302 0.2158194 -0.04490945 1.5735 0.2037996 0.0005892005 1.646979 0.2529115 0.01492573 1.542402 0.2453307 0.02902351 1.53818 0.2493623 0.04094229 1.544574 0.2554916 -0.03418601 1.555835 0.2014369 0.004665211 1.616547 0.2375988 0.006722992 1.575134 0.262958 0.02336064 1.572168 0.2674709 0.03888957 1.570214 0.2687352
164 0.04699577 1.501534 0.2154041 -0.04275652 1.575372 0.1998036 0.002087936 1.647367 0.2502509 0.01468906 1.542976 0.2435772 0.02844698 1.538236 0.2481392 0.04009098 1.544311 0.2544305 -0.03251873 1.557351 0.1981697 0.006098454 1.616928 0.2350042 0.006688879 1.575828 0.2608018 0.02313698 1.572519 0.2657594 0.03859451 1.570205 0.2674274
165 0.04591141 1.500624 0.2152064 -0.03999177 1.577758 0.1958547 0.003605481 1.647491 0.248586 0.01434874 1.543609 0.2420774 0.02752386 1.538054 0.2472661 0.03893716 1.543674 0.2537987 -0.03050875 1.559293 0.1948877 0.007676893 1.61719 0.2331521 0.006663191 1.576553 0.2589509 0.02285241 1.572716 0.2644083 0.03818103 1.569883 0.2665354
166 0.0444214 1.499645 0.2150133 -0.03726783 1.579977 0.1920044 0.004913821 1.647659 0.246329 0.01380518 1.544234 0.2406607 0.02642868 1.537938 0.2463329 0.03737325 1.543009 0.2531197 -0.02858991 1.561112 0.1917871 0.009135234 1.617477 0.230791 0.006517482 1.577389 0.2570082 0.02243024 1.57298 0.2629258 0.03760682 1.569619 0.2654833
167 0.04286892 1.498831 0.2144541 -0.03524321 1.581709 0.188651 0.006136729 1.647848 0.2441367 0.0133019 1.544779 0.2390859 0.02553054 1.537937 0.2450423 0.03573011 1.542393 0.2521473 -0.02714968 1.5626 0.1890533 0.01031169 1.617683 0.2286374 0.006315551 1.578015 0.2551103 0.02198276 1.573106 0.2613794 0.03701774 1.569306 0.264274
168 0.04180189 1.498661 0.213659 -0.03359761 1.583668 0.1868462 0.006907544 1.648289 0.2426078 0.01285361 1.545779 0.2374876 0.02478994 1.538439 0.2435977 0.03400676 1.542151 0.2512184 -0.0260667 1.56434 0.1870353 0.01112472 1.618155 0.2271126 0.005970057 1.578852 0.2534422 0.02138175 1.573432 0.2600446 0.03625854 1.569233 0.2632726
169 0.04093808 1.498604 0.2128696 -0.03266771 1.585022 0.1856671 0.007002559 1.648654 0.2411149 0.01229942 1.5467 0.2359441 0.02412651 1.539031 0.2421823 0.03263723 1.542112 0.2502521 -0.02548434 1.565569 0.1853516 0.01140917 1.618504 0.2257061 0.00538266 1.579617 0.2517938 0.02054878 1.573767 0.2587315 0.03526988 1.56925 0.2622986
170 0.04036215 1.498634 0.2122484 -0.03181583 1.586188 0.1845851 0.007672228 1.649221 0.2395066 0.01203197 1.547726 0.2347018 0.02379812 1.539743 0.2410654 0.03187875 1.542298 0.2494299 -0.02481682 1.566674 0.1840465 0.01195624 1.618866 0.2244731 0.005102362 1.580499 0.2503904 0.02003873 1.574239 0.2576226 0.03461179 1.569428 0.2614879
171 0.03947913 1.498096 0.2116379 -0.02948532 1.587681 0.182356 0.01016506 1.649425 0.2378116 0.01197535 1.548502 0.2334356 0.02357727 1.540101 0.2399893 0.0313343 1.542101 0.2486434 -0.02301007 1.567994 0.1823198 0.01373504 1.61891 0.2230197 0.005388924 1.581211 0.2489822 0.02004047 1.574445 0.2564858 0.03443431 1.569218 0.2606148
172 0.03865743 1.497354 0.211635 -0.02673664 1.58941 0.1800627 0.01394874 1.649229 0.2382266 0.01227585 1.549188 0.2327792 0.02335555 1.540111 0.2396216 0.03100245 1.541745 0.2482568 -0.02064246 1.569635 0.180784 0.01684218 1.618892 0.223026 0.006539991 1.58195 0.2483696 0.02072745 1.574435 0.2561855 0.03482096 1.568548 0.2606334
173 0.03733569 1.496782 0.2122941 -0.0242726 1.591262 0.1772209 0.01821498 1.6492 0.2393614 0.01240607 1.54973 0.2325586 0.02288585 1.540368 0.2398724 0.03066159 1.541629 0.2485239 -0.0183065 1.571586 0.1794613 0.02039045 1.61903 0.223792 0.007971819 1.582802 0.2481449 0.0215589 1.574745 0.2563937 0.0352202 1.568086 0.2612232
174 0.03655972 1.496323 0.2128852 -0.02240236 1.592394 0.1754952 0.02179038 1.648962 0.2406068 0.01295491 1.549646 0.232651 0.02313599 1.540566 0.2402103 0.03073972 1.54149 0.2488757 -0.01642263 1.572905 0.1789526 0.02339395 1.618887 0.2248182 0.009590394 1.58311 0.2481637 0.02273783 1.574852 0.2567598 0.03604231 1.567637 0.2618665
175 0.03606292 1.496163 0.2127223 -0.02099768 1.593553 0.174164 0.02477787 1.648958 0.240851 0.01361302 1.549646 0.2323531 0.0235397 1.540856 0.2400942 0.03127115 1.541533 0.2486689 -0.01504366 1.574256 0.1785261 0.02593291 1.61893 0.2250225 0.01122504 1.583412 0.2477877 0.02408897 1.575113 0.2566015 0.0371143 1.567424 0.2618269
176 0.03528478 1.496233 0.2126388 -0.01926556 1.594989 0.1736535 0.0268703 1.648924 0.2409121 0.01389685 1.550529 0.232481 0.02340196 1.541356 0.2403475 0.03192938 1.54201 0.2485504 -0.0137878 1.57565 0.1783421 0.02764976 1.61903 0.2249449 0.01245786 1.584491 0.247461 0.02509387 1.575858 0.2563514 0.03791973 1.567732 0.2616215
177 0.03471861 1.496881 0.212494 -0.01649662 1.59705 0.1729456 0.02965797 1.649052 0.2422416 0.0147863 1.552897 0.2333359 0.02357529 1.542446 0.2410017 0.03316063 1.543015 0.2487996 -0.0117498 1.577627 0.1779543 0.02994734 1.619511 0.2257506 0.01446739 1.58673 0.2478425 0.02673878 1.577083 0.2566151 0.03936531 1.568421 0.2618409
178 0.03466173 1.497464 0.2120925 -0.01285745 1.598679 0.1714251 0.03273121 1.649072 0.2431795 0.01666922 1.556298 0.234185 0.02436987 1.543673 0.2415319 0.03485993 1.543989 0.2491675 -0.008835846 1.579274 0.1769946 0.03275947 1.619892 0.2262106 0.0171923 1.589453 0.2481244 0.0288536 1.578262 0.2567582 0.04127352 1.569088 0.2619835
179 0.03481457 1.49719 0.2118175 -0.009869194 1.599044 0.1702133 0.03532534 1.648565 0.242977 0.0193905 1.560104 0.2350821 0.02581961 1.544659 0.2422669 0.0369252 1.544618 0.2498109 -0.006185744 1.57981 0.1764408 0.03543344 1.619509 0.2260564 0.02031456 1.59193 0.2483207 0.03110983 1.578934 0.2569155 0.04335068 1.569226 0.2622257
180 0.03488257 1.496487 0.2117992 -0.007983157 1.598789 0.1695534 0.03739771 1.648106 0.241667 0.02217193 1.563731 0.2360743 0.02789602 1.545973 0.2430921 0.03894212 1.545332 0.2508647 -0.004230849 1.579845 0.1764494 0.03785235 1.618894 0.2254232 0.02351402 1.59412 0.2484998 0.03328769 1.579469 0.2572324 0.04537091 1.569205 0.2627197
181 0.03529496 1.495616 0.2115971 -0.005905778 1.598471 0.1689822 0.03950458 1.647502 0.2395043 0.02482439 1.569452 0.2379691 0.03175813 1.550671 0.2445333 0.04199293 1.548542 0.2529773 -0.00200837 1.579957 0.1766888 0.04014704 1.618062 0.2244675 0.02833994 1.598273 0.2484054 0.03643072 1.581619 0.2577143 0.04857028 1.570422 0.2635454
182 0.0349042 1.495985 0.2110921 -0.002206953 1.59985 0.1682687 0.04154598 1.647466 0.2379174 0.02654548 1.574994 0.2396077 0.03461137 1.558205 0.2468436 0.04416753 1.555094 0.2565309 0.00141012 1.58188 0.1770119 0.04255684 1.618172 0.2238724 0.03281103 1.602283 0.2483641 0.04035813 1.585879 0.2587258 0.05339365 1.573533 0.2655887
183 0.03415939 1.496771 0.210229 0.003097975 1.601436 0.1667101 0.04372628 1.646971 0.2369999 0.02754714 1.578808 0.2412079 0.03485412 1.565412 0.2501521 0.0445944 1.562136 0.2617584 0.00593922 1.583966 0.1763714 0.04575551 1.618391 0.2230959 0.03663194 1.605664 0.2479669 0.04525122 1.590754 0.2596594 0.05926736 1.576256 0.2682151
184 0.03329879 1.497391 0.2097464 0.009374924 1.60362 0.1667958 0.0436533 1.645215 0.2379603 0.02742865 1.578175 0.2386875 0.03296355 1.5701 0.2520581 0.0441777 1.567777 0.2663575 0.01089031 1.585942 0.1761416 0.04900451 1.618344 0.2226286 0.03575062 1.60517 0.2475897 0.04791144 1.593451 0.2605137 0.06286035 1.577079 0.2711391
185 0.03313443 1.497204 0.2097919 0.0137396 1.604267 0.167107 0.04359725 1.643718 0.2386265 0.02627556 1.575673 0.2367009 0.03109952 1.572753 0.2536708 0.04400908 1.570335 0.2695787 0.01433868 1.586367 0.1760236 0.05113985 1.617842 0.2226759 0.03324537 1.603114 0.247617 0.04873113 1.594313 0.2617923 0.06415701 1.576671 0.2738037
186 0.03287965 1.496771 0.2101289 0.01762125 1.604789 0.1684081 0.04713691 1.643501 0.2397134 0.02513555 1.576554 0.2378105 0.02947069 1.579107 0.2591719 0.04462517 1.573624 0.2749013 0.01748438 1.586403 0.1762286 0.05304585 1.616828 0.2245926 0.033722 1.603115 0.2494779 0.0529058 1.595078 0.2646789 0.06600548 1.574756 0.2768596
187 0.033245 1.495609 0.2109071 0.02134222 1.604661 0.1707837 0.05295765 1.642821 0.2425486 0.02478438 1.581699 0.2433465 0.0311919 1.587379 0.2669276 0.04630714 1.576397 0.2808262 0.02064377 1.585691 0.1770872 0.05509249 1.61502 0.2284317 0.03943361 1.605245 0.2533946 0.05895776 1.59396 0.2681004 0.0673416 1.571288 0.2802664
188 0.03371479 1.494231 0.2104875 0.02569507 1.603523 0.1697546 0.05960293 1.641221 0.2459502 0.02634635 1.591343 0.2530569 0.03527026 1.595995 0.2773421 0.04573867 1.577704 0.2902279 0.02440925 1.584535 0.1760016 0.05723274 1.612861 0.2328567 0.05009941 1.607026 0.2577729 0.06249592 1.590042 0.2726713 0.06511377 1.566223 0.2845657
189 0.03449477 1.492978 0.2084652 0.03030059 1.60149 0.1653279 0.06369848 1.639249 0.2489758 0.02950387 1.595214 0.2577772 0.03507563 1.595355 0.2830583 0.04220091 1.576444 0.2981309 0.02826669 1.583472 0.1738557 0.05798 1.610769 0.2366197 0.05635377 1.605128 0.2616148 0.06102661 1.585497 0.276871 0.06034127 1.560933 0.2879267
190 0.03505841 1.492459 0.206197 0.03558261 1.599974 0.1608116 0.06631211 1.637337 0.2522722 0.03189198 1.591281 0.2578447 0.03000707 1.588758 0.2818425 0.03723121 1.572696 0.3020449 0.0323102 1.583398 0.1716802 0.05843993 1.609247 0.2396145 0.05764208 1.602513 0.2651072 0.05787637 1.58175 0.2799639 0.05541345 1.556201 0.2901017
191 0.03508089 1.492706 0.2042669 0.03850226 1.600062 0.158305 0.06663366 1.636169 0.2554818 0.03115731 1.584867 0.2552263 0.02536856 1.579156 0.2748943 0.03275812 1.568807 0.3024601 0.03442103 1.584323 0.1702445 0.05811747 1.60847 0.242078 0.05247489 1.600914 0.2673886 0.05320712 1.580027 0.281773 0.05197285 1.552847 0.2911468
192 0.03457651 1.492959 0.2027298 0.03913467 1.600918 0.1576761 0.06426778 1.635755 0.2578118 0.0275932 1.578818 0.2513601 0.02313188 1.571061 0.2679852 0.03015174 1.566226 0.3019038 0.03487561 1.585013 0.1694131 0.05698913 1.608005 0.2436226 0.04263256 1.599479 0.2672081 0.04759939 1.579334 0.2821401 0.04990778 1.550747 0.2914622
193 0.03381244 1.493234 0.2020714 0.04030954 1.602498 0.1589702 0.06112691 1.635757 0.2606636 0.02261153 1.570973 0.2455294 0.02140081 1.563675 0.2615616 0.02746476 1.564505 0.3022498 0.03587883 1.585649 0.1693415 0.05555657 1.607805 0.245605 0.02796681 1.5951 0.2629922 0.03875772 1.578459 0.281402 0.04769613 1.549199 0.2923642
194 0.03349119 1.493219 0.2021526 0.04221433 1.603825 0.1609662 0.05854365 1.635393 0.2647623 0.0201492 1.564904 0.241029 0.01844295 1.555714 0.2542705 0.02363224 1.562265 0.3025669 0.03745587 1.586082 0.1697796 0.05474391 1.60744 0.2481865 0.01907767 1.589001 0.2588465 0.02687979 1.574945 0.2777317 0.04543905 1.547501 0.2940037
195 0.03359483 1.492719 0.2027211 0.0444121 1.604687 0.1639211 0.056923 1.634217 0.2694488 0.01847144 1.559078 0.238336 0.01323074 1.546071 0.2441909 0.01915805 1.559207 0.2996877 0.03946874 1.58613 0.1710787 0.05430525 1.606466 0.2513876 0.01535405 1.584087 0.2574294 0.01755069 1.568491 0.2714722 0.04314596 1.545961 0.2957826
196 0.03396001 1.4919 0.2031504 0.04660682 1.604984 0.1667318 0.05560148 1.632567 0.273795 0.01782685 1.555081 0.2373173 0.00862811 1.538445 0.2363676 0.01453395 1.554634 0.2908692 0.04143168 1.58583 0.1723395 0.05414723 1.605012 0.2544935 0.01431931 1.580864 0.2577676 0.01340654 1.562432 0.2664558 0.03904836 1.545335 0.2965904
197 0.03418872 1.491149 0.2034688 0.04798326 1.605115 0.169083 0.05449398 1.63133 0.2765818 0.017916 1.553377 0.2377364 0.008475034 1.534654 0.2340154 0.01208178 1.549317 0.2795484 0.04291835 1.585479 0.1732647 0.05390348 1.603773 0.2567142 0.01413035 1.579281 0.2584967 0.01220079 1.559238 0.2644311 0.0328957 1.546002 0.2950879
198 0.03387543 1.490889 0.2038231 0.04841988 1.605477 0.1712445 0.05278285 1.630992 0.2780378 0.01788104 1.55315 0.2387563 0.009557136 1.533259 0.2345043 0.01096676 1.544702 0.2696877 0.04359421 1.585527 0.1743749 0.05302898 1.603227 0.2582039 0.013753 1.578966 0.2591686 0.01147038 1.55838 0.264221 0.0257924 1.547403 0.2914771
199 0.03283593 1.491108 0.2038681 0.0478088 1.606362 0.1732377 0.05034626 1.631443 0.2779289 0.01721799 1.554213 0.2395066 0.009714553 1.53391 0.2357226 0.01072833 1.541544 0.2634484 0.043363 1.586216 0.1756207 0.0515655 1.603374 0.2586125 0.01307165 1.579928 0.2593545 0.01041448 1.559304 0.2645366 0.01978206 1.548699 0.2865978
200 0.03218014 1.491443 0.2038735 0.04648326 1.607353 0.1746565 0.04763452 1.63233 0.2770793 0.0164967 1.555317 0.2395741 0.009461822 1.534692 0.2359382 0.01112401 1.538589 0.2593536 0.04249756 1.58705 0.1763978 0.04965232 1.604068 0.2582327 0.01177315 1.580824 0.2586897 0.008993218 1.560304 0.2641841 0.01525603 1.549721 0.2815217
201 0.03165661 1.491957 0.2039987 0.04467565 1.608156 0.1751595 0.04442357 1.633614 0.2756732 0.01557139 1.556447 0.2392143 0.008884486 1.535656 0.2358062 0.01105923 1.536965 0.2572494 0.04110656 1.587757 0.1765078 0.04745539 1.605263 0.2572431 0.01032097 1.581888 0.2577183 0.007602328 1.561527 0.2636169 0.01252629 1.550696 0.2778302
202 0.03096073 1.492648 0.2043566 0.04265394 1.608968 0.175322 0.04130922 1.635256 0.2737766 0.01418042 1.558361 0.2390477 0.007873075 1.537338 0.2360569 0.00971317 1.537884 0.2569386 0.03942417 1.588542 0.1766316 0.04506525 1.606789 0.2559317 0.009015327 1.583911 0.2570682 0.006105199 1.563474 0.2632855 0.01090473 1.552306 0.2767004
203 0.03017293 1.493764 0.2041625 0.04028264 1.609982 0.1742919 0.03823967 1.637015 0.2715951 0.01264043 1.561067 0.2388454 0.006770457 1.539365 0.235922 0.007735695 1.540692 0.2572994 0.03726192 1.589604 0.1759938 0.04244405 1.608582 0.2541946 0.007681609 1.586521 0.2564389 0.004481552 1.565678 0.2626931 0.009958638 1.554312 0.2771282
204 0.0293683 1.494834 0.2036889 0.03772553 1.610826 0.1724923 0.03494119 1.638526 0.2692178 0.01100797 1.564139 0.2386651 0.005755453 1.541645 0.2359937 0.005740492 1.54416 0.2580224 0.03480009 1.590547 0.174756 0.03983854 1.610301 0.2520929 0.006638961 1.589386 0.2559671 0.00308146 1.567959 0.2621526 0.009693895 1.556417 0.2781617
205 0.02880537 1.495601 0.2034535 0.03476226 1.610886 0.1697399 0.03132043 1.639499 0.2671987 0.008901783 1.567808 0.2390499 0.0059569 1.545261 0.2384563 0.004177301 1.548496 0.2609993 0.03190557 1.590815 0.1730486 0.03665105 1.611732 0.2499617 0.005800011 1.592645 0.2561766 0.001846158 1.570696 0.2625759 0.01076583 1.558789 0.2807871
206 0.02846995 1.496168 0.2038925 0.03183388 1.610446 0.1675469 0.02764243 1.640427 0.2652765 0.006402663 1.572016 0.2403235 0.006485708 1.552062 0.244777 0.003187616 1.553509 0.2664194 0.02913842 1.590659 0.1720112 0.0335477 1.612931 0.248335 0.005814175 1.596051 0.25818 0.001787336 1.57487 0.2654842 0.01367116 1.561007 0.2850014
207 0.02810733 1.496625 0.2047521 0.02906569 1.609502 0.1655389 0.02462408 1.641375 0.2636769 0.003501914 1.576963 0.2431508 0.004172586 1.559604 0.2519612 0.002271067 1.559029 0.2731741 0.0265548 1.590085 0.1712235 0.03066613 1.613891 0.2472936 0.007597339 1.599951 0.2614288 0.005306736 1.580987 0.2715735 0.01801992 1.562539 0.288856
208 0.02791879 1.496839 0.2063293 0.02543524 1.60771 0.1636498 0.02086523 1.642229 0.2620853 2.59444E-05 1.583192 0.2479669 0.001772464 1.569383 0.2606186 0.003586381 1.565458 0.2828062 0.02323669 1.588847 0.170856 0.02731743 1.614668 0.2465509 0.0112991 1.604067 0.2651329 0.01479896 1.587075 0.27926 0.02416682 1.563145 0.2920026
209 0.02787823 1.496467 0.2085858 0.0215622 1.605753 0.1629611 0.016505 1.64281 0.2604423 -0.003295668 1.589441 0.2532954 0.001075438 1.578347 0.269284 0.005948746 1.572515 0.2938721 0.01981922 1.587265 0.1711202 0.02415505 1.615132 0.2459433 0.01525014 1.607069 0.2675182 0.0239669 1.589623 0.2837011 0.02879904 1.563116 0.2935826
210 0.02798526 1.495422 0.210858 0.01909859 1.602844 0.1627256 0.01233497 1.643158 0.2581102 -0.006531889 1.599077 0.2604787 0.0003552874 1.590019 0.2797507 0.01679778 1.581469 0.3116443 0.01725874 1.584873 0.1719588 0.0205952 1.614964 0.2449611 0.01964834 1.608753 0.2681868 0.02895927 1.589714 0.2845503 0.03041488 1.562784 0.2944062
211 0.02749825 1.494762 0.2121895 0.01834523 1.601631 0.1639967 0.009198809 1.643665 0.2561141 -0.007907018 1.603735 0.2640539 0.002575292 1.601642 0.2904121 0.02265952 1.580867 0.317323 0.01615557 1.583963 0.1737576 0.01760071 1.614827 0.2444103 0.02043108 1.609098 0.2684112 0.02764864 1.589204 0.2848482 0.02858307 1.562245 0.2957222
212 0.02650483 1.494875 0.2124289 0.01803204 1.602176 0.1654059 0.006082461 1.644525 0.254527 -0.009695494 1.601725 0.2623322 0.002835052 1.606322 0.2954592 0.01952999 1.579357 0.3186976 0.01566061 1.584408 0.1750243 0.01486596 1.615252 0.2437687 0.01811665 1.609407 0.268213 0.02268715 1.589 0.2851068 0.02463277 1.561797 0.2963708
213 0.02567027 1.495252 0.2122212 0.01680249 1.603278 0.1665218 0.00406272 1.645512 0.2529984 -0.01137133 1.598377 0.2591824 -0.0005772065 1.607063 0.2972064 0.01567937 1.579427 0.3180771 0.01461629 1.585256 0.1757789 0.01307751 1.615988 0.2426369 0.01472119 1.609819 0.2673427 0.01885568 1.588976 0.2846826 0.02134991 1.56219 0.2959874
214 0.02477402 1.495451 0.2119063 0.01371308 1.604312 0.1678203 0.002922511 1.64621 0.2516574 -0.01364524 1.598587 0.2575026 -0.001249645 1.612965 0.3011091 0.01372436 1.580467 0.3168627 0.01238553 1.585797 0.1762835 0.01200347 1.616589 0.2411752 0.01227588 1.610349 0.2657081 0.01655239 1.589293 0.2835229 0.01979311 1.563062 0.2951324
215 0.02406523 1.494871 0.2114433 0.008347286 1.604364 0.1689654 0.002311521 1.645855 0.2503185 -0.01610891 1.60431 0.2590113 0.003500912 1.617699 0.3035888 0.01401684 1.581433 0.3148798 0.008592739 1.585329 0.1763642 0.01209759 1.616453 0.2394962 0.0118212 1.610209 0.263521 0.01649598 1.589519 0.2818879 0.02090971 1.563586 0.2938609
216 0.02377077 1.493571 0.2117718 0.002973333 1.603475 0.1710934 0.0007297128 1.644052 0.2501715 -0.01920231 1.610758 0.262466 0.003032479 1.617308 0.3030172 0.01425358 1.581245 0.3138031 0.004996533 1.584048 0.1772014 0.01264827 1.615464 0.2389725 0.01027188 1.6087 0.2623473 0.01696613 1.58899 0.2813926 0.02289294 1.563082 0.2935425
217 0.02412406 1.492496 0.2137823 -0.002490094 1.602643 0.1758378 -0.002355386 1.641975 0.2518823 -0.02303405 1.625369 0.2723838 -0.002344861 1.615656 0.3025434 0.01216527 1.581519 0.3139499 0.001353299 1.582914 0.1800187 0.01256722 1.614656 0.2404527 0.00772414 1.606846 0.2631051 0.01666434 1.588699 0.2825871 0.02412193 1.563298 0.2951377
218 0.02465958 1.492175 0.2159209 -0.004963619 1.602377 0.1803005 -0.005685295 1.640616 0.254059 -0.01979089 1.631495 0.2784718 -0.006673556 1.614368 0.3031354 0.009201348 1.58199 0.3149423 -0.0004602257 1.582435 0.1827437 0.01146818 1.614399 0.2425721 0.006481513 1.606337 0.2652503 0.01529152 1.588623 0.2842681 0.02309838 1.564012 0.2970926
219 0.0248986 1.49259 0.2168986 -0.005924528 1.602846 0.1831761 -0.008203691 1.640527 0.2546924 -0.01721583 1.634251 0.280697 -0.008360416 1.614685 0.3036734 0.006420224 1.582815 0.3153701 -0.001196901 1.582784 0.1841639 0.0103054 1.614869 0.2435359 0.006624894 1.606944 0.2664379 0.01405478 1.58905 0.2850633 0.02094208 1.564972 0.2979364
220 0.02501714 1.493578 0.2167679 -0.007172796 1.603473 0.1832545 -0.01072832 1.641458 0.2530508 -0.01649684 1.636482 0.2792312 -0.00920928 1.616694 0.3019693 0.004879601 1.585173 0.313648 -0.002253341 1.583406 0.183585 0.008629167 1.616079 0.2422643 0.00674826 1.608637 0.265162 0.01332004 1.590823 0.2837107 0.01964676 1.567166 0.2967334
221 0.0251293 1.494925 0.215875 -0.01057028 1.603675 0.1814487 -0.01311906 1.642867 0.2505757 -0.01706288 1.638335 0.276074 -0.01019023 1.61892 0.2985826 0.00447751 1.588487 0.3101765 -0.005085664 1.583751 0.1818609 0.006408284 1.617539 0.2395871 0.006393551 1.610716 0.2621115 0.01308435 1.593391 0.2806586 0.01991014 1.570474 0.2939136
222 0.02484176 1.496138 0.2148181 -0.0149809 1.603018 0.1778141 -0.0151228 1.643643 0.2492782 -0.02131471 1.636756 0.273332 -0.01426213 1.617691 0.2952019 0.003040476 1.589255 0.3067627 -0.008701163 1.58343 0.1794647 0.004199369 1.618457 0.2376317 0.004610668 1.611591 0.2595427 0.01197371 1.59481 0.2780827 0.02054152 1.57275 0.2915854
223 0.02407397 1.49716 0.2145839 -0.01814347 1.601646 0.1728776 -0.01663646 1.643638 0.2503599 -0.02881643 1.630574 0.2717952 -0.0225603 1.60988 0.2910095 -0.0007688547 1.58649 0.3033585 -0.0117243 1.58261 0.1772318 0.002005266 1.618676 0.2376482 0.001689202 1.611184 0.2587284 0.009461904 1.594759 0.2771576 0.02003608 1.573764 0.290888
224 0.02347468 1.498093 0.2150626 -0.0192479 1.600535 0.1694477 -0.01760706 1.643549 0.2528653 -0.03776916 1.617317 0.2700154 -0.02852441 1.5945 0.2832355 -0.005033824 1.581606 0.2983989 -0.01364142 1.582077 0.1763533 -0.0002990411 1.618505 0.2390871 -0.002200366 1.609747 0.2593627 0.006039451 1.593894 0.2770752 0.01883491 1.574433 0.2908438
225 0.02299545 1.499158 0.2152595 -0.0194435 1.599562 0.166646 -0.01753229 1.643715 0.2558057 -0.03961267 1.593684 0.2639081 -0.02412003 1.575143 0.2718173 -0.007285321 1.573943 0.2906081 -0.01481492 1.581768 0.175589 -0.002390413 1.618235 0.2410041 -0.007420021 1.606533 0.2604264 0.0014593 1.591514 0.2765397 0.01717475 1.574835 0.2903192
226 0.02283397 1.500129 0.2154334 -0.01979014 1.598467 0.1643714 -0.01754251 1.643523 0.2586667 -0.02851036 1.570138 0.2533979 -0.01332818 1.55898 0.2606313 -0.005387653 1.564327 0.2800746 -0.01569697 1.581101 0.1743695 -0.004148403 1.617832 0.2428477 -0.01427865 1.598731 0.260351 -0.004824574 1.585305 0.2739918 0.01396538 1.57469 0.2886247
227 0.02279754 1.500831 0.2156566 -0.02138508 1.597516 0.1626545 -0.01941695 1.642789 0.2603568 -0.01625128 1.558818 0.2447877 -0.00460763 1.551235 0.2540973 -0.001712249 1.557311 0.271496 -0.01664823 1.580418 0.1729377 -0.006075499 1.617332 0.2437912 -0.01909281 1.588764 0.2579004 -0.009417666 1.577749 0.2698274 0.008750442 1.573472 0.2852596
228 0.02314248 1.501193 0.2161854 -0.02473808 1.596892 0.1631315 -0.02198413 1.642258 0.2607639 -0.009614155 1.556563 0.2403272 -0.00164668 1.547788 0.2510956 0.001178321 1.5531 0.2666258 -0.01838635 1.57961 0.1723269 -0.00811013 1.616843 0.2440342 -0.02117934 1.582491 0.2552743 -0.01170002 1.573242 0.2669057 0.003470885 1.571409 0.2815553
229 0.02373964 1.50132 0.2173139 -0.02910822 1.596173 0.1660763 -0.0244719 1.641687 0.2611914 -0.008735472 1.556264 0.2384664 -0.004311528 1.543086 0.2482992 0.002959444 1.549797 0.2646205 -0.02076111 1.578696 0.1732442 -0.009702751 1.616563 0.244199 -0.0223604 1.580361 0.2539067 -0.01311418 1.571745 0.2659976 -0.0009824783 1.568585 0.2781251
230 0.02441724 1.501299 0.2184998 -0.03208537 1.595338 0.1688012 -0.02622069 1.641358 0.2612938 -0.01042713 1.553769 0.2377068 -0.007235568 1.540464 0.247518 0.003096007 1.546772 0.2637445 -0.02271732 1.57782 0.1746524 -0.01057479 1.616532 0.2442303 -0.02322755 1.580052 0.2534459 -0.01410297 1.571542 0.2659364 -0.003279185 1.566428 0.2763285
231 0.02515464 1.501186 0.2195357 -0.03488531 1.594346 0.1719011 -0.02776376 1.641306 0.2605823 -0.01262679 1.550485 0.2377437 -0.008298 1.539133 0.2478268 0.002027032 1.543463 0.2624266 -0.02490322 1.576743 0.1765692 -0.01127772 1.616694 0.2436737 -0.02404302 1.580017 0.253264 -0.01483609 1.571436 0.2659459 -0.004293435 1.564964 0.2755881
232 0.02562043 1.501224 0.2203932 -0.03738216 1.593022 0.174502 -0.02907085 1.641519 0.259737 -0.01437829 1.549123 0.2386982 -0.008187018 1.538407 0.2484746 0.0004934414 1.541218 0.2614692 -0.02709992 1.575304 0.1781307 -0.0121966 1.616916 0.2429227 -0.02495523 1.580432 0.253629 -0.01540871 1.57136 0.2660733 -0.004609196 1.564482 0.2755066
233 0.02602241 1.501393 0.2212041 -0.0398071 1.591426 0.1766723 -0.02999037 1.641731 0.2594836 -0.0166275 1.548931 0.2404389 -0.008222188 1.537907 0.2494726 -0.0001013757 1.540605 0.2615141 -0.02935576 1.573674 0.1796992 -0.01320146 1.61707 0.2424658 -0.02593702 1.581274 0.2546438 -0.01587078 1.571321 0.2665589 -0.004584915 1.564563 0.2759033
234 0.02643367 1.501639 0.2216485 -0.04161525 1.590331 0.1784383 -0.03060322 1.641827 0.2597856 -0.01692518 1.550036 0.241756 -0.007876361 1.537604 0.2500371 -1.51878E-05 1.540538 0.261762 -0.0309904 1.572605 0.181002 -0.01405304 1.617098 0.2425378 -0.02675694 1.581677 0.2556823 -0.01624979 1.570888 0.2671021 -0.004578071 1.564456 0.2764082
235 0.02695698 1.501956 0.2219685 -0.04335494 1.589307 0.1804098 -0.03149736 1.64171 0.2602463 -0.01686699 1.550698 0.2428465 -0.007272657 1.537487 0.2505713 0.0004255861 1.540601 0.2622974 -0.03234702 1.571746 0.1823843 -0.01508276 1.616933 0.242912 -0.0274733 1.581576 0.2566887 -0.01654805 1.570296 0.2677611 -0.004570933 1.564237 0.2770024
236 0.02745665 1.502393 0.2221979 -0.04527685 1.588261 0.1825039 -0.03295222 1.641427 0.2602983 -0.0175824 1.551089 0.2439511 -0.006860828 1.53739 0.251054 0.000852328 1.540894 0.2626899 -0.03378592 1.570948 0.183731 -0.01636581 1.616775 0.2429682 -0.02818568 1.581759 0.257461 -0.01684471 1.56988 0.2681754 -0.004616215 1.564232 0.277363
237 0.02806836 1.502911 0.2224627 -0.04768987 1.586459 0.1842307 -0.03448342 1.641099 0.260364 -0.01861148 1.553022 0.2457014 -0.006173671 1.537137 0.2515116 0.001700765 1.541047 0.2628573 -0.035649 1.569498 0.1847923 -0.01796924 1.616448 0.242991 -0.02874998 1.582879 0.2586386 -0.01684832 1.569464 0.2685886 -0.004313902 1.564213 0.2775243
238 0.02867607 1.503448 0.2229193 -0.05029625 1.5841 0.1862867 -0.03621612 1.640685 0.2602889 -0.02011973 1.554752 0.2478145 -0.005254662 1.537168 0.252336 0.002647912 1.541318 0.2632495 -0.03776174 1.5675 0.1859791 -0.01975563 1.616025 0.2429151 -0.02921284 1.584417 0.2600004 -0.01670822 1.56931 0.2691675 -0.00380837 1.564447 0.2777458
239 0.02916998 1.503829 0.2236076 -0.05202688 1.581927 0.1881149 -0.038034 1.640303 0.2598719 -0.02055914 1.55378 0.2489449 -0.004344463 1.537136 0.2532516 0.003445328 1.541575 0.2639006 -0.03926404 1.565527 0.187169 -0.0215244 1.615495 0.2427975 -0.02978396 1.58408 0.260914 -0.01666655 1.569094 0.2698708 -0.003468259 1.564686 0.2781869
240 0.02965283 1.504154 0.2242937 -0.05294701 1.58091 0.1891772 -0.03915836 1.640062 0.2599477 -0.02047988 1.552604 0.2492998 -0.004061954 1.537063 0.2538251 0.003642225 1.54169 0.2644317 -0.04011386 1.56458 0.187933 -0.0226296 1.615175 0.2430196 -0.03032175 1.583234 0.2614468 -0.01688469 1.568888 0.2704239 -0.003561772 1.564758 0.278639
241 0.03031428 1.504199 0.2248335 -0.05454117 1.577852 0.1912559 -0.04109899 1.638837 0.2605262 -0.0178354 1.547863 0.2490742 -0.002008935 1.536777 0.2546854 0.005425956 1.54182 0.2657018 -0.04128882 1.561918 0.1894331 -0.02424123 1.614047 0.2437735 -0.03022342 1.578916 0.262401 -0.01622035 1.567757 0.2716964 -0.00266158 1.564496 0.2796982
242 0.03067334 1.504321 0.2255063 -0.0566434 1.575222 0.1926056 -0.0428364 1.638135 0.2606037 -0.01589184 1.545892 0.2489474 -0.001004895 1.537213 0.2555439 0.006123484 1.541904 0.2667651 -0.0427977 1.5598 0.1907802 -0.02553644 1.613459 0.2441591 -0.03023268 1.57618 0.263054 -0.01612821 1.56731 0.2727355 -0.00241714 1.564406 0.2805641
243 0.03076814 1.504456 0.2260236 -0.05924652 1.572374 0.194044 -0.04439245 1.637889 0.2596118 -0.01443339 1.544351 0.2484758 -0.0006561672 1.537709 0.2561457 0.006376164 1.542269 0.267389 -0.04478679 1.557541 0.1921633 -0.02683781 1.613121 0.2436689 -0.03039445 1.573846 0.2630792 -0.01638583 1.567288 0.2732395 -0.002516335 1.564703 0.2809179
244 0.03081796 1.504658 0.2264691 -0.06135091 1.570036 0.1958559 -0.04629029 1.637328 0.2583207 -0.01398859 1.542523 0.2482224 -0.0006375906 1.538057 0.2564364 0.006481202 1.543041 0.2675838 -0.04665946 1.555495 0.1936119 -0.02835406 1.61275 0.2426205 -0.03062633 1.572202 0.2628401 -0.01668268 1.567576 0.2733122 -0.002636906 1.565532 0.2808545
245 0.03085302 1.50478 0.2267129 -0.06291425 1.568164 0.1977379 -0.04854622 1.63612 0.2575116 -0.01362841 1.541118 0.2478604 -0.0007031474 1.537806 0.256288 0.006528953 1.543435 0.2674092 -0.048227 1.553737 0.1948995 -0.03001939 1.612119 0.2417126 -0.03092309 1.570709 0.2626138 -0.01698895 1.567396 0.27318 -0.002839024 1.565993 0.2806036
246 0.03075361 1.50505 0.2267339 -0.06426726 1.566748 0.1989629 -0.05066411 1.635121 0.2570935 -0.01335796 1.540302 0.2473747 -0.0008466071 1.537487 0.2559723 0.006590352 1.543602 0.2671628 -0.04957369 1.552441 0.1956783 -0.03166659 1.611622 0.2411832 -0.03133868 1.569514 0.2624941 -0.01741357 1.567055 0.2730519 -0.003218957 1.566123 0.280334
247 0.03071123 1.505536 0.2267118 -0.0653193 1.565253 0.1999709 -0.05272286 1.634266 0.2567172 -0.01305612 1.539727 0.2466803 -0.0008395775 1.537407 0.255569 0.006770812 1.544069 0.2668827 -0.05072173 1.550992 0.1961802 -0.03353561 1.611008 0.2407494 -0.03179259 1.568385 0.2623709 -0.01787507 1.566788 0.2728689 -0.003647714 1.566414 0.2799866
248 0.03085077 1.505928 0.226723 -0.06598316 1.563787 0.2007641 -0.0544268 1.633562 0.256716 -0.01244077 1.539065 0.2461454 -0.0003177967 1.537634 0.2551915 0.007255358 1.544348 0.2668855 -0.05146178 1.549566 0.196555 -0.03528041 1.610159 0.2408851 -0.03205521 1.567036 0.2625455 -0.01815076 1.566197 0.2729654 -0.003932636 1.566376 0.2799253
249 0.03102479 1.506342 0.2267148 -0.06687012 1.562085 0.2020417 -0.05630047 1.632772 0.2569526 -0.01220917 1.537968 0.2460694 0.0001358885 1.537877 0.2548603 0.007746874 1.544411 0.2669045 -0.05235672 1.548048 0.1971824 -0.03722083 1.609084 0.2413621 -0.0324443 1.565777 0.2628475 -0.01850293 1.565492 0.2731445 -0.004304194 1.566108 0.2799266
250 0.03124746 1.506769 0.2267456 -0.06791988 1.560257 0.2035019 -0.05794924 1.632254 0.2569029 -0.01233123 1.537056 0.2464479 0.0003847025 1.53815 0.2548118 0.008072421 1.544517 0.2668887 -0.0533351 1.546487 0.1980758 -0.03899803 1.608135 0.2417373 -0.0329132 1.564889 0.2633238 -0.01884522 1.564975 0.2734262 -0.004605667 1.565898 0.2799873
251 0.03151883 1.507134 0.2267758 -0.06909759 1.558311 0.2052264 -0.05946462 1.631703 0.2567066 -0.01253383 1.536423 0.2470626 0.0004496806 1.538261 0.2550559 0.008150468 1.544572 0.266911 -0.05436098 1.544909 0.1992851 -0.04054696 1.607263 0.2419844 -0.03342797 1.564183 0.2638823 -0.01919764 1.564525 0.2737827 -0.004876424 1.565676 0.2801329
252 0.03170902 1.507514 0.226871 -0.0703899 1.556427 0.2068304 -0.06100485 1.631029 0.2565328 -0.01277161 1.536233 0.2477285 0.0002947896 1.538373 0.2555 0.007937125 1.544747 0.2670021 -0.05541929 1.543445 0.2005435 -0.04193273 1.606558 0.2420858 -0.03404133 1.563756 0.2643688 -0.01967323 1.564299 0.274117 -0.005261831 1.565626 0.2803073
253 0.03174106 1.508088 0.2271528 -0.07243752 1.553651 0.2083845 -0.06309567 1.629903 0.2563543 -0.013244 1.536488 0.2487383 -0.000131332 1.538512 0.2561574 0.007368091 1.5452 0.2670174 -0.05693684 1.541275 0.2021927 -0.04359554 1.605905 0.2417684 -0.03494704 1.563795 0.2648181 -0.02034472 1.56455 0.2743313 -0.005807024 1.566144 0.2803092
254 0.03157318 1.50836 0.2274566 -0.07418658 1.551446 0.2090749 -0.06478152 1.628716 0.2561284 -0.01383091 1.536952 0.2497063 -0.0006649347 1.538627 0.2566564 0.006646849 1.54554 0.2668897 -0.05819533 1.539419 0.2035296 -0.04491526 1.605353 0.241121 -0.0358435 1.564068 0.2651635 -0.0209272 1.564907 0.2743851 -0.006258616 1.566764 0.2801265
255 0.03144888 1.508649 0.2279023 -0.07560791 1.549707 0.2093471 -0.06625705 1.627533 0.2563627 -0.01436436 1.537492 0.2508659 -0.001100023 1.538745 0.2573978 0.006085157 1.545911 0.2671721 -0.05913178 1.537962 0.2047704 -0.04606183 1.6049 0.2407978 -0.03661977 1.564371 0.2658259 -0.02136876 1.565233 0.2747344 -0.006592477 1.567384 0.2802318
256 0.03135726 1.50916 0.2282009 -0.0767166 1.548619 0.20963 -0.06746034 1.626528 0.2574041 -0.01489047 1.537898 0.2520471 -0.001462522 1.538891 0.258182 0.005655603 1.546216 0.2677462 -0.05986188 1.537152 0.2058464 -0.04704347 1.604665 0.2411093 -0.0372552 1.56462 0.2666961 -0.02171464 1.565467 0.2753264 -0.006875091 1.567892 0.280616
257 0.03126612 1.510119 0.228533 -0.07792988 1.547799 0.2114693 -0.06847683 1.625971 0.2593481 -0.01526652 1.538266 0.2536212 -0.001585655 1.539294 0.2592776 0.00560497 1.546905 0.2688363 -0.06084234 1.536616 0.2078747 -0.04807889 1.604721 0.2422399 -0.03766111 1.564862 0.2682167 -0.02183336 1.565806 0.2764708 -0.006974021 1.568636 0.2814699
258 0.03116 1.511074 0.2291013 -0.07886921 1.54758 0.2144192 -0.0689642 1.626043 0.2611122 -0.01554842 1.538518 0.2552729 -0.001640728 1.539846 0.2605176 0.005579282 1.54769 0.2700748 -0.06178282 1.536488 0.2105029 -0.04877942 1.605043 0.2434228 -0.03786835 1.56522 0.2698228 -0.02184366 1.56634 0.277744 -0.006982434 1.569535 0.2824767
259 0.03083684 1.51168 0.2294358 -0.07966561 1.547401 0.2165007 -0.06927711 1.626169 0.2623141 -0.01597318 1.538714 0.2562987 -0.001942964 1.540263 0.2612912 0.005276773 1.548299 0.2708307 -0.06263749 1.536307 0.2123008 -0.0493918 1.605235 0.244174 -0.03821725 1.565493 0.2708721 -0.02206025 1.566779 0.278539 -0.007198047 1.570255 0.2830624
260 0.0305171 1.512513 0.2294718 -0.0805795 1.547267 0.2178688 -0.07004704 1.62618 0.2635105 -0.01634989 1.53925 0.2570647 -0.002208745 1.540867 0.2617396 0.005014276 1.549144 0.2712354 -0.06346461 1.536306 0.2136392 -0.05033294 1.605347 0.2450324 -0.03860218 1.565968 0.2717158 -0.02226747 1.567333 0.2791032 -0.007416692 1.571099 0.283422
261 0.03044447 1.513723 0.2294914 -0.08149658 1.547305 0.2201421 -0.07053043 1.626426 0.2651428 -0.01642256 1.54019 0.2581165 -0.002065809 1.54173 0.2623272 0.005246064 1.550394 0.2716931 -0.06424765 1.536592 0.2157761 -0.05098808 1.605837 0.246171 -0.03850343 1.566982 0.2728056 -0.02192126 1.568344 0.2798045 -0.007081843 1.57241 0.2838449
262 0.0304085 1.514915 0.229275 -0.08216157 1.547944 0.2229175 -0.07046594 1.62637 0.2677725 -0.01615692 1.541169 0.2589096 -0.001614946 1.542578 0.2627318 0.00587931 1.551594 0.2719199 -0.06491011 1.537345 0.21825 -0.05126585 1.606427 0.2477569 -0.03790545 1.56799 0.2739845 -0.02110563 1.569371 0.2805085 -0.006263371 1.573666 0.2841877
263 0.03030926 1.515994 0.2290236 -0.08243099 1.549212 0.2255462 -0.07002214 1.626608 0.2701827 -0.01584253 1.542076 0.2595232 -0.001139783 1.543489 0.2630011 0.006628164 1.552703 0.272082 -0.06535441 1.538495 0.2204914 -0.05128118 1.607178 0.2492135 -0.03714028 1.568996 0.2750517 -0.0201927 1.570434 0.2811201 -0.00534244 1.574874 0.2844249
264 0.03008088 1.51656 0.2288579 -0.08271046 1.550306 0.2271627 -0.06954571 1.626693 0.2719269 -0.01568052 1.542308 0.2599851 -0.000826792 1.544262 0.2631939 0.007169467 1.553465 0.2722543 -0.06572828 1.539451 0.2220865 -0.05125112 1.607737 0.2501425 -0.0363958 1.569656 0.2757676 -0.01944125 1.571319 0.281477 -0.004571886 1.575867 0.2844289
265 0.02994328 1.517334 0.2288327 -0.08302115 1.55095 0.2281704 -0.06942613 1.62664 0.2733901 -0.015728 1.542939 0.2604442 -0.000749076 1.545182 0.2634962 0.007403194 1.554468 0.2724485 -0.06606348 1.540071 0.2230782 -0.05144872 1.608265 0.2508779 -0.03602763 1.570568 0.2762422 -0.01907053 1.572437 0.2816975 -0.00417438 1.577075 0.2843686
266 0.03005685 1.518342 0.2287977 -0.08327405 1.551133 0.2294362 -0.0691928 1.626282 0.2752332 -0.01549335 1.543881 0.2610091 -0.0004352136 1.546194 0.2638323 0.007930904 1.555718 0.2726306 -0.06629733 1.540355 0.2242175 -0.05155956 1.60885 0.2517647 -0.03547192 1.571654 0.2768517 -0.01846008 1.573689 0.2820009 -0.003549116 1.578451 0.2843572
267 0.03035428 1.519243 0.2286736 -0.08341987 1.551186 0.2313933 -0.06830734 1.626077 0.2770979 -0.01489631 1.544886 0.2615741 0.0001914217 1.546972 0.2640036 0.008839287 1.556727 0.2726021 -0.06641962 1.540571 0.2259365 -0.05118718 1.609602 0.2526225 -0.03456143 1.572691 0.277587 -0.01740613 1.574709 0.2823533 -0.002482569 1.579536 0.2843775
268 0.03070963 1.519726 0.2285095 -0.08337627 1.55125 0.2330946 -0.06706752 1.626086 0.2782162 -0.01414906 1.54546 0.2620462 0.0009234959 1.547325 0.2641148 0.009785696 1.557189 0.2724701 -0.06632925 1.540771 0.2275469 -0.05050682 1.610308 0.2529766 -0.03357244 1.573257 0.2782481 -0.01628717 1.575227 0.2826691 -0.001334411 1.580043 0.2843964
269 0.03096286 1.519903 0.2285618 -0.08339161 1.550953 0.2339432 -0.06644045 1.626066 0.2785048 -0.0137359 1.545588 0.2624516 0.001314941 1.547351 0.2643393 0.01024759 1.557314 0.2724887 -0.06625037 1.540587 0.2284995 -0.05022726 1.610567 0.2529275 -0.03310293 1.573345 0.2787119 -0.01575453 1.575354 0.2829241 -0.0007880064 1.580188 0.2844589
270 0.03125929 1.520208 0.2287399 -0.08342675 1.550364 0.2343548 -0.06645301 1.625842 0.278495 -0.01349607 1.545671 0.2628725 0.001537381 1.547492 0.2646032 0.01044107 1.55764 0.2726292 -0.0661519 1.540153 0.229068 -0.05036485 1.610576 0.2527428 -0.03299249 1.573399 0.2790205 -0.0156088 1.575517 0.2831092 -0.0006666188 1.580479 0.2845304
271 0.03162547 1.520707 0.2287126 -0.08376059 1.548669 0.2350711 -0.06733595 1.62477 0.2785329 -0.01340282 1.545652 0.2630764 0.001688916 1.547712 0.2646582 0.0104066 1.558081 0.272564 -0.06616959 1.538964 0.2299118 -0.05118391 1.610039 0.2525482 -0.03318274 1.573263 0.2790897 -0.01578142 1.575605 0.2830574 -0.0009076148 1.580847 0.284382
272 0.03216183 1.521331 0.2287229 -0.08407471 1.546522 0.2362746 -0.06826222 1.623443 0.2789249 -0.01323263 1.545863 0.263165 0.001975662 1.548096 0.2645989 0.01046592 1.558677 0.2723256 -0.06612895 1.537468 0.2311862 -0.05211291 1.609237 0.2526487 -0.03333469 1.573249 0.2790936 -0.01590041 1.575827 0.2828959 -0.001107839 1.581364 0.2840888
273 0.03282903 1.521963 0.2286279 -0.08400762 1.544882 0.2369946 -0.0690172 1.622175 0.2794909 -0.01295421 1.546018 0.2630776 0.002391654 1.548383 0.264434 0.01065458 1.559137 0.2720376 -0.06579565 1.536336 0.2319884 -0.05288128 1.608244 0.2530415 -0.03341381 1.573067 0.2790518 -0.01595625 1.575867 0.2827182 -0.001254247 1.581673 0.2838142
274 0.03359244 1.522614 0.2285249 -0.08364457 1.543332 0.2371202 -0.0700765 1.621366 0.279466 -0.01264883 1.546152 0.2629789 0.002874967 1.548603 0.2642124 0.01083322 1.559518 0.2717037 -0.06523254 1.535177 0.2322078 -0.05371844 1.607008 0.2533597 -0.03356445 1.572777 0.2789695 -0.01605657 1.575774 0.2825017 -0.001463488 1.581873 0.2835186
275 0.03440103 1.523253 0.2283964 -0.08307596 1.542282 0.2369119 -0.07113068 1.620922 0.2789603 -0.0123306 1.54636 0.2627848 0.003337008 1.548806 0.2639181 0.01097621 1.559849 0.2712991 -0.06458321 1.534328 0.2319889 -0.05438309 1.605925 0.2534439 -0.03368872 1.572589 0.2787359 -0.01611616 1.575714 0.2821791 -0.001618073 1.582065 0.2831625
276 0.03529951 1.524027 0.2280507 -0.08228163 1.541294 0.2367502 -0.07218102 1.620524 0.2781976 -0.0117342 1.546756 0.2626038 0.004083094 1.549234 0.263452 0.01133119 1.560488 0.2706858 -0.06369612 1.533566 0.2318304 -0.05499567 1.604788 0.2534173 -0.03362687 1.572634 0.278366 -0.01593763 1.575891 0.2816463 -0.001574204 1.582584 0.2825473
277 0.03596425 1.524787 0.2277175 -0.08171064 1.540616 0.2364442 -0.073052 1.620097 0.2774896 -0.01141006 1.547136 0.2623669 0.004521814 1.54973 0.2630169 0.01138347 1.561209 0.2702091 -0.06303035 1.533085 0.2315945 -0.05554464 1.603906 0.2532358 -0.0337632 1.572773 0.2778888 -0.01599496 1.576154 0.2810823 -0.001778233 1.583201 0.2819632
278 0.03644802 1.525269 0.227549 -0.08131021 1.53999 0.2359005 -0.07376997 1.619416 0.2770537 -0.01120297 1.547311 0.2620841 0.004742964 1.549994 0.262681 0.01133743 1.561718 0.2699524 -0.06253639 1.532629 0.2311676 -0.05598482 1.603104 0.2530946 -0.03394676 1.572705 0.2774362 -0.01616276 1.576224 0.2806368 -0.002090468 1.583578 0.2815599
279 0.03696856 1.525642 0.2273996 -0.08089169 1.539222 0.2352281 -0.07432368 1.618682 0.2767199 -0.01086867 1.547352 0.2617366 0.005021477 1.550114 0.2623698 0.0114438 1.562073 0.2697428 -0.06200792 1.53207 0.2306356 -0.05627255 1.602352 0.2529854 -0.03395822 1.572445 0.2770591 -0.01620662 1.576141 0.2802921 -0.002268395 1.58375 0.2812638
280 0.03762544 1.526044 0.2271785 -0.08036966 1.538342 0.2343706 -0.0746861 1.61816 0.2762139 -0.01032891 1.547422 0.2613161 0.005498042 1.55024 0.2620235 0.01176577 1.562381 0.2694279 -0.06133027 1.531474 0.2300081 -0.05636927 1.601725 0.252761 -0.03375325 1.572156 0.2766786 -0.01605219 1.576053 0.2799387 -0.002228152 1.583862 0.2809423
281 0.03836091 1.526458 0.2268703 -0.07983615 1.537583 0.2335459 -0.07478069 1.617869 0.2757095 -0.009668958 1.547512 0.2609288 0.006108009 1.550376 0.2616841 0.01225177 1.562668 0.2690763 -0.0606136 1.531046 0.2294931 -0.05625908 1.601303 0.2525063 -0.0333424 1.571955 0.2763554 -0.01568295 1.576024 0.2796091 -0.001949055 1.583989 0.2806138
282 0.03923554 1.526823 0.2266282 -0.07917847 1.536841 0.2329524 -0.07445347 1.617872 0.2753849 -0.008665506 1.547538 0.2606823 0.006997967 1.550509 0.2615103 0.01308637 1.562882 0.2689473 -0.05973279 1.530745 0.2292941 -0.0557786 1.601169 0.2523976 -0.03251824 1.571713 0.2762941 -0.01493984 1.575974 0.2795412 -0.001282091 1.584053 0.2805431
283 0.03981414 1.526927 0.2265362 -0.07871369 1.536731 0.2323918 -0.07375149 1.618056 0.2754455 -0.007823655 1.547551 0.2605125 0.007655083 1.55058 0.2614685 0.01381327 1.562917 0.2689589 -0.05913774 1.530872 0.2290671 -0.05511608 1.601426 0.2523903 -0.03171158 1.571556 0.2763614 -0.014235 1.575951 0.2796428 -0.0005768557 1.584016 0.2806509
284 0.04015165 1.526829 0.2264688 -0.07831064 1.537297 0.2320099 -0.07274336 1.61842 0.2756826 -0.007234465 1.547499 0.2604991 0.008108615 1.550591 0.2615238 0.01443405 1.562835 0.2690605 -0.05874779 1.531344 0.2288031 -0.05431603 1.601983 0.2523654 -0.03094044 1.571589 0.2765226 -0.01353562 1.576016 0.2798188 0.0001783542 1.583987 0.2808065
285 0.04045645 1.526624 0.2264031 -0.07786411 1.538105 0.2318466 -0.07137953 1.618996 0.2759476 -0.00670055 1.547431 0.2606407 0.008563415 1.550572 0.2616251 0.0151477 1.562738 0.2692193 -0.05839351 1.5319 0.228593 -0.05329708 1.602821 0.2522362 -0.0300568 1.571827 0.2767461 -0.01267888 1.576199 0.2800119 0.001110806 1.584047 0.2809413
286 0.04073001 1.526361 0.2262766 -0.07743628 1.538806 0.2318006 -0.06984629 1.620134 0.2756664 -0.006229023 1.547547 0.2607536 0.009061566 1.550673 0.2616372 0.01594851 1.562685 0.2692572 -0.05808705 1.532319 0.2284146 -0.0521282 1.603914 0.2517597 -0.02912939 1.572346 0.2768738 -0.01172268 1.576574 0.2800544 0.002170697 1.584243 0.2808729
287 0.04097868 1.526067 0.2261017 -0.07697567 1.539514 0.2317222 -0.06839915 1.62165 0.2748804 -0.005787526 1.547809 0.2607621 0.009596923 1.550818 0.2615615 0.01673325 1.56264 0.2691504 -0.05776807 1.532708 0.2281703 -0.05095479 1.604979 0.2511033 -0.02827517 1.572956 0.2768663 -0.01080311 1.576994 0.2799502 0.003203584 1.584454 0.2806517
288 0.04120577 1.525716 0.2258667 -0.07644179 1.540677 0.231566 -0.06674791 1.623452 0.2740245 -0.005389484 1.548076 0.260688 0.01012177 1.550842 0.2614455 0.01748885 1.562438 0.2689976 -0.05749036 1.533323 0.2277151 -0.04961511 1.606055 0.25053 -0.02745085 1.573539 0.2768236 -0.009885457 1.577309 0.2798217 0.00425064 1.584506 0.2804316
289 0.04121232 1.525257 0.2257874 -0.07610087 1.541877 0.2313303 -0.06547512 1.6252 0.2729303 -0.00520359 1.548147 0.2605316 0.01035466 1.550756 0.2613299 0.01794169 1.562132 0.2689113 -0.0574095 1.533989 0.2272325 -0.04853356 1.607013 0.2498695 -0.02691672 1.573899 0.2767097 -0.009314857 1.577449 0.2797114 0.004931622 1.584389 0.2803047
290 0.04104833 1.524585 0.225742 -0.07605647 1.542684 0.2307664 -0.06464506 1.626639 0.2716112 -0.005159671 1.547948 0.2603172 0.01040323 1.550475 0.2611484 0.01816141 1.561641 0.2688124 -0.05750101 1.534461 0.2266623 -0.04774804 1.607671 0.249105 -0.02662388 1.573995 0.2764603 -0.009009745 1.577353 0.2795203 0.005325303 1.584063 0.2801476
291 0.04077622 1.523754 0.2256293 -0.07608984 1.543575 0.2298017 -0.06398139 1.627994 0.2701362 -0.005170746 1.547614 0.259931 0.01037912 1.550113 0.2607947 0.01830399 1.561013 0.2685893 -0.05764708 1.535024 0.2257992 -0.0470319 1.608178 0.2483316 -0.02641998 1.573979 0.2760122 -0.008807601 1.577127 0.2791837 0.005618166 1.583571 0.2798933
292 0.04060278 1.523039 0.2253003 -0.07588172 1.544975 0.2282281 -0.06314053 1.629673 0.2685803 -0.004968771 1.547371 0.2592478 0.01050369 1.549883 0.2602373 0.01857115 1.560481 0.2682273 -0.05758832 1.536015 0.2243674 -0.04611123 1.608769 0.2477725 -0.02600793 1.57398 0.2754073 -0.008441344 1.576939 0.2787459 0.006069212 1.583114 0.2795919
293 0.04061917 1.522609 0.2247701 -0.07530995 1.546792 0.2263878 -0.06198498 1.631506 0.2672211 -0.004455534 1.547497 0.2582494 0.01089258 1.549966 0.259455 0.01905185 1.560226 0.267603 -0.0572212 1.537354 0.2226097 -0.04498551 1.609485 0.2474381 -0.02531515 1.574215 0.2746304 -0.007819043 1.577039 0.2781318 0.006773416 1.582947 0.2791062
