yixianl/unity_handgesture/data/fight_palm_1.txt
frame right_handpalm right_thumb_tip right_index_tip right_middle_tip right_ring_tip right_pinky_tip right_thumb_joint right_index_joint right_middle_joint right_ring_joint right_pinky_joint 
0 0.03796308 1.51648 0.1846563 -0.06991277 1.552196 0.2369822 -0.0533819 1.638187 0.2480572 -0.02135189 1.66756 0.2237923 0.01227308 1.670723 0.2214314 0.05108598 1.649671 0.2235846 -0.0550947 1.540418 0.2267697 -0.03728922 1.613647 0.2279929 -0.01143975 1.631789 0.2086732 0.01593095 1.631998 0.2082471 0.04527933 1.622058 0.2111736
1 0.03846765 1.517059 0.1850625 -0.06981815 1.551899 0.237353 -0.05333206 1.638478 0.2485205 -0.02161682 1.668777 0.2228365 0.01230136 1.671095 0.2224431 0.05131924 1.650126 0.2243989 -0.05470681 1.540455 0.2272099 -0.03703284 1.613903 0.2286965 -0.01128149 1.632125 0.2095247 0.01608926 1.632446 0.2091248 0.04553083 1.622571 0.2119016
2 0.03890977 1.517606 0.1851271 -0.06979154 1.551351 0.2375828 -0.05338226 1.638696 0.2486956 -0.02177103 1.669564 0.2215242 0.01219395 1.671417 0.2229816 0.05154469 1.650538 0.2248544 -0.05440689 1.540296 0.2274266 -0.03684847 1.614104 0.2291077 -0.01113074 1.632336 0.2100831 0.01617779 1.632808 0.2096679 0.04576333 1.623004 0.2123492
3 0.03941149 1.518265 0.185093 -0.06983538 1.550568 0.2377329 -0.05334269 1.638935 0.2488691 -0.02194185 1.670274 0.2202968 0.01195346 1.671985 0.2227229 0.05182581 1.651209 0.2246794 -0.05410309 1.540015 0.2275824 -0.03662788 1.614418 0.2293347 -0.01097127 1.632693 0.2103768 0.01625403 1.633285 0.2098048 0.04605107 1.623583 0.2124047
4 0.03983995 1.518778 0.1851413 -0.07023653 1.549372 0.2374863 -0.05350701 1.638903 0.249021 -0.02247113 1.670552 0.2193733 0.01122028 1.67248 0.2217077 0.05165391 1.651955 0.2238397 -0.05405454 1.539382 0.2274863 -0.03670295 1.614541 0.2293729 -0.01119727 1.632903 0.2102064 0.01593224 1.633644 0.2093859 0.04595469 1.624133 0.2119914
5 0.04014775 1.519287 0.1853276 -0.07073016 1.548209 0.2371114 -0.05390049 1.638867 0.2490521 -0.02321289 1.670636 0.2185155 0.01022711 1.672952 0.2204689 0.05111449 1.652796 0.2228039 -0.05414273 1.538696 0.2273311 -0.03699543 1.614633 0.2293525 -0.01166947 1.633062 0.209854 0.0153664 1.633994 0.2087767 0.04557056 1.62474 0.2114606
6 0.0403075 1.519721 0.1855456 -0.0710893 1.54741 0.2368143 -0.05444789 1.638976 0.2486981 -0.02405956 1.670644 0.2174803 0.009160371 1.673329 0.2192058 0.05033569 1.653599 0.2216305 -0.05425707 1.538161 0.2272187 -0.03740395 1.614733 0.229157 -0.01226823 1.633153 0.2093867 0.01468406 1.634286 0.2080572 0.04500487 1.625313 0.210793
7 0.04047466 1.520079 0.1857987 -0.07109027 1.547027 0.2369017 -0.05492819 1.639122 0.2482461 -0.02485071 1.670587 0.2165691 0.008208079 1.673595 0.2181177 0.04954205 1.654296 0.2205116 -0.05421318 1.537832 0.2273525 -0.03776029 1.614824 0.2289159 -0.01282979 1.633199 0.2089285 0.01405593 1.634519 0.2073341 0.04444677 1.625824 0.2100862
8 0.04067198 1.520343 0.186013 -0.07073095 1.547074 0.2373732 -0.05520059 1.639279 0.2477834 -0.02537842 1.670498 0.2160258 0.007545121 1.673761 0.21726 0.04893746 1.654803 0.2195989 -0.05397939 1.53776 0.2277388 -0.03796148 1.614915 0.2286345 -0.01320241 1.633224 0.2085259 0.01362805 1.634677 0.2067133 0.04405078 1.626208 0.2094595
9 0.04082895 1.520483 0.1861569 -0.07029389 1.547271 0.23789 -0.05535372 1.639371 0.2473753 -0.02570115 1.67039 0.2157339 0.007116552 1.673836 0.2166218 0.04851924 1.655105 0.21895 -0.05371757 1.537797 0.2281261 -0.03807706 1.614959 0.2283514 -0.01343218 1.633213 0.2082126 0.01335613 1.634748 0.2062515 0.04378684 1.626434 0.208994
10 0.04094226 1.520574 0.1864154 -0.06988658 1.547505 0.238481 -0.05564152 1.639407 0.2469055 -0.02610007 1.670232 0.2155269 0.006620676 1.673885 0.2159886 0.04803658 1.655358 0.2183961 -0.05347715 1.537874 0.2286117 -0.03830044 1.614955 0.2280282 -0.01373991 1.633164 0.207898 0.01301473 1.634784 0.2058422 0.04345251 1.626628 0.2085988
11 0.04112938 1.520686 0.186727 -0.06943402 1.547771 0.2391054 -0.05584762 1.639457 0.2464702 -0.02635476 1.670119 0.2153474 0.00631061 1.673964 0.215479 0.04777681 1.6556 0.2179575 -0.05313765 1.538029 0.2291815 -0.03842832 1.614969 0.2277517 -0.01391604 1.633139 0.2076516 0.01282198 1.634841 0.2055769 0.04327971 1.626817 0.2083362
12 0.04139868 1.520814 0.1869688 -0.06885524 1.548131 0.2397397 -0.05578112 1.639476 0.2463675 -0.02639205 1.670057 0.2155994 0.006274424 1.674053 0.2152805 0.04778428 1.655805 0.2176922 -0.05269334 1.538273 0.2297322 -0.03834154 1.614999 0.2276891 -0.01388662 1.633171 0.2076198 0.01285667 1.63492 0.2055416 0.04332539 1.62697 0.2082596
13 0.04175261 1.52097 0.1872067 -0.06844407 1.548421 0.24 -0.05530306 1.639531 0.2468228 -0.02602925 1.670149 0.2164811 0.006696048 1.674219 0.2156297 0.04834802 1.65598 0.2177861 -0.05227409 1.538579 0.2300072 -0.03793067 1.61515 0.2279801 -0.01350944 1.633376 0.207876 0.01326688 1.635101 0.2058687 0.0437846 1.62711 0.2085318
14 0.04209725 1.521109 0.1873034 -0.06846331 1.548377 0.2396773 -0.05454608 1.639497 0.2478001 -0.02534588 1.670343 0.2177446 0.007483019 1.674409 0.2163114 0.04952639 1.656 0.2181698 -0.05199837 1.538838 0.2298916 -0.03729131 1.61532 0.2286034 -0.01285786 1.633676 0.2083705 0.01397161 1.635299 0.206477 0.04464062 1.627134 0.2090627
15 0.04232691 1.521174 0.1872802 -0.06878881 1.54808 0.2390501 -0.05375017 1.6394 0.2488742 -0.0245318 1.670547 0.2187475 0.008425121 1.674552 0.2169596 0.05093984 1.65586 0.2186594 -0.05185724 1.53903 0.2296114 -0.03662708 1.615451 0.2292862 -0.01213008 1.633932 0.2088697 0.01476128 1.635427 0.2070941 0.04561857 1.627032 0.2096615
16 0.04245336 1.521185 0.1872559 -0.06927628 1.547831 0.2382926 -0.05286989 1.639413 0.2498806 -0.02345511 1.670845 0.2193345 0.009685146 1.674737 0.2173306 0.05265282 1.655562 0.2192844 -0.05179291 1.539383 0.2293304 -0.03591739 1.615665 0.22991 -0.01127005 1.634206 0.2092763 0.01571199 1.635537 0.207597 0.04675841 1.626837 0.2103048
17 0.04255553 1.521097 0.1872912 -0.06964937 1.547772 0.2376757 -0.0519204 1.639787 0.2502391 -0.02206366 1.67108 0.220064 0.01118712 1.674893 0.2175381 0.05424841 1.655123 0.2201443 -0.05172146 1.539824 0.2291556 -0.03513407 1.616026 0.2301571 -0.01024914 1.634463 0.2096434 0.01681358 1.635575 0.2080694 0.04789635 1.626543 0.2110201
18 0.04250083 1.520981 0.1873752 -0.07004519 1.54789 0.2370603 -0.05062484 1.640823 0.2501151 -0.019835 1.671123 0.2217368 0.01336898 1.675056 0.2180937 0.05597831 1.654548 0.2212969 -0.05176969 1.540325 0.2289595 -0.03404781 1.616737 0.2302895 -0.008804988 1.634845 0.2102807 0.0183276 1.635626 0.2088013 0.04920975 1.626153 0.2119379
19 0.04209916 1.520961 0.1874041 -0.07036689 1.548507 0.2368391 -0.04894985 1.642495 0.2499986 -0.01713211 1.671178 0.2242827 0.01609608 1.675334 0.2192806 0.05777659 1.653979 0.2227639 -0.0520101 1.540993 0.2288924 -0.03270483 1.617868 0.230597 -0.007124256 1.635489 0.2113261 0.02012401 1.635834 0.209899 0.05059773 1.625803 0.2130694
20 0.04175276 1.520766 0.1868695 -0.07025653 1.550026 0.2355345 -0.04698801 1.643896 0.249588 -0.01442604 1.671091 0.2265095 0.01859681 1.6752 0.2210459 0.05915239 1.65326 0.2238631 -0.05216612 1.541914 0.2275834 -0.03117213 1.618746 0.230542 -0.005310848 1.635903 0.212224 0.0219025 1.635787 0.2111164 0.05185641 1.625247 0.213871
21 0.04128509 1.520529 0.1864088 -0.06946255 1.553246 0.2345263 -0.04495679 1.645408 0.2490588 -0.01153876 1.671391 0.227543 0.02141504 1.674802 0.2237942 0.06096618 1.652221 0.225473 -0.05232577 1.543708 0.2260967 -0.0295926 1.619789 0.2302952 -0.003276858 1.636392 0.2127494 0.02387181 1.635707 0.2125983 0.05334717 1.624496 0.2149622
22 0.04079518 1.520363 0.1860349 -0.06868768 1.555947 0.2339028 -0.04325284 1.646672 0.2485468 -0.009317405 1.672248 0.2269295 0.02365734 1.674443 0.2258954 0.06260616 1.651264 0.2268385 -0.05249906 1.545302 0.2249782 -0.02834126 1.620766 0.229838 -0.001598384 1.636794 0.2128857 0.02545307 1.635622 0.21377 0.0546122 1.623814 0.2159265
23 0.04010131 1.52 0.1857674 -0.0679557 1.558045 0.2338842 -0.04177496 1.64733 0.2486613 -0.007307815 1.673242 0.2246761 0.02556536 1.674143 0.2264324 0.06429812 1.650313 0.2271008 -0.05271014 1.546554 0.2243901 -0.02729595 1.621461 0.2296008 -7.284834E-05 1.636938 0.2126846 0.02681996 1.63535 0.2142371 0.05580913 1.62299 0.2162918
24 0.03913487 1.519295 0.1855167 -0.06786413 1.55928 0.2340808 -0.04029038 1.647817 0.2487933 -0.005071095 1.674007 0.2223958 0.02781915 1.673729 0.225711 0.0663031 1.648961 0.2267365 -0.05317469 1.547405 0.2241977 -0.02625845 1.621971 0.2293828 0.001513346 1.63684 0.2124965 0.028317 1.634736 0.2141552 0.05711302 1.621739 0.2162778
25 0.03776239 1.518618 0.1851881 -0.0691273 1.559646 0.2337775 -0.03883344 1.649203 0.2475673 -0.002305749 1.674499 0.2213113 0.03081737 1.673363 0.2243065 0.06848358 1.647312 0.2266718 -0.05417259 1.548035 0.2239974 -0.02517346 1.622862 0.2285613 0.003279054 1.636886 0.2123812 0.03011729 1.634081 0.2137666 0.05847427 1.620308 0.2163878
26 0.03623017 1.518149 0.1848523 -0.0713781 1.559604 0.232592 -0.03710698 1.651425 0.2452744 0.0007345498 1.675114 0.2205095 0.03432403 1.673082 0.2229907 0.07088776 1.64558 0.22702 -0.05555904 1.548688 0.2234138 -0.02389172 1.624246 0.2271558 0.005209986 1.637216 0.2121206 0.03216624 1.633596 0.213401 0.05995205 1.618924 0.2167515
27 0.03473721 1.517643 0.1846242 -0.07347172 1.55956 0.2318275 -0.03538361 1.653681 0.2427979 0.003372873 1.675876 0.2190461 0.03754722 1.67262 0.2226212 0.07345386 1.643517 0.228097 -0.05684456 1.549343 0.2232702 -0.02259921 1.6256 0.2257112 0.00696331 1.637554 0.2114976 0.03406815 1.633169 0.2131259 0.06151342 1.617498 0.2172588
28 0.03345774 1.517201 0.1845025 -0.07477742 1.559933 0.2311952 -0.03403763 1.655186 0.2411904 0.005178272 1.676347 0.2181739 0.03954206 1.672192 0.2229685 0.07486409 1.641977 0.2291666 -0.05775 1.550045 0.2230236 -0.02170511 1.626601 0.2245671 0.008112741 1.637871 0.2107535 0.03523953 1.632942 0.2129522 0.06242185 1.616579 0.2174348
29 0.03179757 1.516276 0.1845095 -0.07588497 1.56029 0.2304275 -0.03318639 1.656097 0.2395602 0.006363688 1.676147 0.2179004 0.04073047 1.671491 0.2230143 0.07556863 1.640647 0.2293392 -0.05861824 1.550545 0.2225713 -0.02118409 1.627088 0.223405 0.008824214 1.637833 0.2097929 0.03590071 1.632458 0.2124072 0.06282946 1.615608 0.2171434
30 0.02991558 1.515357 0.1843893 -0.07707229 1.560514 0.229962 -0.03255759 1.656729 0.2381251 0.007305372 1.675703 0.2177346 0.04168616 1.670597 0.2229963 0.07610437 1.639067 0.2296708 -0.05964453 1.550861 0.2223457 -0.02090582 1.627307 0.2224713 0.009270367 1.637529 0.2092309 0.03630286 1.631726 0.2120922 0.0630044 1.61439 0.2171028
31 0.02793495 1.514336 0.1835744 -0.07789882 1.560881 0.2297038 -0.03197587 1.656975 0.2366019 0.008179883 1.675015 0.2176013 0.04265089 1.669317 0.2228871 0.07665139 1.637053 0.2298572 -0.06058462 1.551058 0.2220404 -0.02064182 1.627123 0.2215271 0.009696829 1.636856 0.2088058 0.03669564 1.63058 0.2118005 0.06315845 1.612733 0.2169845
32 0.02462528 1.512773 0.1824512 -0.07888044 1.562172 0.2308839 -0.03081519 1.657209 0.235088 0.009939884 1.673845 0.218544 0.04470354 1.666643 0.2243062 0.0778297 1.63296 0.2310865 -0.06204025 1.551844 0.2228285 -0.02007949 1.626707 0.2208931 0.01058589 1.635551 0.2092489 0.03755267 1.628288 0.2125709 0.06350815 1.609395 0.2176576
33 0.02180608 1.51237 0.1818699 -0.07908416 1.566004 0.233827 -0.0281615 1.659031 0.2335172 0.01451785 1.673234 0.2201697 0.04884629 1.663171 0.2294021 0.08039577 1.627286 0.2346593 -0.06295846 1.555062 0.2251886 -0.01825313 1.627618 0.2208294 0.01324006 1.634951 0.2107587 0.03988665 1.626119 0.2150995 0.06499361 1.605506 0.2195139
34 0.0198111 1.511763 0.1820337 -0.07885863 1.573224 0.2335725 -0.02303125 1.661163 0.2336167 0.02113292 1.671501 0.2247909 0.05407156 1.658282 0.2360269 0.08223303 1.62064 0.2394109 -0.06403922 1.560832 0.224578 -0.01484482 1.629188 0.2211073 0.01765721 1.634308 0.2124488 0.04329222 1.623109 0.2186103 0.06651417 1.600643 0.2222984
35 0.01837844 1.511221 0.1816482 -0.0787288 1.576158 0.2325536 -0.02044492 1.661625 0.2338308 0.02371388 1.669477 0.2288555 0.05604268 1.655659 0.2386085 0.08270394 1.61744 0.2411586 -0.06457839 1.563128 0.2234071 -0.01318256 1.629417 0.2213491 0.01965386 1.633533 0.2135924 0.04462464 1.62124 0.2201156 0.06696257 1.598085 0.2233605
36 0.01701855 1.510841 0.1811487 -0.07908393 1.577633 0.2317367 -0.01832252 1.661793 0.2342007 0.02567104 1.666535 0.2331173 0.05802267 1.653583 0.2399615 0.08320218 1.614749 0.2425502 -0.06516865 1.564385 0.2225508 -0.01183383 1.629466 0.2216439 0.02133996 1.632782 0.2145261 0.04577953 1.619668 0.2210905 0.06731606 1.595986 0.2242637
37 0.01588556 1.510695 0.1807673 -0.07947168 1.578489 0.2316069 -0.01618983 1.662158 0.2344831 0.02734757 1.663847 0.2366464 0.0600795 1.652077 0.2406218 0.08388413 1.612585 0.2436236 -0.06571139 1.565207 0.2222385 -0.01047357 1.629657 0.2220037 0.0229051 1.632291 0.2153698 0.04693145 1.618481 0.221791 0.06774972 1.594343 0.2250189
38 0.01481578 1.51092 0.1804222 -0.07948063 1.580237 0.231564 -0.01309608 1.662867 0.235413 0.02942343 1.662053 0.2396482 0.06270748 1.650948 0.240717 0.08505888 1.610695 0.2443154 -0.0660211 1.566814 0.2219467 -0.008498902 1.630212 0.2228208 0.02480084 1.632057 0.2165361 0.04844366 1.617481 0.2224328 0.06843513 1.592831 0.2257513
39 0.0137156 1.511328 0.1798873 -0.0787277 1.582149 0.2320529 -0.009968745 1.663571 0.2359802 0.03205642 1.662221 0.2406597 0.0651504 1.649913 0.2408878 0.08648118 1.609128 0.2443907 -0.06575167 1.568522 0.2220467 -0.006455294 1.630774 0.2233609 0.02661456 1.631868 0.2174952 0.04996723 1.616704 0.2228232 0.06933883 1.591626 0.2259349
40 0.012329 1.511909 0.1791926 -0.07695939 1.585847 0.2331181 -0.004734928 1.664799 0.2357114 0.03691286 1.662955 0.2405099 0.0687587 1.647632 0.2416158 0.08851697 1.606355 0.2441148 -0.06477099 1.571858 0.2226353 -0.002998208 1.631858 0.2231189 0.02961704 1.631596 0.2180553 0.0524535 1.615518 0.2226001 0.07080872 1.589756 0.2253622
41 0.01136457 1.512569 0.1788158 -0.07519987 1.590455 0.2324154 0.0009013825 1.66606 0.2349136 0.04278247 1.663839 0.2391406 0.07293245 1.645165 0.2422404 0.09082645 1.603556 0.2438947 -0.06318539 1.576017 0.2223904 0.001058263 1.633045 0.2225358 0.03336772 1.631261 0.2182238 0.05549529 1.61418 0.2224784 0.07262977 1.587785 0.2249607
42 0.01058576 1.513255 0.178526 -0.0734783 1.593744 0.2323987 0.005416263 1.667185 0.2335927 0.04753486 1.664341 0.2378435 0.0760983 1.643372 0.2429296 0.09253702 1.601518 0.2439715 -0.06181765 1.579016 0.222401 0.004339328 1.634007 0.2217796 0.03639217 1.631041 0.218332 0.05786562 1.613221 0.2226357 0.07409506 1.586401 0.2247738
43 0.00969749 1.514009 0.1780602 -0.07215652 1.596727 0.2318505 0.009543244 1.668107 0.2323666 0.05162765 1.663963 0.2377062 0.07899758 1.641709 0.2433008 0.09394163 1.5998 0.2437801 -0.06091762 1.581691 0.2218451 0.007259578 1.63479 0.2211465 0.03905686 1.630755 0.2186528 0.05989614 1.612289 0.2227398 0.07524057 1.585193 0.2244558
44 0.008621743 1.514514 0.1775247 -0.07128648 1.599787 0.2300872 0.01324552 1.668575 0.2313334 0.0548716 1.662685 0.2387145 0.08121967 1.639765 0.2439868 0.09471906 1.598007 0.2438477 -0.06050181 1.584349 0.2202111 0.009806183 1.635217 0.2205253 0.04131473 1.63008 0.2192545 0.06140139 1.611004 0.2231624 0.07579993 1.583717 0.2245076
45 0.00739392 1.514947 0.1769151 -0.0705299 1.602891 0.2278631 0.01677489 1.66883 0.2301219 0.05745422 1.661021 0.2400808 0.08293451 1.637702 0.2447958 0.09513042 1.596212 0.2439387 -0.06017517 1.587046 0.2181832 0.01219203 1.635496 0.2196714 0.04330622 1.629246 0.2197549 0.06258886 1.609595 0.2235905 0.07605107 1.582158 0.2245953
46 0.006385344 1.515386 0.1764883 -0.06936171 1.605739 0.2262674 0.01986804 1.669001 0.2293165 0.05945824 1.659611 0.2413404 0.08423252 1.635921 0.2457353 0.09542042 1.594687 0.2441855 -0.05959545 1.589547 0.2165604 0.01430647 1.635787 0.2189632 0.04499393 1.628608 0.2201331 0.06357443 1.608458 0.2240125 0.07625754 1.58089 0.2247526
47 0.005646936 1.515968 0.1762934 -0.06776528 1.608571 0.2250175 0.02295038 1.669143 0.2294816 0.06137466 1.658409 0.242989 0.08563602 1.634492 0.246663 0.09586452 1.593527 0.2445162 -0.0587672 1.592084 0.2150747 0.01651807 1.636226 0.2186946 0.04672933 1.628209 0.2207847 0.06468397 1.607614 0.2244999 0.07664374 1.579955 0.2249964
48 0.005197518 1.516664 0.176257 -0.0659366 1.611387 0.223648 0.0257376 1.669329 0.2302508 0.06319649 1.657429 0.2446038 0.08746257 1.633666 0.2467449 0.09672831 1.592817 0.2444501 -0.05774195 1.594628 0.2134726 0.01871206 1.636776 0.2187676 0.04853635 1.628011 0.2214531 0.06598068 1.607058 0.2247709 0.07727467 1.579326 0.2251263
49 0.004752661 1.51727 0.1760765 -0.06363217 1.614251 0.2222473 0.02904325 1.669335 0.230201 0.06564356 1.656122 0.2456892 0.08966017 1.632255 0.2467457 0.09781915 1.591351 0.2444814 -0.05628226 1.597244 0.2118575 0.02128702 1.636998 0.2186548 0.05071281 1.627334 0.2220165 0.06752403 1.605987 0.2250828 0.07803877 1.578085 0.2253811
50 0.004393674 1.517707 0.1756174 -0.06100814 1.616792 0.2212116 0.03283451 1.668718 0.2305895 0.06838961 1.654212 0.2470454 0.09186699 1.630181 0.2471464 0.09875552 1.589376 0.2447607 -0.0544385 1.599605 0.2106075 0.02405736 1.63673 0.2188713 0.05293567 1.626152 0.222881 0.06904682 1.60445 0.2256174 0.07872591 1.576446 0.2257552
51 0.004241933 1.518179 0.1752217 -0.05861326 1.619429 0.2195575 0.03652668 1.667771 0.2321075 0.07100903 1.652245 0.2489321 0.09415784 1.62813 0.2476046 0.09967601 1.587535 0.245237 -0.05244916 1.60199 0.20914 0.02677333 1.636287 0.2198645 0.05500858 1.624852 0.2243675 0.07050321 1.602869 0.2264821 0.07930668 1.574854 0.2264855
52 0.003996859 1.518636 0.1751346 -0.05702809 1.62148 0.2184482 0.03909481 1.667044 0.2336344 0.07305291 1.650969 0.2500588 0.09578371 1.626671 0.2479731 0.1001809 1.586189 0.2458297 -0.05104853 1.60384 0.2082816 0.02865654 1.635966 0.2209869 0.05645638 1.623924 0.2255358 0.07147115 1.601759 0.22724 0.07959748 1.57373 0.2272016
53 0.003539466 1.519016 0.1751868 -0.05617755 1.622931 0.2178822 0.04084661 1.666419 0.2349191 0.07445195 1.649899 0.250933 0.0968328 1.625434 0.2483279 0.1002852 1.585013 0.2464751 -0.05029257 1.605176 0.2078805 0.02986562 1.635654 0.2220429 0.05735289 1.623145 0.2265067 0.07198434 1.600843 0.2279142 0.07955027 1.572792 0.2278954
54 0.002973182 1.519304 0.1752021 -0.05572902 1.62393 0.2177075 0.04217802 1.665712 0.2361708 0.07523783 1.64863 0.2522013 0.09748024 1.624119 0.248961 0.1001319 1.583768 0.2472809 -0.04986935 1.606121 0.2078051 0.0307264 1.635239 0.2230846 0.05792506 1.622327 0.2275273 0.0722364 1.5999 0.228653 0.07930434 1.571828 0.2286511
55 0.002347365 1.519612 0.1751709 -0.05529012 1.624829 0.217805 0.0433646 1.664835 0.2377507 0.07559714 1.647033 0.2542657 0.09783219 1.62251 0.2502985 0.09965942 1.582211 0.2487125 -0.04946144 1.606992 0.2079459 0.03147805 1.634684 0.2243535 0.05831137 1.621333 0.2290079 0.07230367 1.598758 0.2298414 0.07885201 1.570647 0.2298441
56 0.001810337 1.51993 0.1751269 -0.05497531 1.625563 0.2179367 0.04417131 1.664118 0.2390887 0.07548329 1.645697 0.2564092 0.09778708 1.621189 0.2518734 0.09893941 1.580917 0.2503758 -0.0491458 1.607688 0.2081476 0.03193039 1.634205 0.2254868 0.05838419 1.620506 0.2305292 0.07213583 1.597816 0.2311471 0.07826843 1.569668 0.2311787
57 0.00113108 1.520204 0.175132 -0.05500272 1.626256 0.2180738 0.04454157 1.663539 0.2401322 0.07483654 1.644509 0.2585627 0.09729785 1.620028 0.2534908 0.09778605 1.57967 0.2522062 -0.04911001 1.608328 0.2084189 0.03196389 1.633784 0.2264904 0.05801895 1.619774 0.2320573 0.07158773 1.59698 0.2324665 0.07733549 1.568753 0.232593
58 0.0004540503 1.520309 0.1751439 -0.05559418 1.626526 0.218169 0.04383389 1.663306 0.2409447 0.0737749 1.644106 0.2598182 0.09643711 1.619574 0.2544531 0.09670769 1.578989 0.2532434 -0.0495656 1.608551 0.2086763 0.03122644 1.633571 0.2272498 0.05712656 1.619477 0.2330609 0.07073127 1.596631 0.2332648 0.07638105 1.568298 0.2333783
59 -0.0001267173 1.520329 0.1753375 -0.05644353 1.626398 0.2185405 0.0422424 1.663337 0.2420534 0.07252638 1.644518 0.2604807 0.0952464 1.619726 0.25535 0.09564601 1.578956 0.2540586 -0.05035535 1.608434 0.2090505 0.02998506 1.633601 0.2279847 0.05589938 1.619621 0.2338389 0.06971911 1.596749 0.2339146 0.07548846 1.568349 0.2339654
60 -0.0006584228 1.520312 0.175861 -0.05731885 1.62615 0.2189426 0.04049439 1.663451 0.2433212 0.0712018 1.64522 0.2609736 0.09382552 1.620107 0.2565691 0.09450544 1.579235 0.2551717 -0.05131497 1.608248 0.2092733 0.02870581 1.633763 0.2287202 0.05468366 1.619973 0.234509 0.06868591 1.597065 0.2347048 0.07458588 1.56861 0.2348429
61 -0.001124663 1.5204 0.1761662 -0.05872692 1.625596 0.2191942 0.0386375 1.663699 0.2440895 0.06966963 1.645788 0.2614516 0.09249029 1.620651 0.2573417 0.09341842 1.579674 0.2560191 -0.05260884 1.607789 0.2094215 0.02721619 1.633933 0.2293551 0.05338271 1.620353 0.2350332 0.06757765 1.597471 0.2353526 0.07363455 1.568989 0.2356111
62 -0.001159663 1.52046 0.1762233 -0.06063202 1.624504 0.218863 0.03590354 1.664211 0.244592 0.06735852 1.646791 0.2619518 0.09116875 1.622012 0.2572505 0.09302755 1.580969 0.2555988 -0.05413784 1.606757 0.2092317 0.02502527 1.634186 0.2299809 0.05153583 1.621094 0.2355342 0.06629729 1.598395 0.2356847 0.07292981 1.56998 0.2357136
63 -0.0008950476 1.520257 0.1764408 -0.06222718 1.62305 0.2187663 0.03247425 1.664952 0.2448637 0.06449145 1.648318 0.2623394 0.08935537 1.623864 0.2574255 0.09265301 1.582766 0.2551538 -0.05550342 1.605409 0.2090894 0.02246602 1.63456 0.2303545 0.04934236 1.622114 0.2359848 0.06485202 1.599656 0.2360502 0.07231409 1.571337 0.2357675
64 -0.0005427946 1.520013 0.1765895 -0.06347895 1.621497 0.2192759 0.02958258 1.665436 0.2451062 0.06207572 1.649437 0.2625186 0.08801766 1.625541 0.257063 0.09258165 1.584395 0.2543369 -0.05664422 1.604018 0.2093741 0.02033495 1.63482 0.2305206 0.04759949 1.622996 0.2360087 0.06374983 1.600804 0.2359764 0.07195765 1.572585 0.2354517
65 -0.0001140783 1.519791 0.1768674 -0.06474373 1.619963 0.2200123 0.02683569 1.665974 0.2452413 0.06000207 1.650619 0.2623011 0.08684475 1.627287 0.2564552 0.09255139 1.585976 0.2535407 -0.0577557 1.602652 0.2099161 0.01833431 1.63516 0.2305884 0.04608928 1.623972 0.2357116 0.0628118 1.602054 0.2356478 0.07172697 1.573884 0.2350049
66 0.0004572978 1.519694 0.177403 -0.06614343 1.618516 0.220815 0.02423531 1.666567 0.2457323 0.05832826 1.65219 0.2620964 0.08563466 1.629097 0.2564419 0.09237066 1.58769 0.2534415 -0.05883247 1.601343 0.2106927 0.01646371 1.635542 0.2310426 0.04464601 1.625006 0.2358342 0.0619081 1.603359 0.235817 0.0714932 1.575286 0.2351004
67 0.001312291 1.519616 0.1782145 -0.06748211 1.617079 0.2216192 0.02159028 1.667098 0.2466456 0.05635028 1.653949 0.2625537 0.08397542 1.63107 0.2573779 0.09174089 1.589808 0.2543165 -0.05970978 1.599989 0.2116711 0.01455618 1.635863 0.2319076 0.04293486 1.626051 0.2367136 0.06079783 1.604768 0.2367172 0.07108383 1.576932 0.2359569
68 0.002324894 1.519512 0.1792027 -0.06821086 1.615823 0.2224542 0.01939945 1.667571 0.2474605 0.05490891 1.655932 0.2626295 0.0824163 1.632953 0.2586416 0.09110338 1.591899 0.2556445 -0.06005321 1.598756 0.2127459 0.01302107 1.636106 0.2327932 0.0414864 1.627008 0.2377082 0.05986987 1.606087 0.2378836 0.07081576 1.578531 0.2371396
69 0.003697767 1.519357 0.1805203 -0.06885254 1.614515 0.2230122 0.01736863 1.668095 0.2482634 0.05371632 1.658204 0.2622653 0.08092813 1.63519 0.2598628 0.09051771 1.594415 0.2571894 -0.06011047 1.597439 0.2138099 0.01168295 1.636402 0.2336802 0.04029562 1.628146 0.2385121 0.05912996 1.607662 0.2390442 0.07073825 1.58045 0.2384979
70 0.005048741 1.519425 0.1817983 -0.07004112 1.612871 0.223685 0.01477663 1.668714 0.2492107 0.05219299 1.66065 0.2616527 0.07933682 1.637825 0.2606159 0.09002688 1.597274 0.2582338 -0.06045903 1.595896 0.2151267 0.01000286 1.636847 0.2345904 0.03898053 1.629576 0.2389736 0.05831617 1.609605 0.2398233 0.07070374 1.582743 0.2394281
71 0.006282734 1.519494 0.1830691 -0.07171997 1.610718 0.2247388 0.0110639 1.669375 0.2498404 0.04954628 1.663396 0.2605043 0.07715944 1.640932 0.2605365 0.08938257 1.600484 0.258398 -0.0611898 1.593994 0.2168075 0.007499569 1.637319 0.2352702 0.0369528 1.631281 0.2389002 0.05703667 1.611927 0.2399098 0.07042211 1.585391 0.239646
72 0.007245114 1.519497 0.1842395 -0.07344084 1.608263 0.2261792 0.006319026 1.66993 0.2500354 0.0456083 1.666169 0.2591989 0.07439174 1.644186 0.2597972 0.0887424 1.603682 0.2576089 -0.06207187 1.591889 0.2186921 0.004200657 1.637587 0.2358654 0.03405147 1.632913 0.2387933 0.05516121 1.614248 0.2397044 0.069801 1.587991 0.2393651
73 0.008182548 1.519327 0.1855717 -0.07498545 1.606051 0.2271814 0.001691003 1.670178 0.2502285 0.04158447 1.668491 0.2579834 0.07151853 1.64704 0.2591749 0.08777164 1.606375 0.2574229 -0.06282832 1.590016 0.2202152 0.0009789187 1.637648 0.2363935 0.03114096 1.63422 0.2387248 0.05314733 1.616192 0.2397204 0.06887372 1.59013 0.2396453
74 0.009312704 1.519094 0.1868496 -0.07598376 1.603782 0.2281445 -0.002713861 1.670004 0.2506077 0.03771769 1.670061 0.2574512 0.06884651 1.649649 0.2584127 0.08666999 1.609267 0.2572728 -0.06322032 1.588084 0.2215126 -0.001986228 1.637473 0.2368241 0.02852709 1.635231 0.238628 0.05133946 1.61792 0.2396525 0.06794129 1.592214 0.2401026
75 0.01049408 1.51905 0.1879755 -0.07684791 1.601426 0.229688 -0.006307356 1.669841 0.2509698 0.03411182 1.671461 0.2572165 0.0663029 1.652136 0.2577886 0.08558592 1.612306 0.2568695 -0.06368434 1.586092 0.2229833 -0.00445311 1.637324 0.2372621 0.02611437 1.636175 0.2387191 0.04966047 1.619602 0.2396415 0.06710023 1.594383 0.2403201
76 0.0116584 1.519351 0.1886855 -0.0779614 1.598597 0.2315187 -0.009838835 1.669327 0.2522433 0.03033379 1.672601 0.2574558 0.06339495 1.654801 0.257005 0.08416002 1.615657 0.2562606 -0.06437749 1.58376 0.2245403 -0.006945756 1.637096 0.2380731 0.02359314 1.637182 0.2387647 0.04779531 1.621536 0.23929 0.06613168 1.596908 0.2401051
77 0.01287772 1.519763 0.1893032 -0.07885987 1.595683 0.2333366 -0.01329741 1.668597 0.2537687 0.02667364 1.673058 0.258785 0.06050933 1.657124 0.2567441 0.08233627 1.618828 0.2563525 -0.06508205 1.58128 0.2258394 -0.009413326 1.6367 0.2390933 0.0211559 1.637953 0.2392116 0.04590289 1.623258 0.23933 0.06494755 1.59932 0.240373
78 0.01398048 1.519796 0.1900455 -0.07910042 1.593112 0.2352169 -0.01634787 1.667856 0.2543525 0.02329849 1.673394 0.2594309 0.05749566 1.658822 0.2569223 0.08025204 1.62155 0.2565959 -0.06556195 1.578893 0.2269537 -0.01163474 1.636131 0.2395202 0.01884849 1.638357 0.2394599 0.04398382 1.624501 0.2394875 0.06363025 1.601287 0.2407081
79 0.01512516 1.51981 0.1906694 -0.07929094 1.590749 0.2365986 -0.01926802 1.66686 0.2553017 0.02022585 1.674068 0.2589949 0.05458476 1.66053 0.2565477 0.07842409 1.624248 0.2560869 -0.06586043 1.576704 0.2278531 -0.01372136 1.635498 0.2399596 0.0166928 1.638764 0.2392526 0.04214987 1.625729 0.2392222 0.06244895 1.603222 0.2404985
80 0.01610044 1.520172 0.1912084 -0.08021213 1.588484 0.2368264 -0.02204982 1.666066 0.2562798 0.01758741 1.675138 0.2577952 0.05188225 1.662386 0.2559158 0.07682168 1.626892 0.2554782 -0.06620054 1.574812 0.2284123 -0.01566102 1.63508 0.2405187 0.0148008 1.639419 0.2387009 0.04045745 1.627153 0.2387853 0.06143488 1.605289 0.2400855
81 0.01710658 1.520749 0.1917481 -0.08135991 1.58597 0.2370017 -0.02510019 1.665377 0.2570844 0.01457504 1.675862 0.2577333 0.04911902 1.66392 0.2563082 0.07514979 1.629254 0.2555753 -0.06668492 1.572803 0.2289317 -0.01773565 1.634641 0.2412782 0.01274851 1.639992 0.2388286 0.03869406 1.628455 0.2390519 0.06032671 1.607233 0.2402268
82 0.01826503 1.521293 0.191775 -0.08218402 1.583102 0.2368066 -0.02876266 1.664214 0.2574392 0.01051088 1.676128 0.2578473 0.04600239 1.66557 0.2558312 0.07315987 1.631626 0.2555265 -0.06702031 1.57042 0.2288692 -0.020172 1.633785 0.2416925 0.01014531 1.640279 0.238891 0.0366318 1.629629 0.2390091 0.05894129 1.609098 0.2403611
83 0.01934011 1.52205 0.191331 -0.08282176 1.580505 0.2363608 -0.03213915 1.662981 0.2578912 0.006811147 1.676593 0.2571715 0.04295984 1.667169 0.2551207 0.07125835 1.633765 0.2554544 -0.06731188 1.568268 0.228384 -0.02244969 1.633003 0.241919 0.007699871 1.640643 0.2384496 0.03462788 1.630843 0.2385935 0.05760007 1.610893 0.2402937
84 0.02042552 1.52282 0.1911307 -0.08339969 1.578036 0.2356796 -0.03544768 1.661952 0.2579759 0.003320664 1.677523 0.2554574 0.03965393 1.66897 0.2540942 0.06913915 1.636439 0.2546519 -0.0676271 1.566146 0.2276787 -0.02472205 1.632353 0.2419283 0.005267878 1.641176 0.2375357 0.03248781 1.632281 0.2377999 0.05615588 1.613074 0.2396411
85 0.02134272 1.523337 0.1912361 -0.08413556 1.576116 0.2343455 -0.03816269 1.661301 0.2574594 0.0001992205 1.678522 0.253214 0.03651064 1.670596 0.2527159 0.06689101 1.638951 0.2535436 -0.06803839 1.564481 0.2266121 -0.02670137 1.631874 0.2415783 0.003012799 1.641617 0.2364789 0.0303998 1.633504 0.2368873 0.05461426 1.615035 0.2387922
86 0.02257168 1.523723 0.1917638 -0.08425557 1.574033 0.2333069 -0.04106955 1.659939 0.257489 -0.002780455 1.678747 0.2518862 0.03358107 1.6718 0.2517439 0.06459378 1.640802 0.2537772 -0.06814157 1.562487 0.2255048 -0.02875538 1.630972 0.2414732 0.0008952997 1.641678 0.2357758 0.02841701 1.634347 0.2365462 0.0530549 1.616559 0.2390187
87 0.02397952 1.523922 0.1927392 -0.08358608 1.572605 0.2326055 -0.04360297 1.658673 0.2572569 -0.005578222 1.678995 0.2500095 0.03059528 1.672934 0.2504758 0.06226972 1.642507 0.2542581 -0.06785388 1.560783 0.2244625 -0.03047728 1.629998 0.2413943 -0.0009579276 1.641535 0.2351231 0.02656151 1.634968 0.2363033 0.05161474 1.61785 0.2395807
88 0.02530959 1.524216 0.1931006 -0.08291686 1.571139 0.2321326 -0.0456548 1.657446 0.2570345 -0.008491369 1.678932 0.2489451 0.02761736 1.673981 0.2489886 0.06002537 1.644483 0.253456 -0.06732024 1.55923 0.2238443 -0.03190215 1.629 0.2412692 -0.002843969 1.641297 0.2347874 0.02474101 1.635559 0.2357398 0.05023481 1.619259 0.2391532
89 0.02662711 1.524619 0.193318 -0.08240768 1.569361 0.2318097 -0.04775837 1.656056 0.2570131 -0.01199179 1.67858 0.2483841 0.02425525 1.675212 0.2468363 0.05777592 1.647053 0.2511324 -0.06663791 1.557583 0.2236562 -0.03336654 1.628006 0.2410918 -0.005026339 1.641131 0.2342798 0.02271545 1.636369 0.2345654 0.04879076 1.621051 0.2377229
90 0.02805644 1.525151 0.1936068 -0.08186032 1.567283 0.2319075 -0.04969591 1.654641 0.2572764 -0.01528573 1.678333 0.2474221 0.02060113 1.676366 0.2449174 0.05559536 1.649889 0.2479925 -0.06579778 1.555759 0.2239681 -0.03472788 1.62707 0.2410454 -0.007136962 1.641123 0.2333224 0.02058646 1.637376 0.2330051 0.04740275 1.623157 0.2355382
91 0.02937895 1.526002 0.193476 -0.0813662 1.565443 0.2318992 -0.05109888 1.653533 0.2577374 -0.01764836 1.678211 0.2471686 0.01763854 1.677015 0.2451022 0.0534206 1.652342 0.2458472 -0.06487568 1.554338 0.2242507 -0.03574942 1.62642 0.2410772 -0.008785889 1.641314 0.2326706 0.01881567 1.638408 0.2320869 0.04608551 1.625226 0.2336619
92 0.0307179 1.52694 0.193455 -0.08132844 1.563773 0.2308474 -0.05220542 1.652857 0.2579087 -0.01963828 1.678343 0.2468537 0.01528543 1.677715 0.2454717 0.05103994 1.654641 0.2443822 -0.0640221 1.553395 0.2240142 -0.03654173 1.626083 0.2409658 -0.01016357 1.641654 0.2321862 0.01735849 1.639452 0.2315399 0.04470595 1.627199 0.2323267
93 0.0319836 1.527797 0.1936478 -0.08125567 1.561783 0.2296737 -0.05329415 1.65198 0.2582922 -0.0216789 1.678451 0.2457487 0.01309362 1.678401 0.2451272 0.04882582 1.656765 0.2426339 -0.06313431 1.552286 0.2237864 -0.03725268 1.625616 0.2411044 -0.01146161 1.641861 0.2314504 0.01601948 1.640356 0.2308438 0.04341953 1.628976 0.2309849
94 0.03320022 1.528805 0.1936213 -0.08074468 1.559887 0.2293967 -0.05465994 1.650723 0.2589262 -0.02376997 1.678397 0.2442557 0.01114194 1.678959 0.2445146 0.04704087 1.6585 0.2411786 -0.06222711 1.551019 0.2238328 -0.03805356 1.624926 0.2415204 -0.01272604 1.64192 0.2305451 0.01479858 1.641126 0.2300518 0.04232134 1.630498 0.22988
95 0.03439674 1.530056 0.1934871 -0.07998274 1.55836 0.2297854 -0.05644941 1.64951 0.2591674 -0.02619123 1.67852 0.2422506 0.009202586 1.679818 0.2432503 0.0453821 1.65999 0.240684 -0.06135237 1.549886 0.2240411 -0.03906257 1.624261 0.2418042 -0.01413003 1.641996 0.2297458 0.01355974 1.641934 0.2292943 0.04124945 1.631959 0.2293327
96 0.03557332 1.53127 0.193326 -0.07901864 1.556891 0.2307682 -0.05830184 1.648314 0.2589817 -0.02885686 1.678428 0.240576 0.006990844 1.680794 0.2413627 0.04384383 1.66132 0.2404659 -0.06032323 1.548858 0.2246631 -0.04010807 1.623557 0.2418059 -0.01565543 1.641971 0.2291636 0.01221457 1.642666 0.228523 0.04022121 1.633336 0.2289035
97 0.03668303 1.532382 0.1930622 -0.07794773 1.55531 0.2323693 -0.05990009 1.647298 0.2584437 -0.03140329 1.678069 0.2393671 0.004777785 1.681541 0.2396229 0.04246829 1.662536 0.2399949 -0.05924062 1.547742 0.2257617 -0.04101999 1.622881 0.2415846 -0.01713968 1.641838 0.2286004 0.01087982 1.643266 0.2277083 0.0392574 1.63456 0.2283503
98 0.03779339 1.533111 0.1927707 -0.07651117 1.55339 0.2348694 -0.0615625 1.646071 0.2572293 -0.03425737 1.677117 0.2381845 0.002152887 1.681849 0.2377357 0.04106011 1.663561 0.2390769 -0.05786236 1.546325 0.2275948 -0.04191729 1.621865 0.2409901 -0.0187513 1.641238 0.2279931 0.009397211 1.643456 0.2269012 0.03827511 1.635442 0.2277141
99 0.03873258 1.533628 0.1924123 -0.07539968 1.551453 0.2365353 -0.06289513 1.644979 0.2560381 -0.03668673 1.676062 0.2373869 -0.000323431 1.681849 0.2362872 0.03964764 1.664385 0.2380128 -0.05667137 1.544942 0.2289501 -0.04264393 1.62086 0.2404148 -0.02015929 1.640519 0.2275723 0.007999773 1.643422 0.2263165 0.03731079 1.636064 0.2270587
100 0.03964262 1.533973 0.1923447 -0.0745842 1.549443 0.2371716 -0.06414547 1.643815 0.2549688 -0.03894487 1.674861 0.2367798 -0.002925502 1.681568 0.234942 0.03791412 1.665117 0.236643 -0.0556458 1.543465 0.2296785 -0.04335333 1.61976 0.2399646 -0.02152853 1.639661 0.227249 0.006510333 1.643206 0.2257162 0.03617845 1.636553 0.2262365
101 0.04041259 1.5341 0.1925601 -0.0740893 1.547486 0.2371986 -0.06526971 1.642589 0.2541598 -0.04089902 1.673614 0.2363264 -0.005389964 1.680987 0.2339563 0.03593555 1.665587 0.2351774 -0.05486436 1.542061 0.2300583 -0.04404214 1.618666 0.2396085 -0.02277774 1.638762 0.2269421 0.005053582 1.642839 0.2250587 0.03493168 1.63686 0.2251972
102 0.04110056 1.534137 0.1927304 -0.07360892 1.545538 0.2369961 -0.06626171 1.641179 0.2536129 -0.0426983 1.672259 0.2359025 -0.007869584 1.680192 0.2328902 0.033652 1.66587 0.2335422 -0.05411487 1.540645 0.2302548 -0.04469772 1.617457 0.2393112 -0.02397342 1.637748 0.2266253 0.003560403 1.642309 0.2242817 0.03352412 1.637008 0.22399
103 0.04166642 1.534203 0.1927669 -0.07324036 1.543724 0.2365607 -0.06704113 1.639832 0.2533974 -0.04397916 1.67112 0.2356301 -0.009693921 1.679478 0.2320345 0.03179792 1.665993 0.2321694 -0.05352799 1.539305 0.23017 -0.04522449 1.616356 0.2391487 -0.02486216 1.636865 0.2263865 0.002412307 1.641798 0.2236534 0.03237112 1.637027 0.2230073
104 0.0423342 1.534182 0.192764 -0.07272769 1.541983 0.236078 -0.06742708 1.638559 0.2533692 -0.04450015 1.670192 0.2354979 -0.01058109 1.678788 0.2317984 0.03083006 1.665898 0.2314259 -0.05287589 1.537958 0.2298931 -0.04540511 1.615368 0.2390357 -0.02518099 1.636117 0.2261664 0.001891951 1.641302 0.2232649 0.0318389 1.636894 0.2224553
105 0.04305087 1.534153 0.1927454 -0.07212184 1.540535 0.2357944 -0.06761771 1.637378 0.2534369 -0.04467763 1.669424 0.2354351 -0.01099525 1.678193 0.2318275 0.0304214 1.665731 0.2310795 -0.05220533 1.536799 0.2296592 -0.04543716 1.614496 0.2389082 -0.02523151 1.635497 0.2259658 0.001698552 1.640865 0.2230701 0.03166596 1.636712 0.2222077
106 0.04379227 1.534061 0.1928509 -0.07145171 1.539481 0.2356806 -0.06760821 1.636416 0.2534623 -0.044632 1.668795 0.2352821 -0.01110866 1.677682 0.2318807 0.03037254 1.665531 0.2308562 -0.05151887 1.535898 0.2295299 -0.04530437 1.613775 0.2387996 -0.02507864 1.634972 0.2257787 0.001748686 1.64047 0.2229875 0.0317512 1.636495 0.2220991
107 0.04471298 1.533851 0.1930941 -0.07055813 1.538797 0.2356585 -0.06723236 1.635589 0.2535862 -0.04423182 1.668202 0.2352812 -0.01080388 1.677201 0.231932 0.03081431 1.665277 0.2307154 -0.05063509 1.535219 0.2294904 -0.04480948 1.613105 0.2389012 -0.02456892 1.634448 0.2258396 0.002189796 1.640043 0.223093 0.03224349 1.636193 0.2221641
108 0.04567818 1.533571 0.1933404 -0.0695554 1.53866 0.235817 -0.06631106 1.635244 0.2537485 -0.04316156 1.667915 0.2354252 -0.009786041 1.676886 0.2322398 0.03200474 1.664962 0.2311469 -0.04967283 1.534968 0.2295898 -0.04383731 1.612771 0.2391318 -0.02349064 1.634135 0.2260929 0.003228573 1.6397 0.2235378 0.0333394 1.635839 0.2227129
109 0.0465556 1.533288 0.1935984 -0.06865754 1.538993 0.2359976 -0.06505488 1.635375 0.2539689 -0.04159055 1.668035 0.2356186 -0.008048671 1.676857 0.2327918 0.03387061 1.664623 0.2323127 -0.04881751 1.535153 0.2297196 -0.04259378 1.612847 0.2393931 -0.02201401 1.634146 0.2264291 0.004772927 1.639565 0.224183 0.03492862 1.635523 0.2237403
110 0.04713058 1.532848 0.1940144 -0.06818311 1.539499 0.2361929 -0.06356236 1.636001 0.2543408 -0.0397843 1.668424 0.2360829 -0.005978092 1.676969 0.233583 0.03596456 1.664228 0.2334751 -0.04835911 1.535517 0.2299391 -0.04133244 1.61329 0.2396524 -0.02050138 1.634377 0.2267808 0.006415266 1.639542 0.2248219 0.0365906 1.635172 0.2246993
111 0.0473589 1.532243 0.1944981 -0.06800485 1.540356 0.2366058 -0.0619688 1.637049 0.2546067 -0.03765704 1.66915 0.2363058 -0.003538029 1.677165 0.2346746 0.03857347 1.663664 0.2351067 -0.04828591 1.536036 0.2302211 -0.04008189 1.614002 0.2398591 -0.01886545 1.634757 0.2271697 0.008201091 1.639538 0.225705 0.03846391 1.634668 0.226068
112 0.04736742 1.531512 0.1947942 -0.06805249 1.541291 0.2367468 -0.06052612 1.638082 0.2545757 -0.0356252 1.669874 0.2360183 -0.001185056 1.677325 0.235276 0.04086044 1.662961 0.2363964 -0.04842703 1.536628 0.2302901 -0.0389911 1.61468 0.239796 -0.01736752 1.63508 0.2272409 0.009852441 1.639455 0.2262648 0.04009863 1.634049 0.227078
113 0.04724878 1.530583 0.1951198 -0.06833225 1.542025 0.2365597 -0.05931848 1.638946 0.2542609 -0.03386616 1.670445 0.2352255 0.0008536531 1.677394 0.235062 0.04275902 1.662211 0.2369904 -0.04872125 1.53713 0.2302081 -0.03812642 1.615235 0.2394082 -0.01611192 1.635282 0.2267906 0.01124917 1.639265 0.2262002 0.04144402 1.633355 0.2275071
114 0.04692293 1.529483 0.1954789 -0.06901832 1.542404 0.2358677 -0.05831568 1.639709 0.2536797 -0.03205216 1.670961 0.2342275 0.003032087 1.677359 0.2347058 0.04483239 1.661213 0.2375928 -0.04929553 1.537501 0.2298694 -0.03743815 1.615768 0.2387089 -0.01487956 1.635463 0.2259616 0.01266375 1.638998 0.2258669 0.04283265 1.632489 0.2278092
115 0.04632733 1.528199 0.1957999 -0.06990699 1.542546 0.2351526 -0.05766523 1.640159 0.252989 -0.0304285 1.671216 0.2333702 0.005063195 1.677042 0.2343867 0.04672785 1.659865 0.238343 -0.0500695 1.537691 0.2295075 -0.0369859 1.616045 0.2380172 -0.01381656 1.635432 0.225213 0.0139259 1.638501 0.2255063 0.04406056 1.63137 0.2280875
116 0.04572005 1.527035 0.1963014 -0.07058433 1.542445 0.2347376 -0.05736332 1.640218 0.2526597 -0.02946721 1.671126 0.2331733 0.006273302 1.676582 0.2343635 0.04770156 1.658728 0.2390152 -0.05068587 1.537601 0.2293196 -0.03680549 1.616012 0.2376949 -0.01322534 1.635206 0.224892 0.01463842 1.637959 0.2254044 0.04469006 1.630427 0.2283648
117 0.04492377 1.525719 0.1966983 -0.07162438 1.542641 0.2343727 -0.05656014 1.640538 0.2526127 -0.02746599 1.671186 0.2336584 0.008620015 1.675885 0.2351953 0.04941837 1.656856 0.2405861 -0.05170045 1.537709 0.2291653 -0.03633607 1.616169 0.237504 -0.01201988 1.635049 0.2248273 0.0160036 1.637185 0.2258119 0.04580701 1.628912 0.2292527
118 0.04446746 1.524444 0.1969732 -0.07225042 1.543031 0.233896 -0.05483381 1.641295 0.252536 -0.02473559 1.671215 0.2344441 0.0113512 1.675054 0.2362022 0.05136499 1.655284 0.2408061 -0.05232207 1.537886 0.2289435 -0.03516763 1.616497 0.237435 -0.01026515 1.634902 0.2247822 0.01776092 1.636378 0.2261351 0.04723344 1.627444 0.2294361
119 0.04394417 1.523271 0.1969936 -0.07237839 1.544336 0.2333757 -0.05296567 1.642015 0.2525216 -0.02210594 1.671156 0.2350817 0.01369944 1.674164 0.2374379 0.05315684 1.654011 0.2406338 -0.05259398 1.538568 0.2285496 -0.03390512 1.616808 0.2373434 -0.008577604 1.634739 0.2245923 0.01932957 1.635667 0.2263389 0.04855956 1.62622 0.2293221
120 0.04333555 1.522122 0.1971268 -0.07250902 1.546873 0.2320434 -0.05032325 1.643478 0.252451 -0.01875169 1.671378 0.2367279 0.0164331 1.673337 0.2393744 0.05515451 1.652598 0.2411793 -0.05294025 1.54019 0.2275212 -0.03216188 1.6177 0.2371204 -0.006425222 1.634956 0.2248528 0.0212323 1.635106 0.2269763 0.05014085 1.625005 0.2295375
121 0.04261165 1.520925 0.1974267 -0.07271729 1.549237 0.2305378 -0.0474138 1.644982 0.2527256 -0.01504969 1.671598 0.2385289 0.01933844 1.672652 0.2408023 0.05732536 1.651132 0.2418036 -0.05335987 1.541765 0.2263254 -0.03023211 1.618667 0.237173 -0.004029945 1.635219 0.2253845 0.02329 1.6345 0.2277949 0.0518324 1.62368 0.2300411
122 0.04170672 1.519598 0.1978065 -0.07264668 1.551766 0.2307278 -0.04423254 1.645998 0.2543374 -0.01111693 1.671446 0.2412786 0.02302205 1.671612 0.2427643 0.0607408 1.648936 0.2429876 -0.05383145 1.543211 0.2261292 -0.02806381 1.619398 0.2381985 -0.001367635 1.635231 0.2268245 0.02581689 1.633533 0.229222 0.05415431 1.621752 0.2311355
123 0.04073004 1.518084 0.1978183 -0.07244552 1.554088 0.2313448 -0.04141738 1.646486 0.2555508 -0.008082532 1.670676 0.2444311 0.02665762 1.670225 0.2446511 0.06438978 1.646111 0.2445834 -0.05425321 1.544593 0.2261079 -0.02597921 1.619738 0.2389335 0.001070403 1.634739 0.2288833 0.02839238 1.632047 0.2311517 0.05659108 1.619206 0.232783
124 0.03967369 1.516802 0.197588 -0.0724864 1.555507 0.2326228 -0.03917103 1.647048 0.2558295 -0.005136263 1.670318 0.2455168 0.03060108 1.66913 0.2445529 0.06770249 1.64332 0.2458205 -0.05467121 1.545644 0.2267942 -0.02419002 1.619968 0.2393459 0.003383234 1.634108 0.230236 0.03092655 1.630546 0.2322274 0.05873531 1.616659 0.2342539
125 0.03831527 1.515619 0.1974558 -0.07303164 1.556868 0.2336658 -0.03677101 1.648341 0.2550648 -0.001130133 1.670646 0.2452128 0.03522747 1.667999 0.2443049 0.07080002 1.640325 0.247484 -0.05534087 1.546907 0.2276002 -0.02232171 1.620607 0.2391743 0.006081406 1.633687 0.2309411 0.03370739 1.62913 0.2329219 0.06076451 1.614084 0.2357451
126 0.03684292 1.51453 0.1976975 -0.07371219 1.558438 0.2346381 -0.0342965 1.650008 0.253922 0.002797308 1.67099 0.2452246 0.0394017 1.666505 0.2459221 0.07329221 1.637286 0.2499298 -0.05613925 1.548311 0.2284633 -0.02047089 1.62152 0.2387506 0.008644599 1.633471 0.2315707 0.03626904 1.627845 0.2340041 0.0624861 1.611688 0.2373933
127 0.03517155 1.513482 0.1978354 -0.07435218 1.560081 0.2354442 -0.03204047 1.65134 0.2532037 0.006262041 1.670982 0.2458801 0.04288877 1.66468 0.2483417 0.07535625 1.634201 0.2523419 -0.05701841 1.549637 0.229078 -0.01882892 1.622235 0.2385669 0.01087764 1.633146 0.2324122 0.03843974 1.62646 0.2353363 0.06390305 1.609302 0.2389184
128 0.03354232 1.512582 0.1976161 -0.07526496 1.561628 0.2355483 -0.03011223 1.652022 0.2536065 0.009017807 1.670169 0.2488214 0.04586519 1.662442 0.2515284 0.07717339 1.630923 0.2546502 -0.05802022 1.551013 0.2291893 -0.01745096 1.622658 0.2389394 0.01270305 1.632611 0.2342367 0.04026119 1.624825 0.237212 0.06502048 1.606722 0.2405262
129 0.03225714 1.511483 0.1974366 -0.07543358 1.563249 0.235895 -0.02855152 1.652166 0.2537998 0.01111216 1.668789 0.2515106 0.04828089 1.660263 0.2535 0.07850526 1.628011 0.256034 -0.05842288 1.552267 0.2295228 -0.0163374 1.62252 0.2393126 0.0141084 1.631678 0.2357635 0.04168695 1.623046 0.2385884 0.06581904 1.604294 0.2415626
130 0.03112754 1.510484 0.1969943 -0.07493306 1.565573 0.2358036 -0.02687856 1.652467 0.2532619 0.01308826 1.667591 0.2529601 0.05037236 1.658339 0.2544141 0.07969214 1.625455 0.256617 -0.05834982 1.55396 0.2294334 -0.01520783 1.622339 0.2393301 0.01540977 1.630734 0.2366087 0.04293494 1.621403 0.2392371 0.066529 1.602103 0.2419891
131 0.03002411 1.509647 0.1962231 -0.07386977 1.568581 0.2352902 -0.02467604 1.652889 0.2525151 0.0155351 1.66668 0.2531357 0.05240795 1.656487 0.2547572 0.08097279 1.622803 0.2570126 -0.05786531 1.556202 0.2289122 -0.01376718 1.622285 0.2390602 0.01700058 1.629851 0.2367339 0.04423741 1.619823 0.2393883 0.06735912 1.599905 0.2421162
132 0.02865853 1.509052 0.1953571 -0.07305176 1.571999 0.2341647 -0.02111768 1.653885 0.2521126 0.01954662 1.666095 0.2534046 0.05555781 1.654238 0.2559578 0.08287781 1.619271 0.2584253 -0.05739217 1.559049 0.2280731 -0.01143947 1.622643 0.239177 0.01951196 1.629021 0.2374236 0.04622133 1.617988 0.2402468 0.06864879 1.597178 0.2428928
133 0.02739311 1.508666 0.1948891 -0.07237853 1.575356 0.2326425 -0.01702917 1.655325 0.2511388 0.02395564 1.665434 0.2544662 0.05908436 1.651953 0.2576729 0.08498277 1.61585 0.2600042 -0.0568669 1.561993 0.2270918 -0.00868452 1.623277 0.2392356 0.02237624 1.628255 0.2386985 0.04847949 1.616146 0.2416708 0.0701016 1.594476 0.2440515
134 0.02632945 1.508599 0.194481 -0.0712036 1.578607 0.2320559 -0.01314513 1.656622 0.2506301 0.02784364 1.664793 0.2557765 0.06227361 1.65009 0.2591023 0.08688837 1.613217 0.2610206 -0.05621909 1.564673 0.226445 -0.006082311 1.624013 0.2393244 0.02497737 1.627772 0.2397171 0.05054714 1.614767 0.2427171 0.07142172 1.592423 0.2448172
135 0.02546528 1.50869 0.1940188 -0.06961119 1.582528 0.2309622 -0.008898077 1.657978 0.2504142 0.03187489 1.664312 0.2569674 0.06553957 1.648335 0.2604463 0.08873608 1.610735 0.2619422 -0.05532998 1.56792 0.225186 -0.003137472 1.625078 0.2390492 0.02779427 1.627524 0.2404583 0.05277177 1.613579 0.2434851 0.07281625 1.590559 0.2453393
136 0.02446132 1.508979 0.1932271 -0.06827778 1.586404 0.2292621 -0.004174911 1.659327 0.2502526 0.03611746 1.663706 0.2583072 0.06929469 1.646423 0.2614432 0.09087685 1.608122 0.2624122 -0.05449652 1.571293 0.2235183 0.0002113034 1.626282 0.2385735 0.03082987 1.62727 0.2412031 0.05527757 1.612306 0.2440436 0.07435779 1.588593 0.2455741
137 0.02345749 1.509467 0.1922257 -0.06686977 1.59007 0.2279001 0.0003378992 1.660389 0.2504131 0.0400868 1.662872 0.2597688 0.07287013 1.644439 0.2623166 0.09278166 1.605541 0.2628377 -0.05361544 1.574554 0.2219893 0.003518196 1.62745 0.2380352 0.03378186 1.627018 0.2417359 0.05768102 1.611064 0.2444112 0.07573712 1.586707 0.2457294
138 0.02239688 1.510075 0.1914032 -0.06561045 1.593524 0.2269636 0.004026173 1.661322 0.2506348 0.04366549 1.661947 0.261305 0.07592893 1.642334 0.2636676 0.09437559 1.602902 0.2635706 -0.05265226 1.57773 0.2211402 0.006376067 1.628528 0.2377209 0.03649122 1.626799 0.2422335 0.05981216 1.609897 0.244875 0.07691976 1.584925 0.2459926
139 0.02143603 1.510734 0.1905772 -0.06435595 1.596629 0.2255376 0.00729201 1.662014 0.2510463 0.04706208 1.661121 0.2623986 0.07862738 1.640499 0.2646742 0.0958562 1.600669 0.2639405 -0.05158469 1.580555 0.2200991 0.008850471 1.6293 0.2378237 0.0389359 1.626519 0.242714 0.06169061 1.608876 0.2452344 0.07803307 1.583444 0.2460221
140 0.02062924 1.511595 0.1896633 -0.06239678 1.600703 0.222935 0.01230075 1.662833 0.251602 0.05205432 1.659986 0.2633484 0.08236301 1.638296 0.2653741 0.09790017 1.59813 0.2640355 -0.04990637 1.584212 0.2181629 0.0125101 1.630209 0.2380818 0.0425377 1.626115 0.2430432 0.06441216 1.607657 0.2453104 0.07972221 1.581735 0.2457296
141 0.02006982 1.512038 0.1889635 -0.06088445 1.603655 0.2201837 0.01656511 1.663089 0.2518285 0.05566574 1.658672 0.2641523 0.08475348 1.636342 0.266093 0.09893601 1.596066 0.264451 -0.04860588 1.586847 0.2160357 0.01549415 1.63059 0.2380788 0.04520619 1.625426 0.24331 0.06624793 1.606413 0.2455058 0.0806721 1.580155 0.2458356
142 0.01932547 1.51265 0.1880548 -0.05912226 1.607028 0.2170953 0.02176778 1.663194 0.2521207 0.05951127 1.657017 0.2653084 0.08705409 1.633991 0.267315 0.09966907 1.593526 0.2654701 -0.04716072 1.58987 0.2134805 0.0190033 1.63086 0.2381888 0.04804169 1.624437 0.2439332 0.06802455 1.604806 0.2461402 0.0813714 1.578124 0.2464658
143 0.01847417 1.512949 0.1874953 -0.05793711 1.609747 0.214352 0.02648668 1.662638 0.2532232 0.06251018 1.654574 0.26776 0.08897611 1.630983 0.2693475 0.09987045 1.590339 0.2673937 -0.04630057 1.592307 0.2110132 0.02221579 1.63067 0.2387713 0.05039359 1.622941 0.245312 0.06941435 1.602691 0.2474336 0.08154396 1.575581 0.2478972
144 0.01755614 1.513102 0.1868692 -0.05710735 1.611592 0.2127059 0.02994703 1.661613 0.2545708 0.0641575 1.651631 0.2708907 0.09042659 1.627963 0.2710877 0.09992209 1.587219 0.2688213 -0.04579328 1.59394 0.2093807 0.02455275 1.630026 0.2396605 0.05194644 1.621196 0.2469264 0.07034005 1.600526 0.2485946 0.08151129 1.573115 0.248941
145 0.01666808 1.513253 0.1861321 -0.05628856 1.612959 0.211421 0.03263971 1.660476 0.2557209 0.06500079 1.648578 0.2740732 0.09174617 1.625241 0.2722297 0.1001745 1.584465 0.2695343 -0.04528721 1.59512 0.2080823 0.02636543 1.629217 0.2405074 0.05307043 1.619451 0.2484547 0.07111464 1.598543 0.2494011 0.08155753 1.570926 0.2494897
146 0.01631426 1.513384 0.185569 -0.05492489 1.614365 0.2103722 0.03457415 1.659708 0.2563649 0.06557125 1.646376 0.2762424 0.09291308 1.623381 0.2727002 0.100782 1.582548 0.2694655 -0.0443405 1.596285 0.2070308 0.02772803 1.628659 0.2410399 0.05391174 1.618202 0.2495343 0.07181321 1.597186 0.2497839 0.08185509 1.569413 0.2494814
147 0.01606878 1.513467 0.1850278 -0.05303475 1.615947 0.2088995 0.03614338 1.658943 0.2568993 0.06640892 1.644614 0.277497 0.09386961 1.62156 0.2731932 0.1013975 1.580583 0.269342 -0.04292986 1.597576 0.2057675 0.0289422 1.628136 0.241377 0.05476292 1.617069 0.2502399 0.07247999 1.595893 0.2500539 0.08219492 1.567909 0.2493679
148 0.01549787 1.513279 0.1844127 -0.05039051 1.617773 0.2073009 0.0375211 1.657826 0.2572602 0.06711826 1.642259 0.2786151 0.09447923 1.618964 0.2740267 0.1014065 1.577838 0.2697217 -0.040981 1.599033 0.2043673 0.03012204 1.627328 0.2414189 0.05567542 1.615499 0.2506826 0.07298782 1.594012 0.2503709 0.08213615 1.565755 0.2495187
149 0.01475262 1.51297 0.1838495 -0.04736484 1.619568 0.2060483 0.03899337 1.656509 0.2575305 0.06764336 1.639338 0.2799885 0.09487003 1.615757 0.2752939 0.1010422 1.5745 0.2704879 -0.03873138 1.600472 0.203234 0.03136299 1.626299 0.2414657 0.05667372 1.613572 0.2511857 0.07341087 1.591666 0.2509168 0.08184616 1.563107 0.249921
150 0.0140559 1.512797 0.1835029 -0.04434305 1.621284 0.2048019 0.04025805 1.655183 0.2583646 0.06869233 1.636787 0.2810695 0.09514649 1.612437 0.277046 0.1006482 1.570903 0.2716188 -0.03637063 1.601892 0.2022983 0.03255091 1.62529 0.2419488 0.05779942 1.611696 0.2518598 0.07386123 1.589284 0.2517978 0.08160156 1.560351 0.2505798
151 0.01339982 1.512896 0.1831186 -0.04183426 1.622856 0.2035312 0.04106074 1.653841 0.259982 0.07057518 1.634975 0.2814796 0.09531974 1.609403 0.2788428 0.1003243 1.567558 0.2726463 -0.03430812 1.603246 0.2015889 0.03341939 1.624367 0.2429279 0.05883047 1.610072 0.2525496 0.07416092 1.587173 0.2527911 0.08135808 1.557902 0.2511817
152 0.0128761 1.513138 0.1826772 -0.03984397 1.624146 0.2029759 0.04167446 1.652632 0.2617291 0.07279311 1.633888 0.2812972 0.09542891 1.606986 0.2803607 0.1000839 1.564897 0.2734689 -0.03268623 1.604378 0.2013324 0.03410054 1.623603 0.2439421 0.05968878 1.608839 0.253066 0.07432545 1.585516 0.2536814 0.08112717 1.556 0.2516921
153 0.01239964 1.513497 0.1821823 -0.03754082 1.625592 0.2034291 0.04243678 1.651348 0.2636754 0.0749044 1.632923 0.2811028 0.09541296 1.604761 0.2818293 0.09965485 1.562587 0.2743141 -0.03101204 1.60564 0.2014272 0.03493048 1.622908 0.2449338 0.06053812 1.607773 0.2535096 0.07446561 1.584017 0.2544733 0.08080466 1.554325 0.2521961
154 0.01218325 1.513691 0.1823824 -0.03453053 1.626589 0.2059485 0.0429284 1.650216 0.2657689 0.07582398 1.632331 0.2816398 0.09511963 1.603527 0.2833419 0.09895686 1.561422 0.2757285 -0.02905601 1.606506 0.202625 0.0354706 1.62236 0.2461675 0.06098815 1.607216 0.2542219 0.07449409 1.583207 0.2554491 0.08050038 1.553464 0.2531871
155 0.0119915 1.513779 0.1828319 -0.03228476 1.627159 0.2080576 0.04294578 1.649467 0.2674129 0.07524112 1.631758 0.2831007 0.09427017 1.602758 0.2850412 0.09784877 1.560862 0.2774646 -0.02768401 1.607082 0.2035795 0.03559757 1.62204 0.2471805 0.0608021 1.606894 0.2552331 0.07413603 1.582737 0.2565923 0.07984644 1.553024 0.2545205
156 0.01169949 1.513861 0.1832155 -0.03109485 1.627424 0.2095448 0.04221778 1.648916 0.2688364 0.0732531 1.631154 0.285221 0.09252009 1.602288 0.2870408 0.09611158 1.560629 0.2794188 -0.02703696 1.607415 0.2042699 0.03505866 1.621807 0.2481123 0.05979993 1.606673 0.2565346 0.07309382 1.582473 0.2579661 0.07866117 1.552815 0.256038
157 0.01106869 1.51412 0.1831496 -0.03108941 1.627609 0.2105082 0.04066637 1.648427 0.2701887 0.07070079 1.630653 0.28711 0.09024255 1.601959 0.2887462 0.09409136 1.560491 0.2808263 -0.02724548 1.607641 0.20491 0.03368576 1.621577 0.2490698 0.05805863 1.606519 0.2577638 0.07142654 1.582348 0.2591321 0.07707587 1.552757 0.2570869
158 0.01033661 1.51423 0.1828998 -0.03218286 1.627486 0.2110344 0.03808955 1.648015 0.271301 0.06751756 1.630261 0.2887278 0.08726238 1.601882 0.2903205 0.09152286 1.560666 0.282113 -0.02823008 1.607563 0.2053488 0.03148842 1.621403 0.2497678 0.05559192 1.606451 0.2588276 0.06902121 1.582398 0.2602599 0.07489956 1.55295 0.2580765
159 0.009636857 1.514269 0.1830796 -0.03442089 1.627054 0.2113619 0.03588121 1.647864 0.272165 0.06451076 1.630016 0.2902797 0.08482639 1.602294 0.2913661 0.08959828 1.561396 0.2829362 -0.02998443 1.607158 0.2059702 0.02946523 1.621416 0.2503899 0.05336469 1.606658 0.2597435 0.06711438 1.582881 0.2609554 0.07333989 1.553615 0.258665
160 0.008991211 1.514228 0.1836071 -0.03748073 1.626073 0.2123741 0.03375124 1.648138 0.272511 0.06192539 1.630193 0.2913414 0.08278975 1.603286 0.2919719 0.0879298 1.562563 0.2836688 -0.03234032 1.606312 0.2071544 0.02740134 1.621605 0.2508544 0.05130192 1.607098 0.2604516 0.06535414 1.583692 0.2615408 0.07201666 1.554598 0.2592478
161 0.008531941 1.514005 0.1843397 -0.04076269 1.624533 0.2143708 0.0314293 1.648542 0.2728492 0.05977118 1.630933 0.2918876 0.08115478 1.604612 0.2922635 0.08682898 1.563917 0.2841765 -0.0349613 1.605028 0.2088872 0.02531062 1.621753 0.2514427 0.04945586 1.607659 0.2610245 0.06394419 1.58462 0.2619635 0.07110923 1.555645 0.2597406
162 0.008274062 1.513575 0.1855905 -0.04429425 1.622809 0.2160933 0.02936476 1.649287 0.2729361 0.05843094 1.632212 0.2919912 0.08013991 1.606072 0.2925139 0.08607879 1.565107 0.285008 -0.03769327 1.603547 0.2106252 0.02343079 1.621959 0.2521367 0.04796402 1.60828 0.2616613 0.06284875 1.585489 0.2626242 0.07042505 1.556529 0.2606343
163 0.008260976 1.513136 0.187004 -0.04751237 1.621025 0.2180584 0.02746629 1.650124 0.2731571 0.05744474 1.63383 0.2920352 0.07960456 1.607492 0.2928995 0.085783 1.566078 0.2860114 -0.04020091 1.602008 0.2125455 0.02162543 1.622081 0.2532049 0.04657339 1.608886 0.2625901 0.06194266 1.586217 0.2636273 0.06993707 1.557221 0.2618372
164 0.008439408 1.512699 0.1886296 -0.05048565 1.619164 0.2197673 0.02525838 1.651241 0.2732185 0.0562322 1.635972 0.2918851 0.07939103 1.609447 0.2929723 0.08599529 1.567529 0.2868392 -0.0425782 1.600349 0.2142763 0.01980833 1.622386 0.2541843 0.04526525 1.609818 0.2634038 0.06131001 1.587232 0.2645223 0.06976932 1.558186 0.2630396
165 0.00861147 1.512719 0.1900971 -0.0530033 1.617899 0.221527 0.02328599 1.652218 0.2740533 0.05502066 1.637772 0.2924768 0.07923344 1.611257 0.2933893 0.08649968 1.569064 0.2874644 -0.04470357 1.599248 0.2159204 0.01816327 1.622816 0.2555702 0.04401325 1.6108 0.2645894 0.0607167 1.588334 0.2656045 0.06966977 1.559318 0.2641527
166 0.008970003 1.512961 0.1914816 -0.05591633 1.615981 0.2251227 0.01970702 1.653356 0.2753595 0.05193343 1.639955 0.2936273 0.0784937 1.614444 0.2931632 0.0869026 1.572369 0.2873365 -0.04735346 1.597698 0.2186176 0.01551845 1.623629 0.2569165 0.04188593 1.612564 0.2655727 0.05973494 1.590572 0.2661283 0.06953584 1.561861 0.2646458
167 0.009186564 1.513382 0.1928721 -0.05888173 1.613715 0.2292319 0.01562016 1.654644 0.2763381 0.048134 1.642365 0.2946364 0.07693247 1.61816 0.2929207 0.08684042 1.576296 0.2871223 -0.05008131 1.595889 0.2217431 0.01262279 1.624731 0.2577823 0.03934491 1.614688 0.2662774 0.05841612 1.593343 0.2663945 0.06927384 1.564995 0.2648692
168 0.009460554 1.51419 0.1941139 -0.06124406 1.611584 0.2332593 0.01156707 1.655365 0.2784305 0.04490693 1.64485 0.2956826 0.07474143 1.621637 0.2936745 0.08624262 1.580453 0.2874843 -0.05239089 1.594148 0.2248722 0.009682989 1.625571 0.2593428 0.03677054 1.616711 0.2673717 0.05681365 1.596085 0.2672397 0.06878405 1.568338 0.2654642
169 0.01002324 1.514817 0.1953118 -0.06296498 1.609761 0.2359939 0.008143038 1.655981 0.2799758 0.04219147 1.646982 0.2964235 0.07286436 1.624924 0.2940524 0.08558524 1.584613 0.2876968 -0.05404802 1.592549 0.2271567 0.007184097 1.626286 0.2605118 0.03465659 1.618532 0.2681012 0.05547224 1.598653 0.2678021 0.06834061 1.571591 0.2659331
170 0.01090864 1.514837 0.1971396 -0.06462993 1.60746 0.2379924 0.003977827 1.65699 0.2799898 0.03944118 1.650318 0.2951372 0.07070117 1.628755 0.293659 0.08502819 1.588922 0.2876282 -0.05546478 1.590378 0.22915 0.004238958 1.626993 0.260943 0.03235344 1.620684 0.2679044 0.05397061 1.601464 0.2679688 0.0679231 1.574961 0.2662946
171 0.01181148 1.514968 0.1988622 -0.06630481 1.604879 0.2402944 -0.000246663 1.657007 0.2812667 0.03662499 1.65296 0.2943174 0.0685904 1.632176 0.2932673 0.08440475 1.592692 0.2876648 -0.05678905 1.588072 0.2313084 0.00136151 1.6272 0.2620251 0.0301489 1.622429 0.2679744 0.05252865 1.603941 0.268196 0.06747083 1.577921 0.2667461
172 0.01266288 1.515172 0.2002476 -0.06789712 1.602229 0.24256 -0.004475402 1.656972 0.281939 0.03333579 1.65522 0.2934637 0.06613994 1.635298 0.2927905 0.0831849 1.596084 0.2879939 -0.05804988 1.585804 0.2332447 -0.001515387 1.627396 0.2625696 0.02780171 1.624029 0.2677531 0.05087933 1.606215 0.2682528 0.06658786 1.580578 0.2673548
173 0.01366712 1.515659 0.2011555 -0.06970263 1.599515 0.2443705 -0.007840883 1.65728 0.2818258 0.03028416 1.657027 0.2929369 0.06380694 1.637992 0.2924597 0.08223534 1.599262 0.2878529 -0.05927592 1.583551 0.2349087 -0.003961375 1.627665 0.2627717 0.02558594 1.625413 0.2676634 0.04932282 1.608322 0.268245 0.06586638 1.583151 0.2675298
174 0.01479905 1.516337 0.2019865 -0.071175 1.597099 0.2457849 -0.01020824 1.65747 0.2822696 0.02791076 1.658511 0.2928768 0.06210162 1.64089 0.2916012 0.08187641 1.602841 0.2868873 -0.0601834 1.58153 0.2363306 -0.005772826 1.627944 0.2632662 0.02384212 1.62675 0.267747 0.04818959 1.610591 0.2679085 0.06559491 1.586019 0.2671039
175 0.01614712 1.517001 0.2029711 -0.07241714 1.594975 0.2467635 -0.01243078 1.657627 0.2828647 0.02555883 1.660041 0.2928177 0.06043377 1.644125 0.2903672 0.08148211 1.606705 0.2857971 -0.06078149 1.579734 0.2375574 -0.007407491 1.628313 0.2637255 0.02221473 1.628225 0.2677007 0.04714994 1.613103 0.267305 0.0654043 1.589141 0.2665078
176 0.01716416 1.517528 0.2033683 -0.0734273 1.592875 0.2473371 -0.01535096 1.657789 0.2821968 0.02238237 1.661848 0.2913418 0.05779454 1.647473 0.288273 0.08020071 1.610801 0.2840487 -0.06121942 1.577922 0.2384185 -0.009565715 1.628564 0.2631925 0.01998548 1.629723 0.2665727 0.04546655 1.615646 0.2658537 0.06460484 1.592377 0.2651989
177 0.01817082 1.518032 0.203611 -0.07395834 1.590756 0.2485825 -0.01794942 1.658042 0.2810417 0.01952426 1.66357 0.289448 0.05471509 1.650232 0.2867954 0.07821698 1.614739 0.2825435 -0.06153519 1.57614 0.239425 -0.01159092 1.628889 0.2621772 0.0178495 1.631146 0.2650909 0.04352379 1.617937 0.2645363 0.06337013 1.595507 0.2639536
178 0.01920523 1.518742 0.2038508 -0.07472742 1.588351 0.2499449 -0.02057467 1.658061 0.2806244 0.01689642 1.665115 0.2881926 0.05168448 1.65252 0.2862686 0.07633988 1.618388 0.281383 -0.06190183 1.574184 0.2406395 -0.01359598 1.629043 0.2617732 0.01579851 1.632375 0.2642381 0.04161731 1.620016 0.2638064 0.06222031 1.598515 0.2629175
179 0.0202939 1.519301 0.2041425 -0.07583971 1.585354 0.2510352 -0.02384325 1.657597 0.2802096 0.01376197 1.666564 0.2864016 0.04865303 1.655042 0.2846945 0.07439373 1.621906 0.2799447 -0.0622573 1.571772 0.2419548 -0.01595479 1.628868 0.2613349 0.01349632 1.633564 0.2628616 0.03963581 1.62216 0.2624195 0.06099862 1.601488 0.2615649
180 0.02131211 1.519538 0.204709 -0.07663311 1.582282 0.2522269 -0.02733912 1.656752 0.2797395 0.0102973 1.668049 0.2837453 0.0457232 1.657693 0.2820979 0.07250556 1.625157 0.2782903 -0.06259381 1.569179 0.2431587 -0.01845833 1.628439 0.2607579 0.01102256 1.634679 0.2608499 0.03762033 1.624208 0.2604833 0.05969365 1.604193 0.2601487
181 0.02223445 1.519827 0.205654 -0.07734824 1.579535 0.2536429 -0.0306813 1.655878 0.2798776 0.006938751 1.669306 0.2819294 0.0428178 1.659912 0.2805251 0.07055517 1.628036 0.2774097 -0.06312598 1.566826 0.2443028 -0.02082862 1.62808 0.2606275 0.008663697 1.63566 0.2595103 0.03565711 1.625999 0.2592743 0.05833263 1.606574 0.2594394
182 0.02310348 1.520158 0.206957 -0.07822347 1.576192 0.2552238 -0.03442185 1.654222 0.2813418 0.003043469 1.670639 0.2800891 0.03920289 1.662312 0.2789269 0.06812353 1.631491 0.2762068 -0.06375276 1.563891 0.2457132 -0.02347568 1.627112 0.2616842 0.005909535 1.63634 0.2587717 0.03326126 1.627728 0.2583982 0.05667413 1.609179 0.2587638
183 0.02397879 1.52039 0.2080817 -0.07893025 1.57345 0.2557231 -0.03758834 1.653062 0.2816278 -0.0005827566 1.671771 0.2777427 0.03598178 1.664577 0.2765961 0.0656378 1.634713 0.2747242 -0.06422929 1.561379 0.2462615 -0.02578242 1.626315 0.2619407 0.003351156 1.636832 0.2576328 0.03103274 1.62916 0.2572532 0.05491659 1.611438 0.2580799
184 0.02513288 1.520372 0.2087488 -0.07903235 1.570487 0.2562853 -0.04043914 1.651467 0.2814656 -0.004004346 1.67205 0.2756471 0.03285435 1.666223 0.274071 0.06317825 1.637016 0.2736847 -0.06423181 1.558655 0.2466683 -0.02787415 1.625041 0.2618055 0.0009649997 1.636695 0.2564953 0.02887991 1.629967 0.2561069 0.05319544 1.612996 0.2576528
185 0.0262636 1.520568 0.2090227 -0.07888082 1.567525 0.2572711 -0.04300233 1.649977 0.2813458 -0.007026494 1.672228 0.2737045 0.02995178 1.667576 0.2718329 0.06109604 1.638849 0.272926 -0.06401899 1.556013 0.2473465 -0.02971192 1.623733 0.2618789 -0.001149185 1.636459 0.2555369 0.02691295 1.63063 0.2550628 0.05172678 1.614323 0.257266
186 0.02738435 1.520817 0.2091506 -0.07886067 1.564453 0.2580554 -0.04543684 1.648733 0.2806427 -0.01024263 1.672307 0.2716043 0.02679056 1.668959 0.2691766 0.05897363 1.641021 0.271137 -0.06369251 1.553364 0.2480975 -0.03147364 1.622575 0.2615017 -0.003382461 1.636242 0.2543023 0.02480244 1.631385 0.2535821 0.05021643 1.615901 0.2560459
187 0.02856012 1.521033 0.2095806 -0.07896371 1.561633 0.2583048 -0.04771657 1.647905 0.2793127 -0.01376238 1.672335 0.2694147 0.02315873 1.670423 0.2661552 0.05660672 1.64365 0.2684101 -0.06334668 1.550958 0.2485819 -0.03315314 1.621717 0.2606271 -0.005759305 1.636141 0.2528196 0.02248243 1.632289 0.2517417 0.04856717 1.617773 0.2542018
188 0.02966349 1.521402 0.2099084 -0.07912414 1.559584 0.2577347 -0.04947142 1.647201 0.2784262 -0.01654007 1.672158 0.2682804 0.01986117 1.671352 0.2644579 0.05436331 1.645936 0.2659401 -0.06307317 1.549227 0.2483782 -0.03449923 1.621081 0.259959 -0.007711061 1.636114 0.2517774 0.02041112 1.633088 0.2503527 0.04705413 1.619501 0.2523637
189 0.03082087 1.521712 0.2102479 -0.07889552 1.557792 0.256918 -0.0512581 1.645911 0.2780753 -0.01912611 1.671575 0.2676279 0.01618491 1.671529 0.2641837 0.051365 1.647997 0.2638495 -0.06259844 1.547531 0.2478987 -0.03595108 1.620079 0.2594976 -0.009711755 1.635853 0.2508203 0.01805354 1.633654 0.2492576 0.04510977 1.621174 0.2505237
190 0.03194732 1.522021 0.2106295 -0.07879129 1.55583 0.2560711 -0.05288003 1.644579 0.27798 -0.02172507 1.670918 0.267205 0.01287524 1.671546 0.2642429 0.048506 1.649836 0.2619254 -0.06201129 1.545881 0.2476063 -0.03719481 1.618979 0.2593918 -0.01160262 1.635414 0.2503554 0.01590843 1.634 0.2487039 0.04325326 1.62258 0.2490505
191 0.03298346 1.522442 0.2110824 -0.07857835 1.553947 0.2557843 -0.05436797 1.643257 0.2782365 -0.02394675 1.670305 0.2668665 0.01055148 1.671591 0.2642677 0.04643485 1.65123 0.2606469 -0.06145574 1.544347 0.2476221 -0.03822713 1.618052 0.2595379 -0.01311518 1.635097 0.2499249 0.0143602 1.634335 0.2482876 0.04188598 1.623703 0.2481293
192 0.0341115 1.523148 0.2114244 -0.07789069 1.552325 0.2560238 -0.05597397 1.641926 0.2784555 -0.02624337 1.669942 0.2657933 0.008520258 1.672001 0.2633394 0.04459764 1.652603 0.2595431 -0.06066791 1.542933 0.2478523 -0.03923318 1.61717 0.2597445 -0.01457475 1.634893 0.2492166 0.01299974 1.634841 0.2474515 0.04068509 1.624919 0.2472442
193 0.03524786 1.523949 0.2115004 -0.07693381 1.551222 0.2565741 -0.05748364 1.640756 0.2783272 -0.02854226 1.669641 0.2646235 0.00659154 1.672625 0.2616724 0.04292231 1.653819 0.2585426 -0.05969969 1.541992 0.2482641 -0.04011419 1.616358 0.2597682 -0.01593877 1.634647 0.2487011 0.01178137 1.63529 0.2465338 0.03961784 1.626006 0.2464314
194 0.03654838 1.524726 0.2114198 -0.07569322 1.549831 0.2573135 -0.0591189 1.639343 0.2777936 -0.03142878 1.668878 0.2635483 0.004010227 1.673134 0.2596823 0.04110047 1.654992 0.2575184 -0.05834222 1.540965 0.2488767 -0.04100966 1.615245 0.2596202 -0.01757777 1.634072 0.248349 0.01027982 1.635556 0.2456905 0.03844826 1.62703 0.2456636
195 0.03776981 1.52533 0.2113833 -0.07468858 1.548199 0.2579204 -0.06052193 1.638133 0.2770332 -0.0341098 1.667958 0.262704 0.001470186 1.673374 0.2581112 0.03951075 1.655973 0.2565635 -0.05708804 1.539839 0.2494912 -0.04172194 1.614162 0.2594216 -0.01906708 1.633366 0.2481577 0.008867681 1.635619 0.2451845 0.03742378 1.627799 0.2451361
196 0.03879167 1.525732 0.2114057 -0.07390669 1.546096 0.2586676 -0.06186683 1.636876 0.2762733 -0.03653169 1.666926 0.2619067 -0.001015739 1.673294 0.256909 0.03795414 1.656662 0.2558344 -0.05598835 1.5384 0.2502791 -0.04241388 1.613015 0.2592271 -0.02044285 1.632538 0.2479745 0.007480469 1.635471 0.2448395 0.03641945 1.628317 0.2447626
197 0.03972435 1.525825 0.2115128 -0.0732789 1.543609 0.2592264 -0.06311001 1.635451 0.2754533 -0.0386499 1.665663 0.2611528 -0.003479183 1.672777 0.255953 0.03627121 1.656949 0.2552313 -0.05499901 1.536666 0.2509781 -0.04306694 1.611673 0.2590055 -0.02167665 1.631449 0.2478729 0.006101931 1.634965 0.2446983 0.03535721 1.62847 0.2444741
198 0.04048556 1.525714 0.2115844 -0.0728613 1.540598 0.2595547 -0.06425641 1.633623 0.2751589 -0.04062482 1.664004 0.2609867 -0.006073609 1.671763 0.2554471 0.03438196 1.65686 0.2546579 -0.05417792 1.534535 0.2515553 -0.04376424 1.610015 0.2590868 -0.02293542 1.630045 0.2480873 0.004566951 1.634097 0.2447756 0.03410869 1.628289 0.2441813
199 0.04113569 1.525609 0.2115481 -0.0724951 1.536984 0.2599875 -0.06556071 1.631353 0.2752366 -0.04270499 1.661932 0.2614784 -0.008963304 1.670385 0.2552561 0.03206416 1.656527 0.2541535 -0.05344192 1.531902 0.252206 -0.0446809 1.608027 0.2593369 -0.02440742 1.628366 0.2485411 0.002729513 1.632984 0.2449045 0.03250731 1.627933 0.2438227
200 0.04153747 1.525726 0.2114277 -0.07223202 1.53351 0.259761 -0.06722228 1.628984 0.2752431 -0.04521221 1.659928 0.2613406 -0.012318 1.669125 0.2543347 0.0289708 1.656432 0.253223 -0.05285792 1.529319 0.25229 -0.0459431 1.605997 0.2594604 -0.02625831 1.626728 0.2485554 0.0004678252 1.631968 0.2445819 0.03032575 1.627757 0.2432545
201 0.04195859 1.525939 0.2112811 -0.07152616 1.530282 0.2603119 -0.06937351 1.626098 0.2751676 -0.04839527 1.657684 0.2603443 -0.01626497 1.667742 0.2524287 0.02525402 1.656476 0.251005 -0.05209819 1.526645 0.2527264 -0.04756335 1.603675 0.2593802 -0.02854288 1.624913 0.2479734 -0.002214071 1.630872 0.2435607 0.02768631 1.6276 0.2419476
202 0.04244675 1.52605 0.2111991 -0.07060315 1.526603 0.2612987 -0.07221267 1.622577 0.2743804 -0.05250091 1.654747 0.2588143 -0.0209875 1.66583 0.2501944 0.02098475 1.656293 0.248305 -0.05121248 1.523501 0.2534067 -0.0496661 1.60086 0.2586982 -0.03141847 1.622608 0.2469184 -0.005436857 1.62942 0.2420847 0.02459372 1.627227 0.2403484
203 0.0431576 1.525581 0.2115291 -0.06976935 1.523356 0.2620382 -0.07489117 1.619029 0.2728944 -0.0563369 1.651529 0.2570217 -0.02530482 1.66357 0.2475532 0.016931 1.655621 0.2451458 -0.05031157 1.520716 0.2541316 -0.05161302 1.597914 0.2574586 -0.03408644 1.620032 0.2455281 -0.00838794 1.627629 0.2400704 0.02167279 1.626461 0.2384511
204 0.04403837 1.524823 0.2118667 -0.06901669 1.521043 0.2622646 -0.07656541 1.616043 0.271683 -0.05901769 1.648679 0.2557153 -0.02824876 1.661508 0.2453548 0.01418306 1.654772 0.2423048 -0.04947577 1.518649 0.2544589 -0.05282436 1.595433 0.2562318 -0.03588895 1.617769 0.2442793 -0.01035114 1.625953 0.2381393 0.01972502 1.625567 0.2366832
205 0.04470393 1.524229 0.2118505 -0.06858145 1.519844 0.2618748 -0.07728741 1.614175 0.2709793 -0.06030465 1.646935 0.2549541 -0.0296082 1.660222 0.2439513 0.01278181 1.654071 0.2404513 -0.04900087 1.517434 0.2541475 -0.05336761 1.59386 0.2553594 -0.03675679 1.616336 0.243426 -0.01127919 1.62484 0.236765 0.01875478 1.624852 0.2353824
206 0.04488799 1.52386 0.2114175 -0.06849238 1.519154 0.2611712 -0.0780412 1.612686 0.2703271 -0.06156713 1.645586 0.2541659 -0.03093424 1.659259 0.2425559 0.01127524 1.653506 0.2389265 -0.04891049 1.516618 0.2534715 -0.05407461 1.59264 0.254402 -0.0377305 1.615242 0.2424764 -0.01229015 1.624008 0.2354047 0.01764776 1.62432 0.2341022
207 0.04495693 1.523548 0.2109509 -0.06833931 1.518659 0.2607946 -0.07907414 1.611352 0.268993 -0.0630077 1.644302 0.2527305 -0.03252569 1.658249 0.2408011 0.009593108 1.652926 0.2373843 -0.048859 1.515805 0.2529388 -0.0549526 1.591449 0.2530899 -0.03883729 1.614139 0.2411943 -0.01347152 1.623142 0.2339266 0.01638842 1.623785 0.2327895
208 0.04519238 1.523425 0.2106602 -0.06781492 1.518778 0.2610832 -0.079758 1.610255 0.2680985 -0.06415362 1.643344 0.251231 -0.0337911 1.657526 0.2389517 0.00831293 1.652581 0.2358147 -0.04852687 1.515443 0.2529398 -0.05556805 1.59053 0.252052 -0.03968543 1.613317 0.2399199 -0.01438458 1.622531 0.2324288 0.01542698 1.623491 0.2314157
209 0.04565282 1.523673 0.2101229 -0.06693944 1.519436 0.2613182 -0.07972288 1.609782 0.2676502 -0.06443566 1.643046 0.250222 -0.03414246 1.657393 0.2377399 0.00781236 1.652618 0.2347937 -0.04787654 1.515627 0.2528569 -0.05555161 1.590207 0.2513862 -0.03983065 1.613094 0.2389961 -0.0145769 1.622458 0.2313761 0.01514521 1.623598 0.2303568
210 0.04604952 1.524061 0.2092859 -0.06605799 1.519839 0.2614679 -0.07934679 1.609679 0.2675548 -0.06424993 1.643082 0.2498889 -0.03401256 1.657556 0.2372933 0.007751198 1.652827 0.2343109 -0.04715881 1.515834 0.2527364 -0.05521568 1.59018 0.251142 -0.03964206 1.613161 0.2385906 -0.01444747 1.622645 0.2308257 0.01518297 1.623868 0.22959
211 0.04631743 1.524343 0.2086113 -0.06542069 1.520045 0.2615584 -0.07899342 1.609715 0.2675055 -0.06396885 1.6432 0.2497988 -0.03376857 1.657753 0.2370979 0.007837225 1.653006 0.2340348 -0.04661522 1.515982 0.2526604 -0.05488024 1.590247 0.2510389 -0.03940253 1.613291 0.2383941 -0.01425027 1.622849 0.2304994 0.01531033 1.624096 0.2290068
212 0.04649583 1.52431 0.2085657 -0.06513789 1.520056 0.2616635 -0.07885985 1.609689 0.2674152 -0.06378845 1.643164 0.2498765 -0.0335777 1.657772 0.2371494 0.007916044 1.652978 0.2341004 -0.04636377 1.515944 0.2527303 -0.05470631 1.590199 0.2510431 -0.03925122 1.613259 0.2384094 -0.01409876 1.622858 0.2305018 0.01541933 1.624092 0.2288298
213 0.04667637 1.524269 0.2086109 -0.06496202 1.520026 0.2616497 -0.07872274 1.609708 0.267319 -0.06358778 1.64316 0.2499222 -0.03335062 1.657801 0.2372429 0.008113688 1.652979 0.2342745 -0.04618501 1.515914 0.2527303 -0.05452605 1.590201 0.2510384 -0.0390617 1.613262 0.2384218 -0.01389088 1.622883 0.2305809 0.01561877 1.6241 0.22883
214 0.04684363 1.524146 0.2086795 -0.06484492 1.519877 0.2615921 -0.07851638 1.609748 0.2672373 -0.0632716 1.643181 0.2499195 -0.03296463 1.657822 0.2373479 0.008534867 1.652947 0.2345398 -0.04605092 1.515814 0.2526932 -0.05429608 1.590228 0.2510165 -0.03877263 1.613279 0.2383903 -0.01355459 1.622885 0.230676 0.01597111 1.624066 0.2289875
215 0.04686737 1.523791 0.208809 -0.06496885 1.519432 0.2614327 -0.07838739 1.609674 0.2671682 -0.06298589 1.643082 0.2498852 -0.03255498 1.657686 0.2374604 0.009009225 1.652709 0.2348912 -0.04612784 1.51548 0.2525904 -0.05415456 1.590138 0.2509974 -0.03852051 1.613159 0.2383619 -0.01322219 1.622711 0.2308036 0.01633666 1.623816 0.2292787
216 0.04671098 1.523256 0.2087637 -0.06529921 1.518657 0.2610539 -0.07834865 1.609357 0.2671832 -0.06283477 1.642777 0.2497793 -0.03229075 1.657331 0.2373656 0.009372965 1.652261 0.2349949 -0.0463967 1.514864 0.2522803 -0.05414644 1.589849 0.2509497 -0.03839909 1.612848 0.238245 -0.01301656 1.622321 0.2307928 0.01659375 1.623334 0.2294385
217 0.04646007 1.522577 0.2086469 -0.06573784 1.517992 0.2605712 -0.07838149 1.608943 0.2670709 -0.06277354 1.64237 0.249498 -0.03213787 1.656842 0.2371267 0.009664487 1.651684 0.2348907 -0.04679675 1.514256 0.2518608 -0.05423801 1.589462 0.2507357 -0.03836925 1.612424 0.237969 -0.01291033 1.621802 0.2306335 0.01676977 1.622715 0.2294465
218 0.04618388 1.521646 0.2085344 -0.06638176 1.517517 0.2597794 -0.07832138 1.608706 0.266627 -0.06244044 1.64209 0.2490387 -0.0316427 1.656369 0.2368885 0.01033856 1.650982 0.2348193 -0.04739386 1.513747 0.2511874 -0.05425913 1.589175 0.2502405 -0.03815233 1.612053 0.237525 -0.01257696 1.62125 0.2303754 0.01721084 1.621964 0.2293819
219 0.04604945 1.520716 0.2083247 -0.06706204 1.51717 0.2584375 -0.07804044 1.608693 0.2660053 -0.06173676 1.641987 0.2487673 -0.03069264 1.656067 0.2369174 0.01146273 1.650336 0.234951 -0.04798472 1.513361 0.2500671 -0.05404428 1.589053 0.2496615 -0.03764272 1.611828 0.2371805 -0.01191497 1.620823 0.230256 0.01799362 1.62126 0.2293808
220 0.04587523 1.519833 0.2078424 -0.06763019 1.51707 0.2571613 -0.07746222 1.608992 0.2654389 -0.06064485 1.642085 0.2488497 -0.02932371 1.655923 0.2374936 0.01295577 1.649726 0.2355417 -0.04850036 1.513192 0.2489476 -0.05357333 1.589131 0.2492163 -0.03686374 1.611754 0.2370819 -0.01098446 1.620521 0.2304772 0.01903666 1.620607 0.2295911
221 0.04562754 1.518956 0.2073087 -0.06820707 1.517333 0.2557827 -0.07677761 1.609399 0.2650195 -0.05932465 1.642367 0.2489126 -0.02770108 1.655894 0.2380372 0.01475566 1.649145 0.2360707 -0.049079 1.513224 0.2476802 -0.05301512 1.5893 0.2489081 -0.03593213 1.611794 0.2369977 -0.009889368 1.620276 0.230761 0.02025622 1.619955 0.2299083
222 0.04537026 1.517961 0.2066775 -0.06888499 1.517683 0.2539339 -0.07606138 1.609777 0.2644052 -0.05772168 1.642808 0.2483812 -0.02569431 1.655943 0.2378409 0.01704049 1.64851 0.235901 -0.04973689 1.513287 0.246031 -0.05238993 1.58944 0.2484492 -0.03477903 1.611853 0.2365769 -0.008528613 1.619973 0.2307356 0.02176665 1.619155 0.2299684
223 0.04522726 1.516879 0.2062102 -0.0697086 1.517761 0.2515835 -0.0752365 1.6103 0.2633755 -0.05592517 1.643296 0.247578 -0.02359153 1.655993 0.2373374 0.01950948 1.647859 0.2354928 -0.05038453 1.513338 0.2441377 -0.05169735 1.589698 0.2475642 -0.0334807 1.611971 0.235819 -0.007048612 1.619675 0.2305231 0.0234265 1.618346 0.2299038
224 0.04494328 1.516007 0.2058776 -0.07092591 1.518201 0.248575 -0.07368338 1.612091 0.2623513 -0.0530037 1.644866 0.2467786 -0.02067491 1.656667 0.2371746 0.02278565 1.647514 0.2353896 -0.05126844 1.514014 0.2419267 -0.05055283 1.590999 0.2466147 -0.03150348 1.612985 0.2348559 -0.005020669 1.619973 0.2303511 0.02568161 1.617904 0.2297594
225 0.04474159 1.515368 0.2054945 -0.07175911 1.519299 0.2461655 -0.07181928 1.614101 0.261456 -0.0496631 1.646632 0.2462747 -0.01729678 1.657534 0.2374132 0.02610963 1.647224 0.2358332 -0.05192711 1.515163 0.2400684 -0.04919131 1.592569 0.2456703 -0.02925202 1.614262 0.2339676 -0.002713443 1.620511 0.2302705 0.02805833 1.617627 0.2297194
226 0.04449507 1.514516 0.2054474 -0.07224648 1.521103 0.2453165 -0.06975213 1.616108 0.2609519 -0.04625322 1.648341 0.2453811 -0.01390028 1.658255 0.2369891 0.02920999 1.646734 0.2358707 -0.05250739 1.516523 0.2392735 -0.04774474 1.594126 0.2449956 -0.02697101 1.615452 0.2328375 -0.0004014219 1.620906 0.2296598 0.03031206 1.617199 0.2293735
227 0.0439845 1.513607 0.2053045 -0.07265163 1.523636 0.245295 -0.06743613 1.618317 0.2608322 -0.04268076 1.650186 0.2444399 -0.01017172 1.659016 0.2361898 0.03279977 1.646136 0.2356888 -0.05319425 1.51829 0.2389853 -0.04611899 1.595871 0.2446197 -0.02451077 1.616707 0.2318798 0.002156178 1.62128 0.2288737 0.03285261 1.616639 0.2290076
228 0.04328921 1.512761 0.2048087 -0.07320139 1.527322 0.244145 -0.0645559 1.621087 0.2606324 -0.0382952 1.65235 0.2443069 -0.005310674 1.660042 0.2362275 0.03708259 1.645371 0.2368859 -0.05401503 1.521047 0.237843 -0.04407093 1.59806 0.2441378 -0.02149557 1.618268 0.2314317 0.00539544 1.621849 0.228652 0.03587246 1.61606 0.2295014
229 0.04268438 1.51212 0.2041553 -0.07328967 1.530927 0.2428525 -0.06173437 1.623397 0.2606592 -0.03438509 1.653847 0.2451617 -0.001087615 1.660774 0.2368645 0.04036333 1.644546 0.2384599 -0.05444481 1.52368 0.2365399 -0.04209365 1.599934 0.2437378 -0.01883147 1.619574 0.2312903 0.008233167 1.62234 0.2286095 0.03834906 1.615602 0.2299327
230 0.04207058 1.511668 0.2035134 -0.07300212 1.533901 0.2428728 -0.05861349 1.625553 0.2614925 -0.03012124 1.655009 0.2471525 0.003358412 1.661394 0.23838 0.04370074 1.64374 0.2402544 -0.05461363 1.525801 0.2362473 -0.0399945 1.601699 0.2439257 -0.01611648 1.62082 0.2316165 0.01108418 1.622829 0.2290262 0.04075313 1.615195 0.2306667
231 0.04149625 1.511472 0.2031514 -0.07289065 1.5362 0.2432316 -0.05597163 1.627429 0.2625764 -0.02672157 1.655826 0.2491767 0.0067046 1.661819 0.2401902 0.04599295 1.643215 0.2415907 -0.05488688 1.527504 0.2362937 -0.03826081 1.6033 0.2443969 -0.01398678 1.621953 0.2320703 0.01325452 1.623317 0.2296044 0.04249423 1.614968 0.2312517
232 0.041115 1.51128 0.203224 -0.0727865 1.538554 0.2430378 -0.05339731 1.629354 0.2633063 -0.02345869 1.656602 0.2505993 0.009663814 1.66218 0.2414875 0.04824408 1.642908 0.241996 -0.05506288 1.529307 0.2360875 -0.03647427 1.604915 0.2447704 -0.01182684 1.623048 0.2323459 0.01533035 1.623764 0.2300522 0.04425953 1.614763 0.231501
233 0.04065684 1.510988 0.2034066 -0.07281131 1.54104 0.2421713 -0.05073139 1.631304 0.2639362 -0.01993289 1.657475 0.2516296 0.01273658 1.662461 0.2425502 0.05073924 1.642468 0.2423727 -0.05524589 1.531304 0.2354899 -0.0345321 1.606509 0.2452093 -0.009398666 1.624076 0.2326611 0.01757064 1.624071 0.2306083 0.04620396 1.614371 0.2319227
234 0.04006539 1.510707 0.2033842 -0.0730967 1.542991 0.2412615 -0.04833739 1.633192 0.2642079 -0.0168913 1.658173 0.2529592 0.01550677 1.662639 0.2436522 0.05331157 1.641885 0.2429702 -0.05550491 1.533068 0.2349017 -0.03269571 1.607912 0.2456162 -0.00715516 1.624855 0.2335046 0.01965262 1.624173 0.2315739 0.0480984 1.613772 0.2327797
235 0.03941349 1.510345 0.2034445 -0.07341909 1.544561 0.2405588 -0.04656551 1.63463 0.2642032 -0.01462306 1.658789 0.253805 0.0180234 1.662565 0.2451169 0.05579185 1.640836 0.2448055 -0.05579552 1.534536 0.2344256 -0.03126173 1.608971 0.2458205 -0.005302512 1.625329 0.2343177 0.02149129 1.624052 0.2328929 0.04983083 1.612952 0.2343161
236 0.0388109 1.509802 0.203568 -0.07319061 1.546505 0.2409275 -0.04483587 1.635863 0.2640726 -0.01267786 1.659996 0.2528877 0.02052318 1.662246 0.2462277 0.05822337 1.63944 0.2465927 -0.05588716 1.53606 0.2345761 -0.02982307 1.609838 0.2459436 -0.003508667 1.625563 0.2347001 0.02332139 1.623702 0.2339019 0.05156519 1.611882 0.2356473
237 0.03818954 1.50926 0.2035135 -0.07287997 1.548084 0.2417768 -0.04310913 1.637045 0.2636849 -0.01059257 1.661373 0.2506395 0.0229784 1.662027 0.2460578 0.06064976 1.638189 0.2472625 -0.05583955 1.537374 0.235159 -0.02835348 1.610608 0.2459452 -0.001686327 1.625682 0.2345557 0.02512946 1.623271 0.2343091 0.05329375 1.610778 0.2363839
238 0.03738222 1.508845 0.2034079 -0.07305483 1.549478 0.2422641 -0.04148011 1.638355 0.2632203 -0.007785142 1.662635 0.2488184 0.02635787 1.661912 0.2456281 0.0634858 1.63672 0.2482269 -0.05609813 1.53871 0.2355094 -0.02691731 1.611574 0.2458078 0.0004424837 1.625972 0.2343901 0.02735526 1.62287 0.2346596 0.05521531 1.609527 0.2374205
239 0.03643296 1.508276 0.202892 -0.07340422 1.551014 0.2420717 -0.03951256 1.639579 0.2624722 -0.004538573 1.663447 0.2473296 0.03030319 1.661287 0.2458849 0.06638056 1.634547 0.2499369 -0.05638932 1.540289 0.235388 -0.02525134 1.612514 0.2452432 0.002863255 1.626086 0.2340717 0.02992037 1.622146 0.2352091 0.05724539 1.607797 0.2387306
240 0.03560377 1.507672 0.2027718 -0.07366425 1.552312 0.2422268 -0.03779965 1.640744 0.2615509 -0.0017727 1.663785 0.2471094 0.03370452 1.660369 0.2472902 0.06862985 1.632458 0.2517743 -0.0566799 1.541541 0.2355444 -0.02380945 1.61332 0.2446725 0.004879161 1.626132 0.2341652 0.03211009 1.621411 0.2361028 0.05887049 1.606212 0.239924
241 0.0346983 1.506977 0.2030076 -0.07383226 1.553615 0.2424857 -0.03613105 1.642119 0.2602188 0.0008990077 1.664141 0.2467448 0.03667629 1.659466 0.2485755 0.07060892 1.63069 0.2529353 -0.05702484 1.542616 0.2357296 -0.02244878 1.614147 0.2439785 0.006722543 1.626198 0.2341501 0.03403835 1.620742 0.2367979 0.06029069 1.604826 0.2406743
242 0.03402172 1.506392 0.2030362 -0.07376729 1.555378 0.2421032 -0.03447927 1.643269 0.2589328 0.003565267 1.664369 0.2463041 0.03931857 1.6586 0.2495016 0.07226046 1.629038 0.2538603 -0.05735967 1.543904 0.2351613 -0.02116302 1.615022 0.2428668 0.008537618 1.626355 0.2335811 0.0358014 1.62017 0.2370527 0.06153212 1.60359 0.2410538
243 0.03331405 1.505868 0.2029344 -0.07341345 1.557689 0.2417594 -0.03263257 1.644386 0.2580708 0.006182697 1.664271 0.2475255 0.04221386 1.657601 0.2507908 0.07423079 1.627098 0.2550385 -0.05751955 1.545661 0.2345614 -0.01969794 1.615961 0.2419914 0.0104628 1.626607 0.2336157 0.03776712 1.619589 0.2373949 0.06298514 1.602243 0.2414894
244 0.03259142 1.505368 0.2027063 -0.07337429 1.559366 0.241697 -0.03039944 1.645694 0.2570714 0.008590885 1.663765 0.2500281 0.04494311 1.656416 0.2523102 0.07606114 1.625137 0.2560877 -0.05746036 1.547252 0.2346888 -0.01796468 1.616626 0.2417931 0.01229368 1.626518 0.234968 0.03964695 1.618717 0.2383459 0.06435987 1.600717 0.2421291
245 0.0317416 1.505008 0.2020043 -0.07300937 1.561544 0.2411724 -0.02786507 1.647147 0.2555182 0.01122355 1.663036 0.2526166 0.0476632 1.654923 0.2540471 0.07771183 1.622997 0.2571377 -0.0572469 1.549159 0.2343113 -0.01609687 1.617165 0.2416031 0.01417963 1.626147 0.2366764 0.04146446 1.617569 0.2395964 0.06557138 1.598965 0.2429067
246 0.03076894 1.504759 0.2011147 -0.07232742 1.563963 0.2408531 -0.02559621 1.648222 0.2545659 0.01342835 1.662309 0.2546557 0.04968296 1.653416 0.2556953 0.07887476 1.620937 0.2581177 -0.05700742 1.551124 0.2338493 -0.01456753 1.61762 0.2414322 0.01567718 1.625754 0.2379436 0.04280324 1.616512 0.2404884 0.06640725 1.597374 0.2434132
247 0.02975255 1.504531 0.200398 -0.07176742 1.566144 0.240582 -0.02347656 1.649048 0.2541581 0.01548059 1.661786 0.2558967 0.05137724 1.652089 0.2569633 0.07983738 1.619055 0.2589885 -0.05678023 1.552966 0.2335046 -0.01317096 1.618086 0.2412974 0.01706117 1.625447 0.2387017 0.04395394 1.615608 0.241059 0.06712562 1.595973 0.2437559
248 0.02889702 1.504187 0.2000978 -0.07126058 1.568569 0.239763 -0.02038975 1.650186 0.2535109 0.01883286 1.661588 0.2562186 0.05412533 1.650605 0.2579625 0.08145178 1.616626 0.2602192 -0.05638373 1.555112 0.2330083 -0.01111027 1.618641 0.2413093 0.01920343 1.625019 0.2394633 0.04570631 1.6144 0.2419485 0.06828047 1.594127 0.2445291
249 0.02793428 1.504066 0.1994983 -0.07050656 1.571908 0.2378426 -0.01664376 1.651549 0.2528816 0.02296173 1.661405 0.2570754 0.057524 1.648636 0.2600251 0.08344874 1.613604 0.2621427 -0.05581003 1.558031 0.231565 -0.008554771 1.619371 0.2414294 0.02184582 1.62449 0.2409683 0.04784889 1.612846 0.2437189 0.06963876 1.591798 0.2460048
250 0.02690304 1.504008 0.1985178 -0.06945457 1.575588 0.2355682 -0.01271437 1.652588 0.252744 0.02725923 1.660653 0.2585974 0.06112356 1.646131 0.2624493 0.08547572 1.609992 0.264347 -0.05508649 1.561222 0.2296235 -0.005802392 1.620056 0.2414231 0.02469876 1.62377 0.2424363 0.05011905 1.610959 0.2455585 0.07098153 1.589036 0.2476538
251 0.02583482 1.504071 0.1975448 -0.06815268 1.579401 0.2336033 -0.008549424 1.653512 0.2531872 0.03144962 1.659732 0.2604827 0.06475158 1.64364 0.2645715 0.08746708 1.606498 0.2661513 -0.05421092 1.564515 0.2278876 -0.002891829 1.620769 0.2416284 0.0275296 1.623047 0.2439507 0.05239627 1.609113 0.2471462 0.07229009 1.586366 0.2489965
252 0.02472399 1.504147 0.1964492 -0.06661634 1.583252 0.2317908 -0.004222385 1.654212 0.2537478 0.03536246 1.658444 0.2626817 0.06827996 1.640847 0.2667082 0.08928864 1.6028 0.2678684 -0.05315073 1.567874 0.2261937 0.0002301372 1.621499 0.241491 0.03034338 1.622233 0.2452691 0.0546718 1.607136 0.2485083 0.07350761 1.583568 0.2501844
253 0.02365793 1.504123 0.1954278 -0.06460644 1.586993 0.2302518 -0.0005800904 1.654541 0.2544206 0.03887299 1.657074 0.2644683 0.07154281 1.638066 0.2684558 0.09083737 1.599272 0.2693265 -0.05175562 1.571102 0.2246105 0.003082039 1.622058 0.2412726 0.03298161 1.6214 0.2461443 0.05681599 1.605199 0.2495055 0.07457033 1.580904 0.2511447
254 0.02272605 1.504455 0.1944522 -0.06244668 1.591111 0.2281123 0.003468422 1.655231 0.2546751 0.04300938 1.655873 0.2658234 0.07470047 1.63525 0.2704102 0.0923995 1.595802 0.2706339 -0.05005954 1.574731 0.2228528 0.006194362 1.622764 0.2412522 0.03594512 1.620673 0.2469658 0.05900855 1.603368 0.2505454 0.07576327 1.578404 0.2518611
255 0.02203421 1.505054 0.1932457 -0.06027885 1.594975 0.2255064 0.007928316 1.655926 0.2549273 0.04742748 1.654663 0.266815 0.07782155 1.632896 0.2714989 0.09397271 1.593122 0.2710093 -0.04829097 1.578172 0.2206877 0.009483634 1.62352 0.2411585 0.03915824 1.620139 0.2472051 0.06132213 1.601971 0.2507886 0.07711846 1.576509 0.2517538
256 0.02127291 1.505504 0.1921214 -0.05794446 1.598679 0.222398 0.01303674 1.656499 0.2544655 0.05205399 1.653068 0.2676229 0.08101173 1.630227 0.2724119 0.09565265 1.590105 0.2713238 -0.04644106 1.581436 0.2179949 0.01321346 1.624066 0.2407087 0.04260744 1.619234 0.2473855 0.06374891 1.600222 0.2510194 0.07850961 1.57419 0.2517816
257 0.02060987 1.505748 0.1912222 -0.05582851 1.601594 0.2197318 0.01746045 1.656646 0.2541531 0.05541757 1.651242 0.2689148 0.08336518 1.627899 0.2731669 0.09684218 1.58756 0.2716155 -0.044755 1.583986 0.2157002 0.01637561 1.624239 0.2403824 0.0452695 1.618159 0.2478156 0.06557348 1.598579 0.2512832 0.07946795 1.572105 0.2519175
258 0.01973971 1.505742 0.1902663 -0.05328348 1.604429 0.2178031 0.02184624 1.656166 0.2543227 0.05831361 1.648561 0.2710036 0.08564015 1.624987 0.2738984 0.09770036 1.58452 0.2719399 -0.04296105 1.586386 0.2137316 0.01938856 1.623917 0.2403909 0.04757679 1.616498 0.2487114 0.06716745 1.596443 0.2515987 0.08006406 1.569594 0.2520862
259 0.01862796 1.505517 0.1892875 -0.05075977 1.606915 0.2156599 0.02598956 1.655146 0.25462 0.06115298 1.64522 0.2732113 0.08785874 1.621451 0.2746696 0.09830314 1.580758 0.2725164 -0.04117368 1.588467 0.2116507 0.02229897 1.62311 0.2405465 0.04983921 1.614271 0.2497479 0.06868179 1.593761 0.2519837 0.08047496 1.56649 0.2524024
260 0.01749702 1.505298 0.1880064 -0.0479716 1.609343 0.213027 0.0300683 1.653619 0.2550278 0.06389695 1.641083 0.2756922 0.08991565 1.617046 0.2758437 0.09872716 1.576154 0.2731669 -0.03901806 1.59052 0.209444 0.02509077 1.621851 0.2409156 0.05196078 1.611451 0.2510389 0.06994969 1.590457 0.2526867 0.08064207 1.562783 0.252759
261 0.0165234 1.505175 0.1868339 -0.0456358 1.61133 0.210093 0.03389264 1.651912 0.2557982 0.06700095 1.637698 0.2766992 0.09185972 1.613235 0.2763498 0.0992973 1.572117 0.2732243 -0.03701197 1.592237 0.2074045 0.02765922 1.620567 0.2414267 0.05406514 1.609 0.2516312 0.07115716 1.587603 0.2529223 0.08090763 1.559572 0.2526613
262 0.01549275 1.505129 0.1858269 -0.04387536 1.61301 0.2075711 0.03674662 1.650167 0.2570059 0.06960948 1.635106 0.2768419 0.09305754 1.60998 0.2767801 0.09936747 1.568651 0.273204 -0.03551084 1.593728 0.2057193 0.02961495 1.619392 0.2420055 0.05571143 1.607017 0.2517544 0.07196262 1.585216 0.2529148 0.08089747 1.556851 0.2523666
263 0.01432704 1.505252 0.1846376 -0.0421138 1.614737 0.2056399 0.0388818 1.648407 0.2582415 0.07137384 1.632569 0.2771119 0.09330852 1.606751 0.2776864 0.0987445 1.565376 0.2733456 -0.03422831 1.595247 0.2040707 0.03118685 1.618345 0.242252 0.05694783 1.605205 0.251656 0.07228351 1.582956 0.2529243 0.08037543 1.554285 0.2521211
264 0.01310032 1.505371 0.1835395 -0.04019706 1.616268 0.2048624 0.04007072 1.64675 0.2594465 0.07215352 1.630123 0.2778796 0.09271526 1.603431 0.2793663 0.0974841 1.562029 0.2741852 -0.0330374 1.596554 0.2028866 0.03214147 1.617288 0.2425754 0.0575274 1.603397 0.2519474 0.07199313 1.580625 0.2535412 0.07928282 1.551679 0.2525052
265 0.01206372 1.505607 0.1825273 -0.03793668 1.617607 0.2052903 0.04024123 1.645263 0.2610323 0.0719747 1.62798 0.2792068 0.09171475 1.600518 0.2812444 0.09618744 1.559125 0.2750975 -0.03175639 1.597712 0.202262 0.0324775 1.616372 0.243178 0.05756929 1.601877 0.2525701 0.07142176 1.578624 0.2543673 0.07807156 1.549466 0.2530549
266 0.01128389 1.506005 0.181477 -0.03551065 1.618732 0.2063532 0.0401269 1.643916 0.2627301 0.07145944 1.626174 0.2806196 0.09078628 1.598275 0.2827138 0.09506287 1.556971 0.2757626 -0.0304309 1.598758 0.2020187 0.03261556 1.615637 0.2438185 0.05744409 1.600721 0.2531607 0.0708836 1.577139 0.2549635 0.07706369 1.547867 0.2533724
267 0.01084885 1.506667 0.180391 -0.03247449 1.619824 0.208244 0.04063934 1.642585 0.2645148 0.07079576 1.624397 0.2824806 0.08978577 1.596205 0.2844355 0.09389769 1.555309 0.2766397 -0.02873312 1.600001 0.202179 0.03317865 1.615056 0.2444879 0.05743306 1.599786 0.2539132 0.07051552 1.575936 0.2556038 0.07622448 1.546701 0.2537484
268 0.01061384 1.507027 0.17972 -0.02900434 1.620398 0.2105072 0.04162858 1.641012 0.2664437 0.07036828 1.622973 0.2840001 0.0890138 1.594255 0.2860044 0.09249599 1.553669 0.2780439 -0.02667668 1.600942 0.2027649 0.03377749 1.614116 0.2457217 0.05739409 1.598821 0.2548428 0.07030773 1.574686 0.2563348 0.07541096 1.545489 0.254548
269 0.01043987 1.507395 0.1789167 -0.02585878 1.620855 0.2125537 0.04306319 1.639177 0.2683997 0.07083148 1.621445 0.2850483 0.08877884 1.592054 0.2872316 0.09111626 1.551692 0.2793662 -0.02461121 1.601868 0.2034755 0.03465763 1.612967 0.2470277 0.05765283 1.597638 0.2556745 0.07025741 1.573181 0.2569926 0.0746126 1.544022 0.2552959
270 0.01028705 1.507801 0.1780811 -0.02383739 1.621265 0.2136689 0.04480491 1.637584 0.2697329 0.07195494 1.619872 0.2857534 0.08889443 1.589892 0.2882138 0.09006199 1.54964 0.2804413 -0.02309197 1.602597 0.2038711 0.03571426 1.611891 0.2479985 0.05812032 1.596374 0.2564047 0.07029115 1.571655 0.2576171 0.07394592 1.542508 0.2559469
271 0.009970734 1.508368 0.1770542 -0.02267209 1.62188 0.2144421 0.04748159 1.635567 0.271001 0.07374811 1.617372 0.2867174 0.08909027 1.586899 0.2893811 0.08869034 1.546838 0.2815899 -0.0219315 1.603475 0.2041701 0.03731829 1.61049 0.24902 0.05889537 1.594503 0.2573586 0.07034504 1.56955 0.2583524 0.07305074 1.540431 0.2566119
272 0.009409789 1.50919 0.1760435 -0.02186433 1.622389 0.215768 0.04999535 1.633549 0.2723736 0.0753056 1.614751 0.2878602 0.08949509 1.584031 0.290159 0.08776157 1.544118 0.2820615 -0.0212639 1.604362 0.2048505 0.03886051 1.609154 0.2500974 0.0596633 1.592698 0.2582878 0.07057205 1.567613 0.2587377 0.07249171 1.538494 0.2567025
273 0.008637323 1.510074 0.175334 -0.02031312 1.622933 0.2174435 0.05171822 1.631645 0.2741283 0.07625227 1.612353 0.2892601 0.08986454 1.581464 0.290859 0.08702336 1.541566 0.2823379 -0.02032281 1.605382 0.2057626 0.03994564 1.607982 0.2513784 0.06007419 1.591114 0.2593701 0.07060586 1.565905 0.2591932 0.07188357 1.536744 0.2567586
274 0.00760552 1.511044 0.174659 -0.0179483 1.622722 0.2204538 0.05352438 1.629875 0.2754896 0.07737042 1.610005 0.2902991 0.09023388 1.57892 0.2913486 0.08627839 1.539222 0.2823911 -0.01911516 1.606355 0.207212 0.04098032 1.606869 0.2524518 0.06046259 1.589539 0.2602513 0.07048361 1.564199 0.2595634 0.07104727 1.53509 0.2567557
275 0.006656599 1.512071 0.174008 -0.01523472 1.621473 0.2245539 0.05485711 1.628084 0.2770633 0.07817649 1.608033 0.2912393 0.09053158 1.576801 0.2917293 0.0857067 1.537486 0.2822528 -0.01782179 1.606921 0.2095016 0.04165687 1.60581 0.2536327 0.06063147 1.588256 0.2610544 0.07023143 1.562833 0.2599115 0.07029416 1.533893 0.2566445
276 0.005946049 1.51304 0.1736765 -0.01274916 1.619673 0.2287902 0.05583134 1.626559 0.2787334 0.07869393 1.606591 0.292246 0.09077498 1.575174 0.2922402 0.08543667 1.536274 0.2821835 -0.01658003 1.607139 0.2122359 0.04218936 1.604997 0.2548523 0.06075033 1.587385 0.2618834 0.07007462 1.561878 0.2603539 0.06980674 1.533133 0.2566416
277 0.005159111 1.513982 0.1735525 -0.01109288 1.617935 0.2325627 0.05618697 1.625406 0.2803627 0.07866075 1.605541 0.2933608 0.0906366 1.573908 0.292912 0.08497635 1.535375 0.2822956 -0.01578231 1.607188 0.2149498 0.04233762 1.60444 0.2560384 0.06057425 1.586806 0.2627492 0.06973413 1.5612 0.2608821 0.06921045 1.532624 0.2567924
278 0.004252593 1.515036 0.1734353 -0.0107143 1.616769 0.2358201 0.0557662 1.624604 0.2820626 0.07791168 1.604674 0.2947198 0.09002323 1.572853 0.2936614 0.08420996 1.534682 0.2823653 -0.01571342 1.607317 0.2175584 0.04201102 1.604191 0.2571895 0.05999471 1.586466 0.2636534 0.06911844 1.560765 0.2613592 0.06838923 1.53234 0.2568615
279 0.003211577 1.516091 0.1731539 -0.01181295 1.615979 0.2385751 0.05447176 1.624065 0.2836404 0.07642798 1.604025 0.296019 0.08907526 1.572264 0.2940684 0.08340885 1.534503 0.2819993 -0.01672341 1.607299 0.2199089 0.04106382 1.604186 0.2581339 0.05898011 1.586411 0.2643198 0.06831693 1.560738 0.261443 0.06761172 1.532481 0.2564627
280 0.002253165 1.516846 0.1731964 -0.01388303 1.615338 0.2408383 0.05227457 1.624187 0.2849819 0.07429991 1.604167 0.2972062 0.08778034 1.57269 0.2944582 0.08272222 1.535259 0.2816664 -0.01863255 1.606931 0.2220171 0.03939644 1.604591 0.2589919 0.05748747 1.586926 0.2649577 0.06732387 1.561428 0.2615463 0.06706754 1.533327 0.2560685
281 0.001515149 1.517165 0.173425 -0.01689442 1.615147 0.2420733 0.04931962 1.625336 0.285406 0.07172801 1.605537 0.2976783 0.08605716 1.574378 0.2946699 0.08219811 1.537074 0.2813157 -0.02121668 1.60629 0.2233784 0.03724017 1.605636 0.2591537 0.0557565 1.588247 0.2650622 0.06622228 1.56296 0.2614636 0.06681588 1.534926 0.2556069
282 0.001138191 1.516932 0.1742862 -0.0204493 1.615523 0.242585 0.04584009 1.627135 0.2855555 0.06889613 1.607588 0.2981027 0.08439306 1.576836 0.2950242 0.08226965 1.539501 0.2811558 -0.02405537 1.605447 0.2243926 0.03486025 1.607098 0.259133 0.05400074 1.590057 0.2651577 0.06524309 1.564998 0.2616037 0.0670072 1.536979 0.2554214
283 0.001231626 1.516343 0.1757094 -0.02369271 1.615639 0.2431631 0.04288353 1.628912 0.2858005 0.06656577 1.609521 0.2987802 0.08324943 1.579265 0.2956289 0.0829366 1.54196 0.281258 -0.02662981 1.604447 0.2255174 0.03279591 1.608491 0.2593556 0.05255745 1.591801 0.2655864 0.06462618 1.567033 0.2620862 0.06761995 1.539074 0.2555895
284 0.00147415 1.515525 0.1772144 -0.02694014 1.615678 0.2432019 0.0405826 1.630679 0.2854351 0.06510291 1.611387 0.2988622 0.08277185 1.581687 0.2957706 0.0844442 1.54443 0.2807888 -0.02911677 1.603156 0.2263776 0.0311274 1.609722 0.2592234 0.05161406 1.593407 0.2656477 0.06441329 1.568975 0.2623006 0.06881903 1.541124 0.2553236
285 0.001658441 1.514402 0.1787253 -0.03022206 1.61551 0.2430078 0.03791974 1.632611 0.2845972 0.06366932 1.613483 0.2984381 0.08269786 1.584616 0.2951651 0.08607179 1.547231 0.2799445 -0.03147967 1.601592 0.2272184 0.02915973 1.610868 0.2588095 0.0505563 1.594967 0.2654055 0.06404942 1.570908 0.2622604 0.06973588 1.543167 0.2549725
286 0.001638605 1.513504 0.1796521 -0.03390317 1.614204 0.2436091 0.03521159 1.634358 0.2835333 0.06254487 1.614912 0.2979194 0.08306921 1.587204 0.2937964 0.08743782 1.549338 0.2787254 -0.0342001 1.599702 0.2282941 0.02701056 1.611625 0.2584207 0.04944983 1.595939 0.2651483 0.06363015 1.572376 0.2618456 0.0702785 1.54465 0.2543444
287 0.001847061 1.512536 0.1807556 -0.03737598 1.61249 0.2442968 0.03215944 1.63649 0.2821681 0.06090972 1.616654 0.2976332 0.08359804 1.590454 0.2920794 0.08904 1.551997 0.2773144 -0.03689661 1.597576 0.2293659 0.02455301 1.612465 0.2580542 0.04805804 1.597082 0.2650968 0.06317473 1.574135 0.2614569 0.07082979 1.546443 0.253828
288 0.002318617 1.511794 0.1818244 -0.04066631 1.610551 0.2452878 0.02917224 1.63836 0.2813521 0.05927386 1.618833 0.2974609 0.08419784 1.593977 0.2903353 0.09035314 1.554949 0.2763519 -0.03946035 1.595444 0.2305592 0.02211283 1.613136 0.2581964 0.04658552 1.598327 0.2653386 0.0627649 1.575999 0.2612422 0.07119983 1.548383 0.2537999
289 0.00283454 1.511255 0.1827231 -0.04391295 1.608403 0.2465464 0.02613328 1.639975 0.2808071 0.05750018 1.621071 0.2972433 0.08439036 1.597557 0.2886202 0.09115276 1.55799 0.2756097 -0.04202504 1.593247 0.2319018 0.01966518 1.613752 0.2584559 0.04508448 1.599713 0.2654557 0.06230908 1.578044 0.2608567 0.07147314 1.550517 0.2536999
290 0.00316752 1.510948 0.183396 -0.04710661 1.605876 0.2480757 0.02231698 1.641467 0.2804257 0.05464963 1.623472 0.2971622 0.0837962 1.601538 0.2867997 0.09156533 1.561607 0.2745682 -0.04470173 1.590762 0.2334332 0.01665115 1.614395 0.2587354 0.04291508 1.601407 0.2654769 0.06146345 1.58057 0.2601536 0.07155351 1.553245 0.2532066
291 0.003350424 1.51063 0.1840741 -0.04993431 1.604037 0.2488336 0.01943308 1.642516 0.2799898 0.05212056 1.625284 0.2971712 0.08269887 1.604571 0.2857146 0.09112734 1.564426 0.2744115 -0.04689408 1.588763 0.2344657 0.01424824 1.614795 0.2589355 0.04091185 1.602653 0.265629 0.06044931 1.582529 0.2597877 0.07118329 1.555397 0.2532308
292 0.00354764 1.510242 0.184726 -0.05243903 1.601771 0.2501292 0.01738968 1.643474 0.2790816 0.05048905 1.627333 0.2962868 0.08144813 1.607332 0.2845973 0.09024358 1.567166 0.2744325 -0.04888989 1.586632 0.2357252 0.01233573 1.615096 0.2588482 0.03934209 1.603852 0.2653132 0.05943763 1.584267 0.2593184 0.07059627 1.557352 0.2533242
293 0.003807535 1.510077 0.1851878 -0.05521236 1.599297 0.2514723 0.01527869 1.64405 0.2787344 0.04873034 1.629311 0.2954358 0.07998321 1.610237 0.283401 0.08949298 1.570224 0.2739412 -0.05095399 1.584298 0.2371108 0.01039861 1.615301 0.2589577 0.03769048 1.605139 0.2649339 0.05830238 1.586201 0.2587187 0.07004803 1.559613 0.2530265
294 0.004085819 1.51004 0.1854895 -0.05783039 1.597031 0.2525833 0.01310016 1.644406 0.2786737 0.04694698 1.631272 0.2944758 0.07837353 1.612823 0.2823817 0.08877079 1.572831 0.2733768 -0.05286985 1.582176 0.238294 0.008484722 1.615451 0.2591394 0.03599003 1.60637 0.2645326 0.05705876 1.587996 0.258164 0.06941944 1.56166 0.2526646
295 0.004349883 1.509916 0.1858532 -0.06062927 1.593993 0.2540095 0.009358446 1.644796 0.2785482 0.04467687 1.634605 0.2920481 0.0756168 1.615742 0.2817896 0.087437 1.575708 0.273151 -0.0549302 1.579393 0.2397356 0.00564442 1.615653 0.2591135 0.03369506 1.608146 0.2634638 0.05514598 1.590184 0.2576168 0.06838939 1.564086 0.2524057
