yixianl/unity_handgesture/data/fight_palm_2.txt
frame right_handpalm right_thumb_tip right_index_tip right_middle_tip right_ring_tip right_pinky_tip right_thumb_joint right_index_joint right_middle_joint right_ring_joint right_pinky_joint 
0 0.01338171 1.511093 0.186178 -0.0816045 1.5634 0.2467447 -0.03952863 1.638473 0.2717078 -0.002451365 1.657092 0.2633455 0.03254392 1.650606 0.2567611 0.06190228 1.619448 0.253386 -0.06971508 1.5515 0.2342246 -0.03027795 1.612652 0.2503055 -0.001338685 1.62325 0.2422219 0.02518633 1.615331 0.2390406 0.04876772 1.596899 0.2382538
1 0.01416721 1.510646 0.1876694 -0.08270611 1.561986 0.2453095 -0.04322389 1.637383 0.2713208 -0.006839343 1.657905 0.2614192 0.02862253 1.652309 0.2551221 0.05872189 1.622061 0.2529324 -0.0702436 1.549868 0.233577 -0.03292299 1.611528 0.2504269 -0.004433017 1.623219 0.2417157 0.02248046 1.616237 0.2385548 0.04658116 1.598717 0.2381682
2 0.0152873 1.510413 0.1888263 -0.08312414 1.560351 0.2440917 -0.04668123 1.635476 0.271711 -0.011232 1.657929 0.2603679 0.02449792 1.653819 0.2531385 0.05541792 1.62489 0.2516375 -0.07033019 1.548063 0.2328993 -0.03539764 1.609904 0.2509733 -0.00744458 1.622772 0.241692 0.01975034 1.616889 0.2380729 0.04433988 1.600429 0.2379119
3 0.01657087 1.510408 0.1898145 -0.08287392 1.558687 0.2437772 -0.04954029 1.633314 0.2727199 -0.01544302 1.657745 0.259515 0.0203342 1.655343 0.2505027 0.05238875 1.627774 0.2495425 -0.06985566 1.546291 0.232958 -0.03746832 1.608112 0.2519625 -0.01027965 1.6222 0.2418836 0.01709042 1.617524 0.2373349 0.04228001 1.602183 0.2371998
4 0.01782781 1.51053 0.1905937 -0.08233717 1.557318 0.2440727 -0.05187877 1.631658 0.273202 -0.01925308 1.657393 0.2590096 0.01660467 1.656484 0.2485462 0.05003019 1.630069 0.247765 -0.06915227 1.544931 0.2334354 -0.03907697 1.606798 0.2524663 -0.01270062 1.621819 0.2418808 0.01484389 1.618194 0.2364441 0.0407023 1.603768 0.2362977
5 0.01911194 1.510938 0.1913641 -0.08175527 1.555843 0.2450375 -0.05391177 1.630946 0.27286 -0.02265218 1.657286 0.2587984 0.01317284 1.657528 0.247881 0.04798434 1.632265 0.2466294 -0.06844942 1.543725 0.2342273 -0.04040316 1.606242 0.2523428 -0.01479337 1.621904 0.2417599 0.01287256 1.619187 0.2357152 0.03940269 1.60556 0.2354535
6 0.02050457 1.511297 0.1924314 -0.08190262 1.55395 0.2451945 -0.05548421 1.630518 0.2722135 -0.02502717 1.657249 0.2585585 0.01033709 1.65844 0.2471346 0.04573493 1.634409 0.2452892 -0.06797694 1.54232 0.2346506 -0.04146051 1.60603 0.2518168 -0.0163412 1.622176 0.2413483 0.01123591 1.620192 0.2347885 0.03813429 1.60738 0.2342566
7 0.02213452 1.511691 0.1935466 -0.08202587 1.550767 0.2459483 -0.05696823 1.629806 0.2717622 -0.02754464 1.656935 0.2583382 0.006906821 1.658994 0.2469369 0.04313188 1.636608 0.2436302 -0.06715882 1.539943 0.2358716 -0.04241496 1.605387 0.2517135 -0.0179977 1.622087 0.2412046 0.009269585 1.620977 0.2342039 0.03664789 1.609228 0.2328658
8 0.02391734 1.512289 0.1946129 -0.08097931 1.547822 0.2482109 -0.05861428 1.628875 0.2714185 -0.03018765 1.656575 0.2578522 0.003635838 1.659507 0.2464818 0.04072826 1.638627 0.2420956 -0.06576554 1.53761 0.2380415 -0.04335155 1.604621 0.2517768 -0.01962395 1.621918 0.2410338 0.007395373 1.621676 0.233671 0.03525473 1.610978 0.2315807
9 0.02582897 1.512877 0.195822 -0.07905452 1.545801 0.2509747 -0.06012242 1.627993 0.2709244 -0.03247655 1.656134 0.2575043 0.001200112 1.659975 0.2461069 0.03879289 1.64031 0.2411717 -0.06401879 1.535768 0.2403907 -0.04409378 1.603989 0.2516481 -0.02090882 1.62179 0.240791 0.006044623 1.622315 0.2332461 0.03422676 1.612521 0.2306743
10 0.02760655 1.513582 0.19688 -0.0775132 1.544502 0.2526269 -0.06137907 1.627405 0.2702745 -0.03434879 1.655705 0.2575475 -0.0006055163 1.660402 0.2462116 0.03727053 1.641655 0.24111 -0.06256676 1.534541 0.2418568 -0.04468801 1.603623 0.2513223 -0.02190454 1.621753 0.2407099 0.005091382 1.622916 0.2332191 0.03347849 1.613836 0.2304145
11 0.02994406 1.514408 0.198114 -0.07613492 1.543144 0.2528491 -0.06356724 1.626747 0.2678229 -0.03725313 1.65499 0.2564787 -0.003396366 1.660813 0.245398 0.03499201 1.643255 0.2408412 -0.06101074 1.533282 0.2422531 -0.04574224 1.603123 0.2497942 -0.02340688 1.621573 0.2397616 0.003723835 1.623516 0.2326641 0.03238436 1.615318 0.2301519
12 0.03243972 1.515097 0.1993424 -0.07448279 1.542259 0.2527159 -0.06526403 1.626202 0.2647755 -0.03991298 1.654453 0.254048 -0.005887483 1.66134 0.2428565 0.03314116 1.644847 0.2395035 -0.05911344 1.532406 0.2424829 -0.04638218 1.602571 0.2479243 -0.02460299 1.621252 0.238286 0.002662882 1.623947 0.2314537 0.0316014 1.61661 0.2294921
13 0.03462878 1.515723 0.2002281 -0.07327556 1.540644 0.2526492 -0.06626141 1.625453 0.2627137 -0.04194622 1.653806 0.2520308 -0.008088432 1.661592 0.240365 0.03149803 1.646105 0.238083 -0.05732426 1.531264 0.2428842 -0.04665742 1.601846 0.2467054 -0.02548727 1.620752 0.2372083 0.001738262 1.624114 0.2304536 0.03089362 1.617589 0.2288639
14 0.03697533 1.516273 0.2013935 -0.07217182 1.538388 0.2525182 -0.06671233 1.624379 0.2616637 -0.04327964 1.653085 0.2504271 -0.009871401 1.661521 0.2384793 0.03013204 1.647056 0.2368957 -0.05547595 1.529775 0.243329 -0.04656485 1.600952 0.246118 -0.02590901 1.620163 0.2364667 0.001138856 1.624088 0.2298561 0.03045543 1.618325 0.2284667
15 0.03927149 1.516774 0.2027778 -0.07115984 1.536733 0.2517987 -0.06683616 1.623506 0.2608077 -0.04384719 1.652625 0.2488598 -0.01088515 1.661342 0.2374481 0.02956033 1.647656 0.2367316 -0.05390109 1.528657 0.2431885 -0.04619845 1.600288 0.2456515 -0.02576623 1.61977 0.2357752 0.00109872 1.624036 0.2297641 0.03059277 1.618834 0.2287805
16 0.04203534 1.517509 0.2043104 -0.07006735 1.534805 0.2497751 -0.06719545 1.622439 0.2591556 -0.04436814 1.65219 0.2463279 -0.01191244 1.66107 0.2370222 0.02906341 1.64829 0.2378531 -0.05207119 1.527495 0.2420693 -0.04578269 1.599528 0.2447046 -0.02539804 1.619385 0.2346402 0.001197314 1.624044 0.2301179 0.03090223 1.619522 0.2299698
17 0.04480917 1.518497 0.2055187 -0.06851747 1.531966 0.2488093 -0.06781704 1.620669 0.2582031 -0.04554667 1.651333 0.2438083 -0.01354632 1.660688 0.2365652 0.02815985 1.649258 0.238002 -0.04979424 1.52581 0.2418854 -0.04562288 1.598268 0.2441636 -0.02555434 1.618672 0.2335716 0.0007210653 1.624006 0.2302508 0.03069133 1.620415 0.2305999
18 0.04728263 1.519065 0.2064231 -0.06699886 1.529029 0.2479727 -0.06829698 1.618581 0.2573455 -0.04659737 1.650033 0.2416295 -0.0150232 1.659897 0.2358145 0.02735162 1.649712 0.2377489 -0.04767103 1.52405 0.2418074 -0.0454445 1.596737 0.2434736 -0.02567798 1.617622 0.2324581 0.0003093347 1.623569 0.2299482 0.0305211 1.620834 0.2307396
19 0.05001397 1.519342 0.2073216 -0.06522066 1.526604 0.2464517 -0.0680972 1.616662 0.2562552 -0.04673929 1.648748 0.2395633 -0.01540083 1.659104 0.2347298 0.02740309 1.649861 0.2374461 -0.0454529 1.522532 0.2410561 -0.04472274 1.595343 0.2424215 -0.02507371 1.616596 0.2311938 0.0007182165 1.623027 0.2294354 0.03107109 1.62095 0.2308324
20 0.05253604 1.519541 0.2081495 -0.06338682 1.525275 0.2449225 -0.06709225 1.615686 0.2552091 -0.04570314 1.648258 0.237481 -0.01454229 1.658834 0.2337953 0.02847662 1.650067 0.2375519 -0.04336201 1.521741 0.2401287 -0.04342344 1.59473 0.2413169 -0.02364275 1.61619 0.2298317 0.001982712 1.622873 0.2290082 0.03239485 1.621159 0.2311283
21 0.05504447 1.51988 0.2088732 -0.06139661 1.52472 0.2434996 -0.06511533 1.615737 0.2547531 -0.04340927 1.648697 0.2356164 -0.01234507 1.659214 0.2333776 0.03075967 1.65055 0.2377147 -0.04118576 1.521588 0.2392596 -0.04134314 1.594998 0.240729 -0.0212507 1.616523 0.2287765 0.00424193 1.623258 0.2289122 0.0346761 1.621616 0.2314953
22 0.05729103 1.519946 0.2094254 -0.05962826 1.524613 0.2418365 -0.06268582 1.616403 0.2541792 -0.04017638 1.649644 0.2338049 -0.009112113 1.659845 0.23341 0.03389357 1.650881 0.2382618 -0.03923979 1.521839 0.2382602 -0.03890565 1.595688 0.2401526 -0.01830347 1.617134 0.2281657 0.007155358 1.623757 0.2289869 0.03754055 1.621923 0.2320443
23 0.05872865 1.519748 0.2091007 -0.0582555 1.525833 0.2407282 -0.06013209 1.617776 0.2530759 -0.03627538 1.651109 0.2322434 -0.005215111 1.66065 0.233989 0.0376406 1.650918 0.2390189 -0.03791079 1.522762 0.2372127 -0.03644482 1.596857 0.2392516 -0.0151225 1.618097 0.2277188 0.01035504 1.624342 0.2291841 0.04069391 1.62197 0.232532
24 0.05989126 1.519141 0.2087817 -0.05710111 1.527786 0.2395748 -0.05748324 1.619633 0.2510331 -0.03194217 1.652712 0.2302596 -0.0007426271 1.66145 0.2341377 0.04178217 1.650638 0.2395586 -0.03688376 1.524058 0.236022 -0.03386499 1.598201 0.2379432 -0.01171427 1.619082 0.227019 0.01386384 1.624807 0.2290978 0.0440874 1.621707 0.2327789
25 0.06049283 1.518344 0.2082972 -0.05651833 1.529149 0.2385065 -0.05533803 1.62122 0.2490881 -0.02853915 1.653843 0.2280456 0.00313461 1.662022 0.2334478 0.04555435 1.650184 0.2395723 -0.0363583 1.525048 0.2350384 -0.03182631 1.59928 0.2366285 -0.009041537 1.619727 0.226133 0.01680727 1.625009 0.228442 0.04699542 1.621232 0.2326142
26 0.06071525 1.517563 0.2076635 -0.05638094 1.52984 0.2374182 -0.05377009 1.622508 0.2469111 -0.02569956 1.654704 0.2255895 0.006400873 1.662442 0.2320182 0.04901313 1.649657 0.2390457 -0.03620815 1.525707 0.2340909 -0.03031996 1.60014 0.2350907 -0.006913559 1.620196 0.2249942 0.01919892 1.625058 0.2274581 0.0494728 1.620647 0.2321426
27 0.06048756 1.516835 0.206873 -0.05659655 1.529727 0.2366996 -0.05300313 1.623186 0.245162 -0.02403952 1.655108 0.2240108 0.008419772 1.662581 0.2305246 0.05117078 1.649127 0.2380952 -0.03635405 1.525854 0.2335206 -0.02958566 1.600529 0.2338277 -0.005753046 1.620362 0.2239512 0.02056606 1.624927 0.2263941 0.05091061 1.620078 0.2313075
28 0.06031851 1.515298 0.2071073 -0.05688703 1.528952 0.2366889 -0.0525801 1.622962 0.2435735 -0.02304834 1.654506 0.2226567 0.009831511 1.661856 0.2285317 0.05244545 1.647958 0.236626 -0.03657632 1.525252 0.2337793 -0.02920051 1.599997 0.2328029 -0.005060479 1.619606 0.2227621 0.02145783 1.623973 0.2250833 0.05177098 1.618854 0.230116
29 0.06027497 1.513603 0.2070449 -0.05711804 1.528306 0.2356087 -0.05213147 1.622348 0.2419469 -0.02228331 1.653557 0.221639 0.01086482 1.660759 0.2269514 0.0531132 1.646508 0.235292 -0.03675421 1.524611 0.2331221 -0.0288841 1.599128 0.2314657 -0.004521323 1.618538 0.2212811 0.02210605 1.622751 0.2236798 0.05230235 1.617435 0.228718
30 0.06020239 1.511708 0.2071504 -0.05743689 1.527779 0.2340658 -0.05145803 1.621953 0.2398294 -0.02124537 1.652652 0.2206501 0.01208564 1.659584 0.2254621 0.05395182 1.644941 0.2336153 -0.03704043 1.523977 0.2320785 -0.02842612 1.598339 0.2297875 -0.003801131 1.61746 0.2195429 0.0228816 1.621449 0.2222052 0.05295669 1.615866 0.2271017
31 0.05990432 1.50994 0.2073167 -0.05792075 1.527374 0.2326456 -0.05082447 1.62176 0.2378854 -0.02023644 1.651817 0.2207869 0.01312828 1.658489 0.2246796 0.05463787 1.643452 0.2320417 -0.03756249 1.523237 0.2309747 -0.02806168 1.597721 0.2282695 -0.003174052 1.616547 0.2181054 0.0234974 1.620265 0.2210926 0.0534616 1.614366 0.2256184
32 0.05940472 1.508184 0.2072532 -0.05846073 1.527077 0.2310421 -0.05019511 1.621589 0.2361688 -0.01932188 1.650677 0.2228366 0.01397897 1.657293 0.2249513 0.05522767 1.641882 0.2307819 -0.03815676 1.522567 0.2297032 -0.0277102 1.597056 0.2272043 -0.002686835 1.615633 0.2174296 0.02395586 1.619032 0.2206779 0.0538413 1.612769 0.2245031
33 0.05876733 1.506475 0.2070892 -0.05896713 1.526713 0.2295593 -0.04954521 1.621339 0.2351164 -0.01839117 1.649343 0.2253885 0.01469116 1.656062 0.225655 0.05569576 1.640332 0.2299491 -0.03870339 1.52193 0.2285569 -0.02737067 1.596356 0.2266531 -0.002330814 1.614745 0.2175936 0.0243189 1.61779 0.2206762 0.05411745 1.611191 0.2238089
34 0.05826047 1.504682 0.2070968 -0.05937285 1.526379 0.2278684 -0.04854273 1.621131 0.2345292 -0.01683472 1.647614 0.2287243 0.01560252 1.65471 0.2268326 0.0564749 1.63867 0.2292179 -0.03913438 1.521402 0.2273259 -0.02679618 1.595683 0.2263755 -0.001717831 1.61389 0.2182706 0.02486544 1.616463 0.221005 0.05461586 1.609483 0.2233067
35 0.0579746 1.503151 0.2070503 -0.05962104 1.525714 0.2265237 -0.04736579 1.621017 0.234162 -0.01495871 1.64621 0.231017 0.01686621 1.653624 0.2276208 0.05774794 1.637219 0.2285054 -0.03933759 1.520882 0.2263988 -0.02602935 1.595176 0.2262113 -0.0008146187 1.613198 0.2188414 0.02567282 1.615342 0.2213435 0.05542428 1.607984 0.2229559
36 0.05758704 1.501734 0.2067938 -0.05989319 1.525183 0.2260788 -0.04602431 1.62114 0.2333254 -0.01289584 1.644866 0.232321 0.01851256 1.652709 0.227766 0.05926997 1.635803 0.227819 -0.03960399 1.52038 0.2260188 -0.02512088 1.594869 0.225709 0.0003121569 1.612573 0.2189666 0.02671736 1.614316 0.2214607 0.05639013 1.606529 0.2227129
37 0.05701089 1.500405 0.2065091 -0.06011021 1.525951 0.226223 -0.0446296 1.621474 0.2323094 -0.0107432 1.643277 0.2334117 0.02031282 1.651806 0.2283757 0.06087252 1.634289 0.2280258 -0.0399642 1.52062 0.2258929 -0.02416896 1.594805 0.2249586 0.001610214 1.612074 0.2188132 0.02790472 1.613356 0.221826 0.05745308 1.605053 0.2230269
38 0.05617888 1.498827 0.2061948 -0.06023163 1.527789 0.22648 -0.0431214 1.6218 0.2313116 -0.007920289 1.64085 0.2339728 0.02243092 1.650649 0.2291041 0.06264541 1.63236 0.2287315 -0.04041605 1.521421 0.2256567 -0.02313317 1.59475 0.2241711 0.003271053 1.611451 0.2181525 0.0293062 1.612167 0.2222351 0.05865085 1.603227 0.2236103
39 0.05519296 1.497174 0.2056177 -0.0603141 1.529316 0.226896 -0.04180902 1.62185 0.2306354 -0.005251293 1.638108 0.2335231 0.02439798 1.649384 0.2293333 0.06433285 1.630306 0.2294123 -0.04084247 1.522035 0.225567 -0.02221807 1.594481 0.2236946 0.004856935 1.610593 0.2172004 0.03059169 1.610831 0.2224475 0.05975552 1.601292 0.2241344
40 0.05410558 1.495728 0.204379 -0.06049613 1.530733 0.2269658 -0.04056197 1.621949 0.2297639 -0.002667957 1.635544 0.2317033 0.02636232 1.648136 0.2289924 0.06586154 1.628166 0.2299236 -0.04138339 1.522674 0.2251515 -0.02139116 1.594244 0.2231068 0.006345997 1.609702 0.2160503 0.03178778 1.609496 0.2222682 0.06072583 1.599326 0.2242637
41 0.05303823 1.49448 0.2034097 -0.06078147 1.531829 0.2272886 -0.03945681 1.622268 0.2280705 -0.0008894933 1.634233 0.228876 0.02807444 1.647219 0.2277734 0.06731779 1.626371 0.2295207 -0.04196615 1.5232 0.2250688 -0.02068314 1.594144 0.2221086 0.007321453 1.609033 0.2152771 0.03277058 1.608419 0.2215596 0.06158604 1.597663 0.2237326
42 0.05162571 1.493659 0.2020675 -0.06128747 1.533763 0.2278329 -0.03813929 1.623434 0.225678 0.0008975504 1.634622 0.2248114 0.03022539 1.646799 0.2270683 0.06915081 1.624827 0.2296479 -0.04289563 1.52445 0.224865 -0.01982677 1.594864 0.22027 0.008553615 1.608981 0.2137445 0.03403582 1.607876 0.2208145 0.06265949 1.596332 0.2234759
43 0.05026457 1.492939 0.2007729 -0.06224046 1.534826 0.2281491 -0.03654637 1.624795 0.2239757 0.002810086 1.636213 0.222573 0.03293486 1.646408 0.226949 0.07139865 1.623124 0.2301311 -0.04393134 1.52545 0.2247954 -0.01879949 1.595752 0.2189498 0.01002262 1.609144 0.2128806 0.03558315 1.607358 0.2205253 0.06395037 1.59492 0.223574
44 0.0488917 1.492112 0.1997868 -0.06322314 1.535979 0.2282513 -0.03477775 1.626152 0.2229569 0.004961693 1.637376 0.2222515 0.03597991 1.645804 0.2271969 0.07400434 1.621106 0.230566 -0.0449982 1.526487 0.224676 -0.01766583 1.596667 0.2180298 0.01168657 1.609289 0.2123195 0.03734094 1.606713 0.220324 0.06544638 1.593281 0.2236278
45 0.04701199 1.491146 0.1987086 -0.06420774 1.538006 0.2273889 -0.03274092 1.627642 0.22269 0.007044461 1.637265 0.2242367 0.03897799 1.644853 0.2283278 0.0765212 1.618742 0.2309857 -0.04623483 1.528012 0.2238468 -0.01650316 1.597649 0.217648 0.01330358 1.609403 0.2122404 0.0390003 1.605879 0.2205123 0.06679803 1.59138 0.2236398
46 0.04502918 1.490209 0.1974551 -0.06529145 1.53961 0.2258156 -0.03102738 1.628774 0.2225274 0.008692549 1.636382 0.2264434 0.04127603 1.643808 0.2289354 0.07828386 1.616555 0.2308513 -0.04748013 1.529227 0.2225687 -0.01566385 1.598312 0.2174001 0.01440547 1.609334 0.2122776 0.04013348 1.604951 0.2204954 0.06760971 1.589587 0.2232854
47 0.04315661 1.489388 0.1959611 -0.06644811 1.540775 0.2247107 -0.02931188 1.629702 0.2225694 0.01016064 1.634681 0.2290029 0.04329212 1.642561 0.2294331 0.07976834 1.614293 0.230247 -0.04877684 1.530142 0.2215351 -0.01491889 1.598783 0.2173673 0.01528315 1.609125 0.2126067 0.04101694 1.603867 0.2204829 0.06814955 1.587703 0.2227191
48 0.04115554 1.488785 0.1942703 -0.06707233 1.542579 0.2252109 -0.0277828 1.630583 0.2233285 0.0115613 1.632815 0.2313594 0.0453871 1.641325 0.2299033 0.0811394 1.612128 0.229505 -0.04994084 1.531343 0.221287 -0.0142792 1.599376 0.2175742 0.01612046 1.609051 0.2128936 0.04190991 1.602888 0.2203215 0.06858262 1.585952 0.2220468
49 0.03912322 1.48793 0.1939206 -0.06763315 1.543575 0.2288059 -0.02615722 1.631475 0.2234124 0.01355322 1.631297 0.2327278 0.0479825 1.640032 0.2298166 0.08256158 1.609664 0.2300415 -0.05120473 1.531893 0.2234401 -0.01346385 1.599898 0.2177501 0.01737655 1.608786 0.2132031 0.04314225 1.601762 0.2200996 0.06919848 1.584014 0.2221181
50 0.03708189 1.487016 0.1936955 -0.06738479 1.545285 0.2324924 -0.02416082 1.632246 0.2233676 0.01577138 1.629094 0.2341405 0.05063932 1.638356 0.2305666 0.08370383 1.606918 0.2316891 -0.05214163 1.532851 0.2255259 -0.01236734 1.600308 0.2177895 0.01891582 1.608267 0.213716 0.04449803 1.600387 0.2203778 0.06975874 1.581853 0.2229013
51 0.03523926 1.486379 0.1932596 -0.06684453 1.547045 0.2348899 -0.02258207 1.632842 0.2232718 0.01730505 1.62738 0.2352138 0.0525233 1.636864 0.2316912 0.08435493 1.60465 0.2334042 -0.05285408 1.533882 0.2266501 -0.01150807 1.600636 0.2177195 0.02006885 1.607826 0.2141945 0.04547336 1.599249 0.2207579 0.07005731 1.580096 0.2237256
52 0.03352691 1.486205 0.192408 -0.06608789 1.54924 0.2362907 -0.02097109 1.633708 0.2234886 0.01863001 1.626582 0.2360782 0.0543422 1.635734 0.2323571 0.08499586 1.602761 0.2345501 -0.05344032 1.535396 0.2270465 -0.01063059 1.601298 0.2176259 0.0211279 1.607744 0.2145072 0.04640199 1.598457 0.2208251 0.07033122 1.578711 0.2241239
53 0.03201145 1.486182 0.1916682 -0.06574515 1.551461 0.2365203 -0.01917259 1.634712 0.2240651 0.01989958 1.626634 0.2369876 0.05622942 1.634926 0.2326795 0.08593329 1.601191 0.2350623 -0.05380319 1.53721 0.2269568 -0.009590244 1.602162 0.217624 0.02225301 1.607915 0.2146648 0.04739809 1.597908 0.2208651 0.07077094 1.577585 0.224281
54 0.0306389 1.486195 0.1911002 -0.06552703 1.553931 0.236076 -0.01707496 1.635772 0.2248026 0.02145042 1.627095 0.2378048 0.05817335 1.634189 0.2330181 0.08696944 1.599747 0.2353821 -0.05392281 1.539358 0.2265791 -0.008324475 1.603116 0.2176743 0.02360803 1.608151 0.2146977 0.04847525 1.597417 0.2210232 0.07130232 1.57654 0.2244162
55 0.02905619 1.486441 0.1902788 -0.0658834 1.557044 0.2340132 -0.01463315 1.637004 0.2255609 0.02324456 1.627277 0.2394826 0.06032152 1.63322 0.2341118 0.08797057 1.597999 0.2363944 -0.05400825 1.542229 0.2252788 -0.006793585 1.604263 0.2177797 0.02511971 1.608465 0.2157539 0.0496893 1.596847 0.2216757 0.07185017 1.575342 0.2249426
56 0.02732289 1.486885 0.1892631 -0.06658237 1.560337 0.2309205 -0.01214938 1.638232 0.2262697 0.02510097 1.627285 0.2423831 0.06244711 1.631889 0.2362543 0.08882262 1.595765 0.2384048 -0.05410433 1.545397 0.2233663 -0.005194009 1.605404 0.218072 0.02673008 1.608683 0.2175433 0.05088797 1.596106 0.2229931 0.07234995 1.573906 0.2259829
57 0.02581023 1.487275 0.1884869 -0.06710748 1.563132 0.2281099 -0.01002651 1.639241 0.2266481 0.02692586 1.627832 0.2454281 0.06430013 1.630577 0.2384779 0.08945527 1.593606 0.2407384 -0.05402169 1.54817 0.2217106 -0.003742396 1.606297 0.21837 0.02822864 1.608721 0.2194846 0.0519838 1.595343 0.2244229 0.07282317 1.572539 0.2272096
58 0.02450376 1.487722 0.1878506 -0.06675817 1.566464 0.2258732 -0.007647523 1.640171 0.2278656 0.02991793 1.630998 0.2477834 0.06687225 1.628968 0.240608 0.09048855 1.591105 0.243018 -0.0534322 1.551347 0.2203834 -0.002043473 1.607179 0.2191894 0.03004127 1.608593 0.2213785 0.0535183 1.594379 0.2258112 0.07354361 1.570927 0.2285332
59 0.02324322 1.488322 0.1873572 -0.06570268 1.570492 0.2236922 -0.005002422 1.641295 0.2290338 0.0334673 1.634631 0.2480703 0.06948428 1.627553 0.2423062 0.09153052 1.58912 0.2444935 -0.05260418 1.55497 0.2187756 -9.855809E-05 1.608358 0.219638 0.03206035 1.608714 0.2222831 0.05517371 1.593633 0.2267593 0.07426346 1.569607 0.2294577
60 0.02155562 1.489138 0.186716 -0.0644111 1.575029 0.2211226 -0.001194729 1.642625 0.2303364 0.03854335 1.637971 0.247849 0.07264663 1.62561 0.244391 0.09273242 1.586729 0.2459762 -0.0516493 1.559025 0.216884 0.002529317 1.609661 0.2203987 0.03465028 1.60871 0.2235501 0.05720145 1.59263 0.2278408 0.07515316 1.56803 0.2302654
61 0.01969473 1.490002 0.1857243 -0.06334724 1.579128 0.2184839 0.002731178 1.643575 0.2320563 0.04390794 1.640119 0.2468902 0.07560305 1.623008 0.246959 0.09366515 1.583695 0.2478975 -0.05088053 1.562756 0.2147913 0.005181628 1.610658 0.2215055 0.03726905 1.608338 0.2248099 0.05909843 1.591186 0.2291658 0.07579883 1.565978 0.2313947
62 0.01792419 1.491062 0.1847432 -0.06189009 1.583391 0.215991 0.00740161 1.644581 0.2333204 0.04952026 1.641252 0.2459479 0.0783748 1.620267 0.2498781 0.09445357 1.580684 0.2499855 -0.04994713 1.566569 0.2125896 0.008298293 1.61166 0.2224501 0.04008158 1.607857 0.2262944 0.06094837 1.589619 0.2308792 0.07635338 1.563861 0.2328128
63 0.01642141 1.491988 0.1839642 -0.06036152 1.587033 0.2140433 0.01166669 1.645379 0.2339077 0.05364905 1.641434 0.2454667 0.08026548 1.618124 0.25218 0.0949402 1.578368 0.2514987 -0.04898389 1.569793 0.2107832 0.01104057 1.61242 0.2230449 0.04221354 1.607422 0.2275254 0.06222899 1.588346 0.2323088 0.0766544 1.562188 0.2338941
64 0.01518372 1.492722 0.1833172 -0.05915225 1.589826 0.212329 0.01523057 1.646014 0.2335981 0.05648226 1.641212 0.2450293 0.08148783 1.616614 0.2536355 0.09518914 1.576721 0.2524561 -0.04818317 1.572283 0.2092571 0.01326124 1.612968 0.2230745 0.0437864 1.607072 0.2280768 0.06306575 1.587409 0.2332183 0.07676393 1.560955 0.2346008
65 0.01414631 1.49327 0.1829103 -0.05791552 1.592512 0.2100556 0.01892146 1.646697 0.2319586 0.05888232 1.64051 0.2449236 0.08263002 1.615211 0.254601 0.09539995 1.575201 0.2531728 -0.04732326 1.574678 0.2073642 0.0155502 1.613482 0.2223248 0.04535824 1.606651 0.2281729 0.06384255 1.586481 0.2338392 0.0767668 1.559746 0.2352523
66 0.01321054 1.493696 0.1825461 -0.05630757 1.595013 0.2082734 0.02206175 1.647043 0.2307697 0.06056737 1.639393 0.2458241 0.08359238 1.613793 0.255437 0.09552342 1.573676 0.2538202 -0.04630718 1.576836 0.2056441 0.0175586 1.613788 0.2217346 0.04671454 1.606088 0.2284275 0.06449892 1.585499 0.2343839 0.07669848 1.558509 0.2358569
67 0.01204541 1.494144 0.1818826 -0.0543807 1.597733 0.2058316 0.02532425 1.646864 0.2307125 0.06278598 1.637668 0.2470105 0.08484824 1.611592 0.2565105 0.0955077 1.571175 0.2549132 -0.04511452 1.57916 0.2033615 0.01965647 1.613753 0.221836 0.04822016 1.605014 0.2291489 0.0651807 1.583913 0.2352254 0.07646575 1.556576 0.2367382
68 0.01074797 1.494621 0.1809696 -0.05185391 1.600644 0.2028443 0.02884733 1.6462 0.2313128 0.06562067 1.635508 0.2479675 0.08638263 1.608657 0.2577574 0.09530007 1.567755 0.2564676 -0.0435154 1.58163 0.2005761 0.02192397 1.613376 0.2223826 0.04985554 1.603476 0.2301936 0.06588378 1.58177 0.2363363 0.07606952 1.554006 0.2379017
69 0.009649218 1.49529 0.1800966 -0.04916792 1.603333 0.2005805 0.03205959 1.645625 0.2320447 0.06809372 1.633814 0.2487756 0.08784636 1.60621 0.2587326 0.09512796 1.56495 0.2577264 -0.04175489 1.583949 0.1983302 0.02402563 1.613119 0.2229908 0.05128305 1.602275 0.231207 0.06657832 1.580031 0.2372598 0.07579692 1.551934 0.2388089
70 0.008883072 1.49618 0.1794304 -0.04645562 1.606173 0.1980204 0.03538264 1.645229 0.2329968 0.07059337 1.632381 0.2496767 0.08947174 1.604192 0.2594034 0.09495878 1.562629 0.258875 -0.03973364 1.58652 0.1961195 0.02624257 1.613133 0.2236766 0.05279055 1.601429 0.2321563 0.06737949 1.578704 0.2379991 0.0756022 1.550318 0.2395961
71 0.008239685 1.497219 0.1786765 -0.04428957 1.608791 0.1956745 0.03815886 1.644987 0.2340694 0.07309823 1.631228 0.2500599 0.09084946 1.602529 0.2599145 0.0946885 1.56066 0.2598234 -0.03802645 1.588972 0.1940765 0.02820007 1.613344 0.2241723 0.05425572 1.60086 0.2326677 0.06809573 1.577727 0.2384437 0.07536566 1.549045 0.2401556
72 0.007590918 1.498441 0.1777614 -0.04233248 1.611313 0.193824 0.04030295 1.644938 0.2351573 0.07512495 1.630401 0.2503948 0.09184273 1.601197 0.260455 0.09448123 1.559038 0.2603603 -0.03644323 1.591366 0.1924881 0.02981042 1.61373 0.2245193 0.05548773 1.600578 0.2329533 0.06866106 1.57707 0.2386903 0.07516132 1.5481 0.2403565
73 0.006862873 1.499948 0.1767466 -0.03978684 1.614177 0.1922882 0.04217418 1.645099 0.2362452 0.07619406 1.629833 0.2516045 0.09215964 1.600094 0.2615522 0.09432559 1.557827 0.2605029 -0.03450635 1.594051 0.1911205 0.03120743 1.614352 0.2247856 0.05632513 1.600627 0.2333861 0.06896231 1.576741 0.2389808 0.07494058 1.54754 0.2402257
74 0.006197982 1.501781 0.1757961 -0.03660963 1.617294 0.1915552 0.04439852 1.645307 0.2375463 0.07732805 1.629163 0.253455 0.09241369 1.598941 0.2631952 0.09445518 1.556816 0.2606224 -0.03224605 1.596965 0.190099 0.03282202 1.615108 0.2252412 0.05725612 1.600784 0.2341597 0.06931317 1.57654 0.2395875 0.07480568 1.547217 0.2402321
75 0.005764882 1.504015 0.1747548 -0.03331383 1.620451 0.1920982 0.04694029 1.645451 0.2392949 0.07826994 1.628482 0.2559547 0.09269817 1.598003 0.2649477 0.09459082 1.556213 0.2608299 -0.02994513 1.600006 0.1897893 0.03468169 1.615952 0.2260025 0.0582663 1.601074 0.2352549 0.06978029 1.576564 0.2403208 0.07475843 1.54722 0.2403424
76 0.005506487 1.506065 0.1740155 -0.03031672 1.622928 0.1951808 0.04939531 1.645077 0.2418678 0.07848388 1.627346 0.2594623 0.09310833 1.597038 0.2663987 0.09482722 1.555883 0.2607678 -0.02814566 1.602644 0.1909406 0.03659363 1.616503 0.2272425 0.05924585 1.601169 0.2366804 0.07051753 1.576562 0.2407766 0.07500449 1.54735 0.2401247
77 0.004925328 1.508171 0.1726574 -0.02712631 1.625276 0.1979734 0.05099425 1.64413 0.2451138 0.07815287 1.625428 0.2632415 0.09241866 1.594968 0.2687133 0.09347773 1.554621 0.2617822 -0.02636139 1.605473 0.1915618 0.03790202 1.616583 0.2289222 0.05956927 1.600558 0.2385819 0.07035791 1.575719 0.2417859 0.07399546 1.546713 0.2405901
78 0.004124962 1.510152 0.171483 -0.02403504 1.627385 0.2001029 0.0520188 1.642865 0.2488457 0.07721278 1.623151 0.2675902 0.09131725 1.592435 0.2716055 0.09129953 1.55273 0.2639013 -0.02436651 1.608092 0.1922423 0.03888353 1.616292 0.2311364 0.05948268 1.599525 0.2411249 0.06986341 1.574422 0.2433841 0.07254604 1.545578 0.2418082
79 0.003358676 1.512202 0.1700193 -0.02117668 1.62916 0.201996 0.05235108 1.641463 0.2525539 0.07582114 1.620721 0.2717122 0.08951546 1.589855 0.2746161 0.0880715 1.550601 0.2665674 -0.02243585 1.610516 0.1927756 0.03932767 1.615814 0.2334547 0.05892999 1.598295 0.2436884 0.06877397 1.572996 0.2451869 0.0704303 1.544261 0.2433624
80 0.002705789 1.514443 0.167786 -0.01843379 1.630112 0.2041333 0.05187089 1.6402 0.2556674 0.07418269 1.618515 0.2749026 0.08702533 1.58742 0.2772553 0.08409114 1.548576 0.2688898 -0.0207633 1.612759 0.1928377 0.03912901 1.615373 0.2353221 0.05782337 1.597115 0.2457637 0.06705928 1.571658 0.2466887 0.06774781 1.543047 0.244556
81 0.002014709 1.517047 0.1653561 -0.01578061 1.630756 0.2058473 0.05131194 1.639493 0.2579137 0.07266922 1.616818 0.2773007 0.0845829 1.585415 0.2792845 0.08042681 1.547003 0.2703467 -0.01924554 1.615085 0.1925537 0.03860792 1.615333 0.236726 0.05647295 1.596391 0.2473484 0.06518671 1.570785 0.2477541 0.06506024 1.542333 0.2451923
82 0.001395939 1.519358 0.163634 -0.01277466 1.630967 0.2072214 0.05106735 1.639003 0.2596886 0.07172654 1.615513 0.2790217 0.08318059 1.584026 0.2804148 0.07787497 1.546061 0.2711397 -0.01741874 1.61713 0.1922953 0.03839232 1.615532 0.2376868 0.05560689 1.596039 0.2483687 0.06390323 1.570325 0.2483493 0.0629316 1.542063 0.2456226
83 0.0006750595 1.521073 0.1628912 -0.0108965 1.631141 0.2077287 0.05062904 1.638921 0.260916 0.0707155 1.614953 0.2803091 0.08207145 1.583616 0.2812569 0.07600649 1.545857 0.2719095 -0.0163085 1.61852 0.1919826 0.03799915 1.61593 0.2383746 0.05478689 1.596131 0.2491505 0.06280121 1.570398 0.2489645 0.06129871 1.542231 0.2462405
84 -0.000590706 1.5227 0.1633128 -0.008386036 1.631431 0.2085609 0.05002614 1.638258 0.2637744 0.06883022 1.613885 0.283286 0.07991817 1.582489 0.2838881 0.07274887 1.5449 0.2744287 -0.01431908 1.620192 0.1920028 0.03742376 1.615945 0.2405446 0.05339141 1.595768 0.2514813 0.06093857 1.569899 0.2511595 0.05844597 1.541803 0.2485673
85 -0.0005261701 1.523754 0.1627991 -0.008151853 1.631647 0.2088131 0.04926841 1.63789 0.2651697 0.06756654 1.613432 0.2847663 0.07857357 1.581905 0.2853335 0.07104591 1.544335 0.275785 -0.01381196 1.620614 0.1920333 0.03683677 1.615723 0.241709 0.05250277 1.595416 0.252734 0.05991315 1.569463 0.2523686 0.056991 1.541375 0.2498591
86 -0.001508019 1.52485 0.1628826 -0.008847601 1.633378 0.2087608 0.04796772 1.638457 0.2661479 0.06488644 1.613694 0.2863424 0.07644041 1.581833 0.2865427 0.06869096 1.544276 0.2765961 -0.0137067 1.622193 0.1918352 0.03573807 1.616323 0.2425573 0.05081387 1.595741 0.2538518 0.05807546 1.569553 0.2533508 0.05459375 1.541484 0.2507935
87 -0.003379088 1.525687 0.1623565 -0.01114435 1.637375 0.2050634 0.04583824 1.639822 0.2655042 0.06182245 1.61475 0.2863941 0.07446826 1.583184 0.2859438 0.06726733 1.545763 0.2755973 -0.01526694 1.624056 0.1895656 0.03394824 1.617555 0.2418937 0.04868656 1.596838 0.2535432 0.05614049 1.57069 0.2528256 0.05277331 1.542709 0.2500533
88 -0.004807549 1.525577 0.1628389 -0.01400723 1.638042 0.2038004 0.04348299 1.641262 0.2646505 0.06030765 1.616765 0.2854269 0.07293109 1.585582 0.2854436 0.06635138 1.548035 0.2754415 -0.01800741 1.624091 0.1888333 0.03186863 1.618773 0.2411253 0.04697761 1.598449 0.2528836 0.05467553 1.572501 0.2525166 0.05186845 1.544477 0.2499649
89 -0.005646452 1.524876 0.1634237 -0.01707269 1.637473 0.2034039 0.04150799 1.642415 0.2634175 0.05862384 1.618222 0.2846153 0.07183027 1.587483 0.2848209 0.06579696 1.549854 0.2752747 -0.02080519 1.62332 0.1885691 0.03005801 1.619558 0.2402235 0.04553376 1.599576 0.2522324 0.05361899 1.573831 0.2521475 0.05134316 1.545787 0.2499036
90 -0.006333795 1.523732 0.1647077 -0.02167219 1.636163 0.2035106 0.03890217 1.64521 0.2604619 0.05705309 1.621501 0.2826197 0.07061626 1.59061 0.2838959 0.06649116 1.552361 0.2744705 -0.025063 1.621754 0.1888745 0.02747668 1.621187 0.2385952 0.04378526 1.601791 0.2510694 0.05270416 1.576146 0.2515262 0.05189578 1.547826 0.2493301
91 -0.006481678 1.522329 0.1667347 -0.02654065 1.63531 0.203762 0.03703027 1.647619 0.258103 0.0573841 1.624645 0.2803993 0.07082056 1.593648 0.2828579 0.0687869 1.554604 0.273461 -0.02924735 1.61984 0.190117 0.02538272 1.622438 0.2377698 0.04300853 1.603746 0.250162 0.05281739 1.578332 0.2509932 0.05356352 1.549685 0.2487647
92 -0.006088019 1.520702 0.1694105 -0.03236304 1.635295 0.2025832 0.03585183 1.649636 0.2561668 0.05840752 1.627731 0.2783637 0.07188803 1.596751 0.2820691 0.070924 1.556679 0.2735222 -0.03317333 1.617689 0.1915364 0.02383362 1.623354 0.2374682 0.04260743 1.605451 0.2498083 0.05309386 1.580289 0.2512144 0.05509496 1.551298 0.2492571
93 -0.005623473 1.518692 0.172458 -0.03719676 1.634559 0.2004441 0.0347368 1.650671 0.2551276 0.05830836 1.630001 0.2774815 0.07224833 1.599207 0.2823045 0.07175192 1.55842 0.2751662 -0.03592051 1.615325 0.1926003 0.02270155 1.623602 0.2375012 0.04215948 1.606501 0.2500316 0.05294146 1.581509 0.2523995 0.05562935 1.552321 0.2511964
94 -0.004760479 1.516835 0.1752154 -0.04104064 1.63203 0.2020953 0.03167019 1.652021 0.2546351 0.0565437 1.632994 0.2766364 0.07241863 1.602688 0.2816481 0.07258424 1.561503 0.2761148 -0.03867915 1.612535 0.1950908 0.02041822 1.624112 0.2377179 0.04103983 1.608159 0.2499056 0.05274174 1.583495 0.2528523 0.05641587 1.554309 0.2523682
95 -0.004193444 1.515081 0.1774677 -0.04403754 1.629012 0.2055444 0.02827781 1.652619 0.2548944 0.05463425 1.634985 0.2760703 0.0728928 1.60552 0.2802108 0.07324053 1.564146 0.2764646 -0.04120152 1.609733 0.1980656 0.01792803 1.624124 0.2382777 0.03977585 1.609182 0.2497884 0.05241743 1.584931 0.2528868 0.0568263 1.555867 0.25309
96 -0.003790994 1.513781 0.1791548 -0.04799194 1.626068 0.2088485 0.02409226 1.652885 0.2561857 0.05260161 1.636787 0.2755667 0.07315717 1.608214 0.2784939 0.07422897 1.566599 0.2759485 -0.04426491 1.606995 0.2011835 0.01516445 1.624016 0.2392979 0.0383829 1.610082 0.2497139 0.05206257 1.586282 0.2525936 0.05731377 1.55731 0.2531667
97 -0.003633355 1.5129 0.1806287 -0.05204213 1.623438 0.2118764 0.01981452 1.653291 0.2574549 0.05058405 1.638666 0.274911 0.07304759 1.610924 0.2767591 0.07538873 1.56901 0.2748125 -0.04745601 1.604532 0.204229 0.01234929 1.624101 0.2403148 0.03694718 1.61115 0.2495018 0.05162928 1.587794 0.2520668 0.05784741 1.558876 0.2527431
98 -0.003215978 1.512641 0.1817216 -0.05613999 1.620961 0.2140431 0.01534248 1.654058 0.2585889 0.04814431 1.640983 0.2745019 0.07226815 1.613996 0.2756295 0.07655326 1.571969 0.273526 -0.05068729 1.60216 0.206696 0.009241008 1.624477 0.2414712 0.03506248 1.612661 0.2495858 0.0509188 1.589824 0.2517697 0.05841334 1.56109 0.2522096
99 -0.002912146 1.513157 0.1825158 -0.05988189 1.618621 0.2165486 0.01052981 1.655474 0.2591521 0.04464815 1.643894 0.2744249 0.07047376 1.61774 0.2750627 0.07745199 1.575808 0.2720248 -0.05387714 1.600034 0.2090817 0.00586256 1.625406 0.2423451 0.03264835 1.614865 0.249693 0.04989661 1.592655 0.251381 0.058979 1.564206 0.2513159
100 -0.002419062 1.513517 0.1835001 -0.06273012 1.61616 0.2194275 0.005590297 1.656096 0.2607553 0.04044298 1.646116 0.2753639 0.06807307 1.621031 0.2753565 0.07759919 1.579587 0.2712406 -0.05647308 1.597872 0.2114498 0.002524484 1.625979 0.2436239 0.02998842 1.616781 0.2502587 0.04858765 1.595273 0.2514448 0.05912705 1.567262 0.2509224
101 -0.00144415 1.51355 0.1846887 -0.06515502 1.61333 0.2223577 0.001647265 1.656123 0.262519 0.03667684 1.647547 0.2769372 0.06574796 1.623506 0.2764786 0.07743721 1.582794 0.2713035 -0.05857142 1.595352 0.2139399 -0.0003425663 1.625988 0.2452112 0.02738123 1.618003 0.2515625 0.04715318 1.597252 0.2523474 0.05905143 1.569831 0.2512692
102 -0.0004933414 1.513415 0.1860112 -0.06717383 1.610526 0.2251389 -0.002151971 1.655805 0.264379 0.03332207 1.648798 0.2782277 0.06327569 1.625538 0.2779693 0.07681301 1.585393 0.2721173 -0.060213 1.592813 0.2164554 -0.003087381 1.6257 0.2469002 0.02488809 1.618887 0.2529374 0.04557867 1.598831 0.2536192 0.0587213 1.571968 0.2520967
103 0.0003874924 1.513354 0.1871908 -0.06873909 1.608108 0.2274423 -0.00566572 1.655672 0.2654212 0.03056548 1.650246 0.2785358 0.06091499 1.627423 0.2791321 0.07587682 1.587422 0.2733682 -0.06135335 1.590646 0.2186074 -0.005524032 1.625512 0.2480415 0.02280193 1.619738 0.2537683 0.04411194 1.600218 0.2547164 0.05823562 1.573698 0.2531596
104 0.001625749 1.513319 0.1884949 -0.07076631 1.605236 0.2292908 -0.009882019 1.655487 0.2661223 0.02750383 1.652551 0.2774766 0.0583571 1.63029 0.2792544 0.07502804 1.590207 0.2741958 -0.06245508 1.588086 0.2206856 -0.008263401 1.625414 0.2487517 0.02056277 1.621032 0.2538387 0.04255315 1.602168 0.2552921 0.0578047 1.575951 0.2540337
105 0.002895257 1.513268 0.1898811 -0.07296176 1.602201 0.2311848 -0.01364993 1.655152 0.2669403 0.02462616 1.654818 0.2761071 0.05648756 1.633653 0.2780057 0.07495299 1.593781 0.2734229 -0.06361249 1.585433 0.2229061 -0.01072797 1.625395 0.2492611 0.01855092 1.62251 0.2533709 0.04130225 1.604439 0.2550296 0.05768757 1.578657 0.2539642
106 0.004240409 1.513491 0.191086 -0.07491279 1.599074 0.2336875 -0.01696041 1.654792 0.2679996 0.02209206 1.65728 0.2741632 0.05487866 1.637523 0.2755986 0.07497462 1.597937 0.2717086 -0.06480789 1.582812 0.2252871 -0.01302696 1.625497 0.2497994 0.01671026 1.624266 0.2523406 0.0401813 1.607146 0.2539167 0.05761454 1.581834 0.2531509
107 0.005588902 1.513956 0.1921934 -0.07625823 1.596033 0.2367907 -0.01970044 1.653849 0.2704135 0.02011211 1.659209 0.2731117 0.05377648 1.641151 0.2730877 0.07503434 1.601965 0.270006 -0.06570993 1.580305 0.2279245 -0.01493032 1.625362 0.2511829 0.01527034 1.62581 0.2517837 0.03941865 1.609749 0.2527187 0.05767394 1.584946 0.2522879
108 0.006725763 1.514294 0.1934507 -0.07726813 1.593083 0.2401429 -0.02211205 1.652704 0.2731675 0.01827406 1.660382 0.2732378 0.05249289 1.644011 0.2715541 0.0746277 1.605481 0.2689762 -0.06647468 1.577834 0.2307294 -0.01663486 1.624922 0.2530756 0.0139434 1.62684 0.2520128 0.03860441 1.611809 0.2521024 0.05749728 1.587589 0.2518882
109 0.007812451 1.514344 0.1947028 -0.07812454 1.589952 0.2433247 -0.02438397 1.65157 0.2752354 0.01597675 1.66115 0.273517 0.05029944 1.646331 0.2707807 0.07342274 1.608932 0.2681065 -0.0671273 1.575135 0.2334478 -0.01834126 1.62429 0.2545955 0.01231533 1.627504 0.2523146 0.03733171 1.613518 0.2516951 0.05688326 1.590079 0.2514705
110 0.008927587 1.514584 0.1950602 -0.07901935 1.585718 0.2468356 -0.02631665 1.65031 0.2767209 0.01341706 1.661733 0.27328 0.04723811 1.648466 0.2698779 0.07159992 1.61279 0.2661979 -0.06775147 1.571548 0.2363376 -0.02005341 1.623325 0.2557932 0.0103355 1.627898 0.2523226 0.03550679 1.61515 0.2509131 0.05587331 1.592841 0.2500968
111 0.009957783 1.515203 0.195109 -0.0802106 1.581732 0.2494167 -0.02818096 1.649452 0.2779492 0.01048177 1.661773 0.2746255 0.04437749 1.650228 0.2698505 0.06973698 1.616295 0.2647684 -0.06841382 1.568265 0.2385731 -0.02175399 1.622531 0.2569746 0.008135891 1.628197 0.2531455 0.0335989 1.616659 0.250741 0.0546309 1.595467 0.2491688
112 0.01116335 1.515368 0.1958894 -0.08099802 1.578228 0.251197 -0.03045823 1.648706 0.2785212 0.006944124 1.661943 0.2752959 0.04144202 1.652382 0.2687132 0.06754206 1.619767 0.2636241 -0.06882082 1.565213 0.2402177 -0.02357339 1.621798 0.2576724 0.005712941 1.628567 0.2534384 0.03163367 1.618238 0.2501102 0.05321532 1.598035 0.248514
113 0.01225953 1.515507 0.1967013 -0.08138075 1.575481 0.2524899 -0.03303087 1.647969 0.2787988 0.003209865 1.662936 0.274213 0.03806368 1.654813 0.2668285 0.06517856 1.623284 0.2620768 -0.06894351 1.562734 0.2414827 -0.02546166 1.621212 0.2579842 0.003177298 1.629168 0.2529196 0.02948391 1.619956 0.2489433 0.05171722 1.600663 0.2474624
114 0.01323251 1.515923 0.196944 -0.08197976 1.572617 0.2533454 -0.03546513 1.647629 0.2783371 8.191098E-05 1.66431 0.2719599 0.03490332 1.657125 0.2645991 0.06312993 1.62669 0.2597579 -0.06889392 1.560302 0.2426097 -0.02719286 1.620696 0.2580297 0.0009194842 1.629834 0.2518556 0.02741651 1.621642 0.2474854 0.05035714 1.603306 0.2457219
115 0.01429237 1.516255 0.1967371 -0.08256168 1.569154 0.2541249 -0.03855326 1.646711 0.2775749 -0.00368946 1.6653 0.2692699 0.03157252 1.659392 0.2611222 0.0605804 1.62989 0.2570733 -0.06879921 1.557436 0.2435695 -0.02935377 1.61978 0.2576981 -0.001772999 1.630157 0.2504505 0.02506915 1.623068 0.2454722 0.04857922 1.605736 0.2436818
116 0.01536472 1.516521 0.1967277 -0.08252022 1.565783 0.254964 -0.042555 1.644907 0.2774584 -0.009184877 1.665809 0.2666291 0.02601966 1.661764 0.2573436 0.05670454 1.633617 0.2539658 -0.06848523 1.55437 0.2444353 -0.03220511 1.618145 0.2579047 -0.005560196 1.630072 0.2492171 0.02143447 1.624449 0.2434251 0.04586812 1.6084 0.2415792
117 0.01637121 1.517044 0.1962974 -0.08241366 1.563869 0.254433 -0.0461741 1.643414 0.2769333 -0.01456289 1.666063 0.2645543 0.0203867 1.663758 0.2543494 0.05226396 1.637353 0.2506967 -0.06813717 1.552534 0.2441217 -0.03495455 1.616922 0.2573963 -0.009325297 1.630114 0.2478596 0.01770365 1.62587 0.241322 0.04280368 1.611164 0.239127
118 0.01718893 1.517622 0.1964197 -0.08250766 1.562383 0.2540123 -0.04903382 1.642333 0.2767358 -0.0190506 1.666385 0.2627833 0.01522061 1.665517 0.2516477 0.04811265 1.640777 0.2473855 -0.06793427 1.551113 0.2440355 -0.03724788 1.616141 0.2570943 -0.01261097 1.630438 0.2464624 0.01421299 1.627385 0.2390392 0.03989495 1.613919 0.2363853
119 0.01815796 1.518533 0.1966807 -0.08285067 1.560132 0.2538905 -0.05215635 1.641157 0.2767757 -0.02403195 1.666269 0.2622383 0.009454605 1.667074 0.2499112 0.04319897 1.644395 0.2441695 -0.06766362 1.549317 0.2443319 -0.03968797 1.615348 0.2570457 -0.01627313 1.630729 0.245626 0.01025023 1.629048 0.2370031 0.0364452 1.617032 0.2334489
120 0.01914151 1.519255 0.1971355 -0.08221774 1.558297 0.2549341 -0.05547689 1.639822 0.2764471 -0.028944 1.665555 0.2621116 0.004268429 1.667965 0.2486373 0.03860179 1.64705 0.2417862 -0.06700796 1.547577 0.2453136 -0.04210833 1.614318 0.2569365 -0.0198052 1.630523 0.245177 0.006569528 1.630121 0.2354425 0.03313554 1.619419 0.2310933
121 0.02026688 1.520124 0.1969716 -0.08062811 1.556291 0.257001 -0.05909362 1.638154 0.2754728 -0.03416584 1.664347 0.2617032 -0.001324655 1.668343 0.2473489 0.03392837 1.649169 0.2395502 -0.06576371 1.545645 0.2467972 -0.04453347 1.61288 0.2565866 -0.02333536 1.629789 0.2448576 0.002809557 1.630673 0.2341769 0.029805 1.621304 0.2289557
122 0.02205776 1.521331 0.196843 -0.07883712 1.554528 0.2582111 -0.06306656 1.637256 0.2721446 -0.03946134 1.66353 0.2595316 -0.007128753 1.668918 0.2448622 0.02954758 1.651642 0.2360113 -0.06416892 1.54408 0.2475614 -0.04694685 1.611999 0.2546709 -0.02666434 1.629353 0.243443 -0.0007721514 1.631386 0.2323534 0.02681443 1.623329 0.2263024
123 0.0236335 1.522471 0.1966212 -0.07700858 1.552786 0.259303 -0.06647117 1.636023 0.2691897 -0.04428476 1.662609 0.2567309 -0.01285941 1.669001 0.2418333 0.02463361 1.653395 0.2325879 -0.0626729 1.542466 0.2481314 -0.04910658 1.610921 0.2528614 -0.02966207 1.628682 0.2419409 -0.004173423 1.631633 0.2305943 0.02371092 1.624743 0.2238679
124 0.02553357 1.523155 0.1966814 -0.07467677 1.550742 0.2608988 -0.06918664 1.633958 0.2671228 -0.04876342 1.660852 0.254497 -0.01838156 1.668356 0.2389952 0.01985444 1.654682 0.228696 -0.06048144 1.540592 0.2494096 -0.05092852 1.609091 0.2514894 -0.03255334 1.627288 0.2406786 -0.007564114 1.631233 0.2290007 0.02060459 1.625598 0.2215592
125 0.02733137 1.523345 0.197064 -0.07263418 1.548178 0.26277 -0.07148651 1.631239 0.2660651 -0.05246635 1.658498 0.2534546 -0.02294444 1.667132 0.2369472 0.01596677 1.655135 0.2253532 -0.05831353 1.538345 0.2511511 -0.05254762 1.606727 0.2506639 -0.03509375 1.625389 0.2399263 -0.01054679 1.630268 0.2278042 0.01789093 1.62581 0.219906
126 0.02889143 1.523436 0.1974728 -0.07035525 1.545382 0.2655806 -0.07338653 1.62854 0.2654744 -0.05544957 1.656246 0.252673 -0.02675913 1.665793 0.2349463 0.01247158 1.655192 0.2221666 -0.05592781 1.535997 0.2537099 -0.05386565 1.604372 0.2502097 -0.0372173 1.62351 0.2392975 -0.01316565 1.629164 0.2264762 0.01537202 1.62578 0.2182967
127 0.03046452 1.523625 0.1979831 -0.06782237 1.543392 0.2685505 -0.07479665 1.626314 0.2650659 -0.05793145 1.654394 0.2517337 -0.02998233 1.664594 0.2329903 0.009250389 1.655133 0.2198844 -0.05344366 1.534287 0.2563821 -0.05478304 1.602396 0.2499586 -0.03890461 1.62192 0.2386914 -0.01533347 1.628173 0.2251859 0.01315183 1.625722 0.2169375
128 0.03184611 1.52407 0.1984441 -0.06554983 1.542317 0.2706532 -0.07600665 1.62453 0.2647191 -0.06009515 1.653013 0.2507793 -0.03272138 1.663755 0.231493 0.006523223 1.655272 0.2184241 -0.05126678 1.533274 0.2583152 -0.05553373 1.600936 0.2496444 -0.04029812 1.620814 0.2380811 -0.01712582 1.627586 0.22416 0.01128518 1.62593 0.2157797
129 0.03351286 1.524532 0.1987525 -0.06353813 1.541501 0.2716299 -0.07678482 1.622826 0.2642116 -0.06158599 1.651679 0.2499042 -0.03473482 1.662855 0.2304335 0.004725053 1.65531 0.2176488 -0.04930469 1.532389 0.2592805 -0.05588468 1.599589 0.249111 -0.04115107 1.619799 0.2373091 -0.01829437 1.626999 0.2232302 0.01015709 1.626053 0.2148834
130 0.03517707 1.524943 0.1991167 -0.06188092 1.541202 0.2717906 -0.07717791 1.621332 0.2638337 -0.06259415 1.650453 0.2493017 -0.03605122 1.66206 0.2298958 0.0034029 1.655231 0.2173168 -0.04778337 1.531769 0.259534 -0.05602797 1.598451 0.2485212 -0.04168145 1.618921 0.2365612 -0.01898084 1.626507 0.2225685 0.009449366 1.626088 0.2142431
131 0.03658034 1.525289 0.1990945 -0.06038503 1.541085 0.2715124 -0.07737981 1.619896 0.2635251 -0.06350454 1.64919 0.2487065 -0.03716199 1.661228 0.2295724 0.002243583 1.655051 0.2170921 -0.04648559 1.531291 0.2593238 -0.05604452 1.59738 0.2479443 -0.04209513 1.618047 0.2358321 -0.01950162 1.626012 0.2220197 0.008887551 1.626047 0.2136647
132 0.03800862 1.525612 0.1989995 -0.05892484 1.540931 0.2709742 -0.0779778 1.618109 0.2627801 -0.06497059 1.64755 0.2474901 -0.03869866 1.660141 0.2286567 0.0007415565 1.654703 0.2165498 -0.04527387 1.530738 0.2588441 -0.05626922 1.596059 0.2470765 -0.042788 1.616915 0.234748 -0.02022621 1.625333 0.2212111 0.008132733 1.625881 0.2129369
133 0.03968336 1.525751 0.1989803 -0.0574816 1.540436 0.2702508 -0.07852355 1.616085 0.2617437 -0.06630491 1.645664 0.2459835 -0.04010652 1.658772 0.2273334 -0.0005264697 1.654092 0.2154718 -0.0439866 1.529913 0.2582392 -0.05635241 1.594493 0.2460925 -0.04331529 1.615526 0.2335541 -0.0208035 1.624375 0.2201953 0.007559331 1.625448 0.2120349
134 0.04155098 1.525846 0.1989704 -0.05592637 1.540015 0.2694438 -0.07835845 1.614433 0.2609099 -0.06678544 1.644113 0.2447059 -0.04059139 1.657685 0.2262818 -0.001087065 1.653568 0.2142849 -0.0423875 1.529305 0.2576556 -0.05582288 1.59317 0.2453576 -0.04318102 1.614344 0.2325924 -0.02071798 1.623582 0.2193884 0.007554515 1.625062 0.211171
135 0.04315658 1.525776 0.1990438 -0.05465478 1.539491 0.2687962 -0.07758332 1.613391 0.2606598 -0.06636244 1.643118 0.2442468 -0.04008597 1.657017 0.2259524 -0.0007205982 1.653138 0.2137574 -0.04106625 1.528659 0.2571833 -0.0549053 1.592325 0.245062 -0.04248114 1.613569 0.2321562 -0.01999758 1.623052 0.2190451 0.008197015 1.624709 0.2107257
136 0.04459807 1.525537 0.1990732 -0.05364853 1.538468 0.2683147 -0.07664201 1.612432 0.2607146 -0.06554 1.642317 0.2441426 -0.03906283 1.656502 0.2259566 0.0003221056 1.652781 0.2137989 -0.03992344 1.527758 0.256752 -0.05387889 1.591566 0.244972 -0.04153163 1.612915 0.2319442 -0.01894192 1.622582 0.218943 0.009269231 1.624352 0.2107289
137 0.04553015 1.524991 0.1994624 -0.05340237 1.537076 0.267956 -0.07615708 1.611494 0.2608056 -0.06500698 1.64152 0.244118 -0.03821532 1.655944 0.2260224 0.001300451 1.65224 0.2139119 -0.03946199 1.526553 0.2564796 -0.05329554 1.590783 0.2449915 -0.04092424 1.612206 0.2318404 -0.01814601 1.621994 0.2189832 0.01014349 1.623783 0.2108872
138 0.04620804 1.524449 0.1999484 -0.0533127 1.535609 0.267867 -0.07595429 1.610637 0.2607486 -0.0648525 1.640715 0.2438942 -0.03783442 1.655318 0.2257875 0.001847902 1.651656 0.2136945 -0.03919473 1.525276 0.2564335 -0.05303397 1.590027 0.244886 -0.04066446 1.611478 0.2316333 -0.01773906 1.621361 0.2188622 0.01064363 1.623182 0.2108823
139 0.04708852 1.523874 0.2003248 -0.05317309 1.534166 0.2675187 -0.075625 1.609861 0.2602046 -0.06475884 1.639865 0.2429056 -0.03764487 1.654539 0.2245961 0.002282812 1.650938 0.2125586 -0.03882757 1.524065 0.2561541 -0.05267967 1.58931 0.2443012 -0.0403576 1.610717 0.2308624 -0.01731155 1.620634 0.2181434 0.01119311 1.622508 0.210412
140 0.0480673 1.523229 0.2006325 -0.05295727 1.533471 0.2668787 -0.07480626 1.60961 0.2594199 -0.06399876 1.639514 0.2415387 -0.03672845 1.65407 0.2229702 0.003623739 1.650372 0.2110953 -0.03841583 1.523477 0.2556682 -0.05195235 1.589019 0.2434567 -0.03953584 1.610324 0.2297748 -0.01631035 1.620124 0.2171244 0.01240268 1.621944 0.2097705
141 0.04891367 1.522274 0.2007729 -0.05281185 1.533341 0.2658873 -0.07356814 1.609714 0.2585878 -0.06238531 1.63956 0.2404634 -0.03490357 1.653792 0.2219397 0.005680573 1.649742 0.2102504 -0.03816315 1.523291 0.254873 -0.05088993 1.588972 0.2426074 -0.03815294 1.610166 0.2288175 -0.01471008 1.619695 0.2163649 0.01417045 1.621267 0.209414
142 0.04951594 1.521074 0.2008311 -0.0531189 1.53289 0.2644811 -0.07241261 1.609932 0.2575311 -0.060622 1.63969 0.2394086 -0.03286736 1.653499 0.2212845 0.007947993 1.64899 0.2100174 -0.03831749 1.522835 0.253687 -0.0498734 1.588955 0.2416985 -0.03667038 1.610011 0.2279886 -0.01298112 1.619202 0.2159742 0.01605928 1.62043 0.2094386
143 0.04998061 1.519608 0.2008343 -0.05384403 1.532346 0.2624534 -0.07122832 1.61034 0.2558971 -0.05879147 1.639912 0.23733 -0.03065434 1.653101 0.2201199 0.01068678 1.64806 0.209473 -0.03885636 1.522253 0.2519665 -0.04887213 1.589025 0.2403032 -0.03508975 1.609836 0.2265531 -0.01110035 1.618572 0.2152898 0.01822295 1.619398 0.209366
144 0.05014528 1.517993 0.2007368 -0.05508937 1.531615 0.2597268 -0.07017823 1.611038 0.2535177 -0.056999 1.640329 0.2341125 -0.02845968 1.652727 0.2185289 0.01356124 1.647 0.2084582 -0.03983248 1.52152 0.2496582 -0.04802208 1.589271 0.2383347 -0.03355502 1.609734 0.224446 -0.009282088 1.617939 0.2143382 0.02037308 1.618275 0.2089727
145 0.05020252 1.51649 0.2006382 -0.05613675 1.531286 0.2570877 -0.06922158 1.611919 0.2508501 -0.05531661 1.640839 0.2306098 -0.02652755 1.652425 0.216687 0.0158727 1.645938 0.2069495 -0.04069892 1.521077 0.2474358 -0.04724192 1.589629 0.2362493 -0.03215771 1.609705 0.2222142 -0.007721555 1.617398 0.2131742 0.02211373 1.61724 0.2081908
146 0.05034417 1.514887 0.2001061 -0.05664223 1.531478 0.2545592 -0.06794026 1.612759 0.2477471 -0.05324602 1.641195 0.226732 -0.02434852 1.65193 0.2148495 0.01828116 1.644634 0.2052831 -0.04126203 1.520936 0.2452006 -0.04620279 1.589876 0.2338144 -0.03047366 1.609503 0.2197395 -0.005964071 1.616679 0.2119655 0.02398385 1.615979 0.2072741
147 0.05044842 1.512873 0.1998432 -0.05694062 1.531909 0.2522076 -0.06669519 1.613351 0.2441917 -0.05100308 1.64121 0.2232699 -0.02190658 1.651182 0.2135669 0.02075635 1.643035 0.2043801 -0.04183932 1.52076 0.2431201 -0.04517816 1.589826 0.2310788 -0.02873931 1.608981 0.2173867 -0.004114264 1.61566 0.2108568 0.0259147 1.614341 0.2064466
148 0.05047683 1.510627 0.1998062 -0.0574268 1.531816 0.2496593 -0.06587016 1.613467 0.2400033 -0.04921342 1.640613 0.2203685 -0.01979461 1.650039 0.2125828 0.02272558 1.641104 0.2038215 -0.04258435 1.520053 0.2409415 -0.04443821 1.589279 0.2280334 -0.02739082 1.607982 0.2152362 -0.002595304 1.614265 0.2097075 0.02746261 1.612368 0.2055999
149 0.05033466 1.508442 0.19964 -0.05818305 1.531406 0.2465879 -0.0657253 1.612953 0.2354801 -0.04838036 1.639459 0.2173881 -0.01857758 1.648587 0.2112209 0.02366123 1.639063 0.2030588 -0.04350604 1.51911 0.2383443 -0.0442201 1.588263 0.224726 -0.02674836 1.606621 0.2129801 -0.001763476 1.612656 0.2082001 0.02825388 1.610341 0.2044889
150 0.05000838 1.506899 0.1996903 -0.05893597 1.531485 0.2443841 -0.06579798 1.612748 0.2316839 -0.04824566 1.638602 0.2138125 -0.01809149 1.647532 0.2091094 0.02446646 1.637595 0.201538 -0.04450744 1.518763 0.2363447 -0.04430674 1.587747 0.2215761 -0.0265322 1.605688 0.2103371 -0.001345153 1.611528 0.2063726 0.02881723 1.608933 0.2034341
151 0.04996336 1.50546 0.2002254 -0.05926073 1.532064 0.2427394 -0.06547404 1.61261 0.2287879 -0.04769339 1.637958 0.2107366 -0.01725826 1.64665 0.2069248 0.02573063 1.63621 0.1996183 -0.04509407 1.518885 0.234959 -0.04404959 1.587382 0.2190505 -0.02598792 1.604945 0.208093 -0.0006080712 1.610548 0.2046625 0.02972336 1.607627 0.202319
152 0.05039768 1.503683 0.2004441 -0.05930512 1.532125 0.2406821 -0.06447113 1.6121 0.2266794 -0.04643447 1.637112 0.2087406 -0.01545506 1.645682 0.2057351 0.02816835 1.63461 0.198142 -0.04521118 1.518664 0.2332439 -0.04313366 1.586745 0.2169949 -0.02479151 1.603998 0.2064403 0.0008989894 1.609406 0.203539 0.0314891 1.606051 0.2014995
153 0.05037346 1.502233 0.2013354 -0.06052065 1.530976 0.2397346 -0.06385188 1.611972 0.2255496 -0.04524117 1.636857 0.2069849 -0.01378728 1.645121 0.2042543 0.03027165 1.633283 0.1967354 -0.04585482 1.517873 0.2327513 -0.04260444 1.586486 0.2158461 -0.02385889 1.603481 0.2052497 0.002123724 1.608572 0.2024344 0.03288251 1.604777 0.2007884
154 0.05004356 1.500663 0.2017232 -0.06194956 1.529484 0.2388237 -0.06323205 1.611846 0.2248086 -0.0440455 1.636649 0.2062207 -0.01197176 1.64462 0.2032934 0.03244162 1.632042 0.196087 -0.04664426 1.516918 0.2322019 -0.04212213 1.58623 0.2150106 -0.02299682 1.603008 0.2044838 0.003340843 1.607763 0.2016047 0.03426516 1.603499 0.2003136
155 0.04963483 1.499197 0.2016724 -0.06305911 1.528497 0.2378105 -0.062326 1.611943 0.2241851 -0.04252378 1.636673 0.2063265 -0.009976349 1.644264 0.2031198 0.0345442 1.630959 0.1961803 -0.04728532 1.516341 0.2315041 -0.04145374 1.586145 0.2143215 -0.02196157 1.602743 0.204097 0.0046555 1.607127 0.2011479 0.0356966 1.602334 0.1999788
156 0.04931736 1.497872 0.2012427 -0.06365563 1.528032 0.2369712 -0.06099062 1.612209 0.224017 -0.04051811 1.636887 0.2072328 -0.007698224 1.64401 0.203964 0.03685551 1.630076 0.1970256 -0.04762103 1.516116 0.2308463 -0.04046644 1.5862 0.2140163 -0.0205919 1.602645 0.2042155 0.006192003 1.606636 0.2013413 0.03733278 1.601288 0.2001528
157 0.04894299 1.496254 0.2004465 -0.06382371 1.527719 0.2363861 -0.05913939 1.612372 0.2247416 -0.03785283 1.637055 0.2085791 -0.004947892 1.643524 0.2052985 0.03978052 1.628895 0.1982267 -0.04775427 1.515851 0.2302516 -0.03909914 1.586165 0.2143541 -0.01874723 1.602434 0.2048367 0.008105841 1.605913 0.2020812 0.03936052 1.599947 0.2008944
158 0.04844291 1.494789 0.1991915 -0.06380126 1.52742 0.236176 -0.05696265 1.612682 0.2266341 -0.03490584 1.63737 0.2104207 -0.001934123 1.643087 0.2066623 0.04282998 1.627598 0.1992902 -0.04784988 1.515508 0.2298318 -0.03757428 1.586268 0.2156248 -0.01677132 1.602321 0.2061043 0.01011414 1.605196 0.2031545 0.04136743 1.598573 0.2018797
159 0.04769668 1.493268 0.1982415 -0.06427402 1.526683 0.2359402 -0.0544209 1.613398 0.2284346 -0.03153228 1.637877 0.212958 0.001672385 1.642753 0.2081034 0.04616401 1.626163 0.2002875 -0.0483132 1.514886 0.2294256 -0.03586184 1.586648 0.2168876 -0.01458467 1.602389 0.2076813 0.01240895 1.60453 0.2042531 0.04351332 1.597098 0.2029379
160 0.04676141 1.491972 0.1970216 -0.06512707 1.52631 0.2350227 -0.05187232 1.614517 0.2292929 -0.02811701 1.638532 0.2147081 0.005241744 1.642518 0.2089658 0.04952199 1.624721 0.2008992 -0.049024 1.514746 0.2284577 -0.03407032 1.587395 0.2174978 -0.01229747 1.602692 0.2086478 0.01476338 1.604032 0.2048808 0.04571715 1.595713 0.2035885
161 0.04580722 1.491163 0.195673 -0.06570376 1.527121 0.2342094 -0.0493829 1.616176 0.2289888 -0.0247089 1.639606 0.2148544 0.008561566 1.6426 0.2089658 0.05260523 1.623682 0.2011652 -0.04963411 1.515606 0.2274872 -0.03227816 1.588612 0.2172354 -0.009979799 1.60337 0.2086331 0.01702412 1.603893 0.2048494 0.04781374 1.594703 0.2037487
162 0.04482298 1.490191 0.194506 -0.06565206 1.529102 0.2339771 -0.04634171 1.618219 0.2278369 -0.02061544 1.640799 0.2141172 0.01249902 1.642578 0.2086123 0.05588506 1.622486 0.2021846 -0.04999646 1.517225 0.226909 -0.03003204 1.589998 0.2165116 -0.007150753 1.604033 0.2082062 0.01974319 1.60361 0.2046088 0.05023169 1.59344 0.2039471
163 0.0438057 1.488816 0.1936747 -0.06515937 1.530766 0.234671 -0.0434273 1.619592 0.2272084 -0.01645327 1.641487 0.2135785 0.01660892 1.642115 0.2080829 0.05871421 1.620915 0.2040858 -0.05007159 1.518442 0.2271179 -0.02782235 1.590768 0.2163597 -0.004304443 1.604158 0.2082021 0.02249449 1.60283 0.2046738 0.05246758 1.591781 0.2045399
164 0.0422128 1.487298 0.1928601 -0.06528392 1.532383 0.2354666 -0.04016738 1.620898 0.2279161 -0.01153709 1.642024 0.2146354 0.02132567 1.641255 0.2096064 0.06214491 1.618609 0.207972 -0.05064494 1.51984 0.2274135 -0.02544317 1.591617 0.2170566 -0.001033178 1.604212 0.2091437 0.02556792 1.601767 0.2060056 0.05499493 1.58955 0.2064225
165 0.04018522 1.486249 0.1916075 -0.06588789 1.534108 0.2358804 -0.03698942 1.622488 0.228737 -0.006411427 1.642696 0.2162448 0.0260788 1.640424 0.2127149 0.06575038 1.61606 0.2122971 -0.0515893 1.521451 0.2274049 -0.02319916 1.592724 0.2179111 0.002212839 1.604467 0.2103036 0.02850929 1.600889 0.2079313 0.05736274 1.587451 0.2087869
166 0.0381543 1.485548 0.1905546 -0.06598314 1.536546 0.236539 -0.03358259 1.6242 0.2299269 -0.001451214 1.643224 0.2190347 0.03063946 1.639488 0.2168751 0.06917854 1.613458 0.2162866 -0.05235874 1.523502 0.2275553 -0.02090592 1.593983 0.2189416 0.005320545 1.604811 0.2118798 0.03128646 1.600139 0.2102479 0.05954538 1.585473 0.2110321
167 0.03645365 1.484949 0.1897266 -0.06562922 1.5395 0.2368871 -0.03003795 1.625646 0.2314558 0.003321578 1.643195 0.2230995 0.03557715 1.638022 0.2224389 0.07292003 1.610366 0.2210727 -0.05275865 1.526064 0.2273728 -0.01843888 1.595193 0.2198691 0.008533547 1.605024 0.2136628 0.03439666 1.599207 0.2131843 0.06195856 1.583233 0.21403
168 0.0350948 1.484497 0.1892739 -0.06480081 1.542391 0.2372389 -0.02714798 1.626735 0.2327402 0.007073327 1.642904 0.2268323 0.03981813 1.636568 0.2270791 0.07571761 1.607755 0.2250021 -0.05274658 1.528507 0.227283 -0.01636169 1.596151 0.2206568 0.0111658 1.605143 0.215291 0.03707477 1.598346 0.2157187 0.06384517 1.58137 0.2165503
169 0.03358637 1.48478 0.1884004 -0.06430314 1.545785 0.2371097 -0.02356169 1.628757 0.2331773 0.01148366 1.643192 0.2297549 0.04422258 1.635172 0.2318111 0.07859311 1.60484 0.2295614 -0.05292351 1.531628 0.2267499 -0.01383015 1.597806 0.2210839 0.01421421 1.605672 0.2168967 0.03989153 1.59765 0.2186084 0.06581407 1.579492 0.2193475
170 0.03213115 1.485642 0.1869575 -0.06370232 1.549972 0.2360446 -0.01977909 1.631024 0.2338175 0.01632552 1.64341 0.2337978 0.04926341 1.633457 0.2373681 0.08197735 1.601324 0.2349698 -0.0526389 1.53563 0.2255833 -0.01097902 1.599724 0.2217963 0.01765296 1.606355 0.2192683 0.04311513 1.596888 0.2221714 0.06808492 1.577428 0.2228029
171 0.03055702 1.486599 0.1856804 -0.06288828 1.555298 0.2336437 -0.01547111 1.633385 0.2346195 0.02199202 1.64332 0.2382216 0.05476906 1.631293 0.2425172 0.08518818 1.597116 0.2405529 -0.05203697 1.540563 0.2234987 -0.00764796 1.601812 0.2225076 0.02169202 1.606908 0.2219393 0.04671518 1.595813 0.225557 0.07047415 1.574956 0.2262036
172 0.02911733 1.487354 0.1847086 -0.06156867 1.560719 0.2310494 -0.01114135 1.634943 0.2367802 0.02754293 1.642399 0.2432569 0.06035233 1.6282 0.2478725 0.08813878 1.591942 0.2464304 -0.05085348 1.545501 0.221485 -0.004161974 1.603344 0.224133 0.02579817 1.606817 0.2252239 0.05044792 1.594049 0.2291645 0.07286403 1.571814 0.2298317
173 0.0277421 1.487551 0.1844731 -0.05968809 1.566134 0.2282099 -0.006489323 1.636026 0.2385264 0.0331173 1.641222 0.2468458 0.06540361 1.624527 0.2525755 0.09009187 1.586762 0.2516344 -0.04930941 1.550277 0.2193334 -0.0004810175 1.604408 0.2253874 0.02987335 1.606102 0.2280194 0.05392535 1.591662 0.2324919 0.07475118 1.56827 0.2333104
174 0.02633093 1.487963 0.1839938 -0.0577605 1.57102 0.2254292 -0.001955061 1.637009 0.2399418 0.03794365 1.640183 0.2494627 0.06918384 1.621469 0.2560514 0.0911203 1.583153 0.2549349 -0.04778244 1.554595 0.217134 0.002907266 1.605426 0.2262233 0.03331995 1.605501 0.23004 0.0565991 1.589696 0.2348852 0.07594882 1.565594 0.2356063
175 0.02481896 1.488732 0.1830124 -0.05491193 1.576714 0.2221953 0.003474211 1.637936 0.2417588 0.04295985 1.638868 0.2520582 0.07277708 1.618313 0.2588687 0.09195697 1.580018 0.2568536 -0.04582271 1.559635 0.2142106 0.006701685 1.606545 0.2271404 0.03677918 1.604831 0.2319045 0.05907468 1.587703 0.2367409 0.07683024 1.563106 0.2370138
176 0.02376461 1.48935 0.1824329 -0.0513628 1.581843 0.2188561 0.008707169 1.638819 0.2422807 0.04766593 1.637377 0.2542023 0.07594916 1.615385 0.2612144 0.0928594 1.577121 0.2586452 -0.04346601 1.564162 0.2109445 0.01038695 1.607322 0.227681 0.03999117 1.603851 0.2337561 0.06119914 1.585637 0.2386715 0.07745625 1.560608 0.2387807
177 0.02329538 1.490101 0.1825297 -0.0473157 1.586619 0.2157395 0.01319752 1.639925 0.2426169 0.05157121 1.636557 0.2560149 0.07857727 1.613453 0.2633331 0.09375954 1.575174 0.2605918 -0.04076718 1.568473 0.2076644 0.01365476 1.608244 0.2283063 0.04268744 1.603277 0.2356553 0.0629302 1.584212 0.2407395 0.07781437 1.558809 0.2410501
178 0.02325948 1.490832 0.1830689 -0.04484888 1.589986 0.2127644 0.01552089 1.640958 0.2430654 0.0532832 1.636608 0.257456 0.07975769 1.613058 0.2647855 0.09364839 1.574562 0.2627358 -0.0389109 1.571582 0.2047856 0.0154108 1.609144 0.2289589 0.04385534 1.603295 0.2373438 0.06352774 1.583785 0.2425803 0.07744548 1.55814 0.243408
179 0.02337083 1.491655 0.1836101 -0.0436177 1.592372 0.2090302 0.0166273 1.64201 0.243166 0.05371244 1.637283 0.2584206 0.0796941 1.6138 0.2659048 0.09234633 1.575071 0.2654209 -0.03752159 1.573752 0.2016999 0.01626253 1.610022 0.229422 0.04409449 1.603726 0.2387992 0.06330082 1.584112 0.2443388 0.07642177 1.558331 0.2461057
180 0.02342703 1.49267 0.1835995 -0.04350828 1.594265 0.2045162 0.0168129 1.643048 0.243035 0.05328288 1.638382 0.2585433 0.07892312 1.615294 0.265938 0.09068515 1.576382 0.2669585 -0.03669055 1.575463 0.1984307 0.01632828 1.611061 0.2293614 0.04367331 1.604667 0.2392733 0.0625985 1.585192 0.244943 0.07515419 1.559341 0.2476213
181 0.02358401 1.493606 0.1835158 -0.0435857 1.595771 0.2002947 0.01661497 1.644054 0.2426043 0.05271753 1.639396 0.2584778 0.07799707 1.61651 0.2661047 0.08907318 1.577345 0.2683532 -0.03611149 1.57687 0.1954307 0.0161624 1.612083 0.2289965 0.04317664 1.605613 0.2394044 0.06183384 1.586216 0.2453365 0.07391356 1.56025 0.2488275
182 0.02384894 1.494178 0.1836266 -0.04306234 1.597216 0.19567 0.01658836 1.644922 0.2418161 0.05250845 1.640158 0.2582479 0.07720649 1.617122 0.2667321 0.08738805 1.577585 0.270252 -0.03501449 1.578224 0.1923707 0.01628229 1.612922 0.2283668 0.04298454 1.606277 0.2394313 0.06124298 1.586792 0.2459268 0.07269789 1.560618 0.2503226
183 0.02425094 1.49437 0.183916 -0.04176762 1.598298 0.1924406 0.01688747 1.64554 0.2409061 0.05275774 1.640764 0.2576528 0.07707577 1.617582 0.2668785 0.08649774 1.577842 0.2714228 -0.03346959 1.579234 0.1904699 0.01669481 1.613492 0.2276348 0.04324632 1.606776 0.2390904 0.06120846 1.58722 0.2460927 0.07214515 1.560909 0.2512577
184 0.02462757 1.494578 0.1840966 -0.03997871 1.599437 0.1897742 0.01761184 1.64619 0.2397792 0.05328533 1.641274 0.2570282 0.07725094 1.617804 0.267059 0.08612472 1.577924 0.2722412 -0.03167079 1.580293 0.1889969 0.01732159 1.614003 0.2269044 0.0436648 1.607171 0.2387903 0.06136291 1.587477 0.2462811 0.07186531 1.561037 0.2519889
185 0.02494431 1.494886 0.184055 -0.0375236 1.600901 0.1865782 0.01915572 1.646848 0.238666 0.05426921 1.641483 0.2567864 0.07756811 1.617372 0.2680373 0.08580583 1.577304 0.2735166 -0.02935338 1.581694 0.1872041 0.01838283 1.614457 0.2263616 0.04425848 1.607312 0.2389213 0.0615286 1.587282 0.2470555 0.07146455 1.560637 0.2531358
186 0.02516438 1.495227 0.183902 -0.03452201 1.602647 0.1836711 0.02138657 1.647349 0.2380239 0.05581921 1.641299 0.25698 0.07815147 1.616247 0.269667 0.08561184 1.575893 0.2751561 -0.02666615 1.583392 0.185612 0.01985893 1.614807 0.226192 0.04514284 1.607163 0.2394353 0.06177908 1.586598 0.2483175 0.07097116 1.559654 0.2546248
187 0.02544655 1.495519 0.1837832 -0.03170355 1.604244 0.181564 0.02376666 1.647754 0.237573 0.0576256 1.641047 0.2570993 0.07900201 1.615016 0.2711607 0.08582573 1.574342 0.2764716 -0.02421547 1.584953 0.184479 0.02137902 1.6151 0.2261491 0.04611872 1.606978 0.2399094 0.06213516 1.585858 0.2494871 0.07065605 1.558624 0.2558835
188 0.02557949 1.495945 0.1836005 -0.02865022 1.606287 0.1813493 0.02665548 1.648036 0.237819 0.05974049 1.640533 0.2578281 0.0802341 1.613479 0.272837 0.08639292 1.572392 0.2777373 -0.02171788 1.586792 0.1843417 0.02337928 1.615405 0.2264597 0.04754397 1.606689 0.2405832 0.06290627 1.584926 0.2506577 0.07066676 1.557341 0.2570243
189 0.02551031 1.49659 0.1832069 -0.02626223 1.60837 0.1830683 0.02916182 1.648425 0.2382439 0.06129133 1.64043 0.2583964 0.08129668 1.612598 0.2738675 0.08722526 1.571223 0.2781587 -0.0198986 1.58856 0.1851831 0.025243 1.615895 0.2266863 0.04892896 1.606773 0.2408139 0.06392161 1.584498 0.2510802 0.07123636 1.556651 0.2572525
190 0.02513895 1.49747 0.1825784 -0.02446502 1.610436 0.1849352 0.031576 1.648847 0.2389086 0.0628753 1.640358 0.2589595 0.08247169 1.612065 0.2742742 0.08808574 1.570662 0.2779272 -0.01872968 1.590338 0.1858087 0.02708997 1.616538 0.2268558 0.05045044 1.607043 0.2407213 0.06515078 1.584414 0.2508526 0.07212435 1.556437 0.2567359
191 0.02450593 1.498677 0.1815332 -0.02274956 1.612686 0.1866427 0.03351179 1.649109 0.2403864 0.06444024 1.639892 0.2601978 0.08347345 1.611205 0.274981 0.0885105 1.569763 0.2779143 -0.01770981 1.592386 0.1861128 0.02883908 1.617205 0.2273324 0.05207516 1.607173 0.2408424 0.06634096 1.584186 0.2506684 0.07287595 1.556042 0.25617
192 0.02376461 1.499982 0.1803088 -0.02146968 1.614743 0.187235 0.03429097 1.649326 0.2419859 0.06532677 1.639441 0.2614237 0.08377407 1.610306 0.2758344 0.08814481 1.568722 0.2782085 -0.01699209 1.59436 0.1856885 0.02984027 1.617834 0.2279079 0.05308388 1.607259 0.2411171 0.06690849 1.5839 0.2506767 0.07295617 1.555541 0.2558518
193 0.02306609 1.501478 0.1789415 -0.02058608 1.616686 0.1876935 0.03437112 1.649491 0.2438409 0.06560192 1.638998 0.2628864 0.08371078 1.609437 0.2767458 0.08756287 1.567649 0.278501 -0.01653557 1.5963 0.185288 0.03026568 1.618449 0.2287377 0.05356606 1.607372 0.2416385 0.06707009 1.583667 0.2508221 0.07273585 1.555068 0.2555849
194 0.02237945 1.503215 0.1777156 -0.01965482 1.618592 0.1892057 0.03428449 1.6496 0.2461343 0.06539026 1.638633 0.2647101 0.08370972 1.608816 0.2774644 0.08725449 1.566895 0.2784497 -0.01618333 1.598284 0.185639 0.03026476 1.619092 0.2300283 0.05355398 1.607646 0.2424999 0.06702574 1.583701 0.2510012 0.07253641 1.554916 0.2551783
195 0.02188398 1.505048 0.1767105 -0.01737568 1.620408 0.1908121 0.03511317 1.649862 0.2479614 0.06559424 1.638247 0.266623 0.08374261 1.608409 0.2784077 0.08666305 1.56671 0.2788403 -0.01488228 1.60031 0.1856928 0.03057974 1.619773 0.2312718 0.05358651 1.607941 0.2436541 0.06687739 1.583894 0.2515658 0.07201904 1.555122 0.2553705
196 0.02155385 1.506755 0.1759721 -0.01486642 1.621792 0.1926927 0.03636939 1.650024 0.2496013 0.06602682 1.637873 0.2682343 0.08399024 1.608231 0.278936 0.08612674 1.566873 0.2789988 -0.01356972 1.602192 0.1856492 0.03109556 1.620387 0.2324398 0.05376799 1.608236 0.2446454 0.06690855 1.584212 0.2518831 0.07168675 1.555534 0.2553819
197 0.02107988 1.508141 0.1756381 -0.01270632 1.622766 0.194651 0.03716937 1.650156 0.2511445 0.06595932 1.637626 0.2698448 0.08389275 1.608227 0.2795939 0.08536257 1.567318 0.2793392 -0.01242089 1.603841 0.1858802 0.03149681 1.620978 0.2334207 0.0537669 1.608571 0.2455931 0.06675868 1.584595 0.2523077 0.07110862 1.556085 0.2556619
198 0.02042278 1.509328 0.1754966 -0.01063345 1.623775 0.1970118 0.03850183 1.649614 0.2536259 0.066209 1.636318 0.2725972 0.08398236 1.606942 0.2812856 0.08449604 1.566432 0.2804501 -0.01104787 1.60556 0.1868384 0.03245305 1.621087 0.2350116 0.05409005 1.608136 0.2473231 0.06669211 1.584045 0.2534939 0.07032853 1.555635 0.2565832
199 0.01970224 1.510351 0.1757806 -0.008951817 1.624544 0.2004613 0.04086088 1.648085 0.2575183 0.06739509 1.633731 0.2764836 0.08488772 1.604211 0.2837533 0.08412284 1.564078 0.2820466 -0.009905815 1.607208 0.1888454 0.03404857 1.620457 0.2378089 0.05495381 1.606746 0.2500514 0.06707865 1.58243 0.2553755 0.06980794 1.554069 0.2579602
200 0.01828802 1.511829 0.17585 -0.007476399 1.624682 0.2060148 0.04360758 1.645995 0.2622186 0.0692476 1.630507 0.2805007 0.08640373 1.600588 0.2860783 0.08453684 1.560786 0.2830127 -0.009249959 1.609077 0.1922389 0.0360054 1.619485 0.2412692 0.05628608 1.604889 0.2529443 0.06799403 1.580221 0.2570164 0.06976756 1.551841 0.2587784
201 0.0164532 1.513718 0.1757595 -0.006493289 1.624215 0.2123571 0.04561132 1.644367 0.2662188 0.07043008 1.628017 0.2837548 0.08714075 1.597443 0.2881051 0.08440609 1.557948 0.2836645 -0.009123884 1.610894 0.196482 0.03738032 1.618872 0.2442599 0.05699261 1.603537 0.2553713 0.0683833 1.578465 0.2583226 0.06933673 1.550076 0.2592561
202 0.01451586 1.515395 0.1758736 -0.006823617 1.623146 0.2183572 0.04574982 1.642904 0.2701108 0.06952538 1.626133 0.2871586 0.08600365 1.595061 0.2906528 0.0828843 1.555996 0.284893 -0.009874506 1.612066 0.2009046 0.03738375 1.618399 0.2470967 0.05632909 1.602646 0.2578183 0.06753232 1.577281 0.259966 0.06789933 1.548976 0.260198
203 0.01260291 1.517412 0.174925 -0.009185156 1.621319 0.2246744 0.04413489 1.640611 0.2746171 0.06729472 1.623585 0.2907823 0.08408912 1.592232 0.2929575 0.0806515 1.553684 0.2857502 -0.01214467 1.612427 0.2059829 0.03620673 1.61737 0.25019 0.05485954 1.601333 0.2601713 0.06607184 1.575768 0.2612922 0.06600835 1.54758 0.2606416
204 0.01073361 1.518718 0.1739129 -0.0122854 1.619458 0.2296573 0.04222118 1.638129 0.278071 0.06514447 1.620733 0.2935236 0.08252034 1.589266 0.2942923 0.07876727 1.551063 0.2859587 -0.01490511 1.611851 0.2103395 0.03453932 1.615889 0.2526914 0.0531038 1.599607 0.2620101 0.06448478 1.573955 0.2621144 0.06418926 1.545849 0.2606418
205 0.009290532 1.520232 0.1717515 -0.01573313 1.617401 0.2336465 0.03931027 1.635735 0.2806704 0.06246833 1.618303 0.2951044 0.08160374 1.587305 0.2936431 0.07781289 1.549584 0.2841398 -0.01828676 1.610694 0.2140035 0.03209292 1.614576 0.2542847 0.05093489 1.598368 0.2626717 0.06311838 1.572951 0.2613238 0.06312431 1.545057 0.2587839
206 0.007788857 1.521792 0.1703471 -0.01812915 1.61616 0.2365445 0.03721606 1.633795 0.2828917 0.06032096 1.615893 0.2968142 0.08032544 1.585424 0.2938108 0.07632126 1.548199 0.283247 -0.02065763 1.610266 0.2166543 0.0307705 1.613904 0.2553631 0.0496319 1.597419 0.263258 0.06199386 1.572139 0.2609636 0.06196309 1.544411 0.2576329
207 0.006403991 1.522895 0.1693652 -0.02026013 1.614941 0.2386328 0.03497025 1.631697 0.2849216 0.05818073 1.613374 0.2983114 0.07930419 1.584067 0.2936566 0.07540865 1.547422 0.2821747 -0.02298839 1.609598 0.2186412 0.02937879 1.613172 0.2563281 0.04853959 1.596553 0.2636495 0.06122526 1.571665 0.2603886 0.0613636 1.544142 0.2564023
208 0.004964449 1.523952 0.1686554 -0.0230759 1.61431 0.2407971 0.03231888 1.629192 0.2871833 0.05644626 1.611146 0.2994039 0.07842438 1.583389 0.2932662 0.07550555 1.547534 0.2805222 -0.0257667 1.608714 0.2208919 0.02799375 1.61256 0.2573113 0.04778758 1.596074 0.263762 0.06083575 1.571787 0.2595185 0.0615918 1.544552 0.2546775
209 0.00424777 1.524656 0.1685444 -0.02636067 1.613029 0.2434964 0.02908507 1.627018 0.2894964 0.0544963 1.609822 0.3005645 0.07793541 1.584294 0.2928179 0.07713746 1.549295 0.2785126 -0.02895681 1.606633 0.2238456 0.02588086 1.612179 0.2586315 0.04659787 1.59631 0.264209 0.0606143 1.573078 0.2588817 0.06298797 1.546305 0.2528131
210 0.003929877 1.525051 0.1686778 -0.0288908 1.611689 0.2456725 0.02610784 1.627519 0.2900445 0.05227262 1.61059 0.3009535 0.07729429 1.58679 0.2921116 0.07928587 1.552402 0.2762899 -0.03148862 1.604188 0.2264424 0.02309348 1.612651 0.2592636 0.04468098 1.597522 0.2644559 0.05997493 1.575335 0.2583416 0.06446704 1.549086 0.2509806
211 0.003581808 1.525149 0.1694308 -0.03116906 1.610963 0.2472109 0.02376645 1.629241 0.2899175 0.05050078 1.612124 0.301105 0.07662537 1.58946 0.2916581 0.0810236 1.555526 0.2746073 -0.03358943 1.60243 0.2284096 0.0205772 1.613505 0.2596816 0.04289326 1.598934 0.2647628 0.05913398 1.577518 0.2582315 0.06541255 1.551752 0.2498022
212 0.003488893 1.524523 0.17158 -0.03312925 1.610174 0.2489788 0.02188751 1.631157 0.2904256 0.04898238 1.613881 0.302211 0.07593772 1.591821 0.2926311 0.08235876 1.558152 0.2747024 -0.0352016 1.601004 0.2304448 0.01858022 1.614215 0.2608802 0.04140111 1.600054 0.266157 0.0583437 1.579108 0.2595728 0.0659996 1.553704 0.2504308
213 0.00350461 1.524074 0.1739197 -0.03529322 1.608647 0.2519944 0.02062808 1.632534 0.2919808 0.0480064 1.615753 0.3040185 0.07569996 1.593483 0.2944359 0.08332914 1.559655 0.2760102 -0.03676204 1.599323 0.2334484 0.01707909 1.614377 0.2630485 0.04015006 1.600666 0.2684138 0.05771643 1.579888 0.2618261 0.06632592 1.554694 0.2521819
214 0.003508336 1.52422 0.1755784 -0.03762211 1.606805 0.2552407 0.01917232 1.633505 0.2939881 0.04785096 1.618684 0.3049726 0.0758246 1.596085 0.2953712 0.08419888 1.561818 0.2768441 -0.03861726 1.597452 0.2366231 0.01528527 1.614302 0.2655265 0.03888034 1.601627 0.2702856 0.05712553 1.58119 0.2634923 0.06663544 1.556254 0.2534003
215 0.003335053 1.524494 0.1769023 -0.03975796 1.604809 0.258164 0.01709978 1.635171 0.2951015 0.04784194 1.622623 0.3046072 0.07584603 1.599474 0.2953261 0.08486628 1.564584 0.2769908 -0.04066161 1.595616 0.2394139 0.01316867 1.614659 0.2673359 0.0375764 1.603212 0.2712886 0.05646857 1.583081 0.2643366 0.0668098 1.558335 0.2539408
216 0.002973452 1.524811 0.1779429 -0.04210409 1.603153 0.2601889 0.01400674 1.637175 0.2953554 0.04664754 1.626649 0.3036591 0.07500159 1.603723 0.2945856 0.08514085 1.56855 0.2763596 -0.04296538 1.59393 0.2414245 0.01061506 1.615691 0.2681144 0.03595875 1.605571 0.2713134 0.0555272 1.585925 0.2642505 0.06680194 1.561426 0.2536792
217 0.002411511 1.525364 0.1790742 -0.04425816 1.601978 0.2621119 0.0113625 1.63916 0.2955876 0.04556144 1.630641 0.3025308 0.07410226 1.608334 0.2934934 0.08535707 1.573084 0.2753369 -0.04516673 1.592649 0.2433848 0.008302276 1.617066 0.2687045 0.0344718 1.60828 0.2710575 0.05455684 1.589205 0.2638743 0.06669016 1.565002 0.2531508
218 0.002177379 1.525819 0.1800669 -0.04701325 1.600679 0.2632478 0.007718372 1.640518 0.2959744 0.04314891 1.634338 0.3016062 0.07205488 1.613515 0.2923957 0.08472005 1.578505 0.2744774 -0.04768278 1.591067 0.2446448 0.005290145 1.618272 0.2691273 0.03223126 1.611095 0.270667 0.05289027 1.592893 0.2634513 0.06601653 1.569134 0.2527663
219 0.002103878 1.525898 0.1813296 -0.04961106 1.598525 0.2649815 0.004405063 1.640574 0.2972402 0.04037207 1.63765 0.3008192 0.06980766 1.619202 0.2906702 0.08413868 1.584753 0.2728171 -0.05003062 1.588742 0.2464491 0.002408438 1.619003 0.2698132 0.0298714 1.613935 0.2700677 0.05114145 1.596972 0.2625384 0.06532268 1.573772 0.2519102
220 0.002044793 1.525893 0.1825655 -0.05208568 1.596112 0.2667086 0.001651043 1.639956 0.2989204 0.03744346 1.639869 0.300858 0.06755669 1.624193 0.2890551 0.0833229 1.590293 0.2713121 -0.05223954 1.586235 0.2482135 -0.0002019264 1.619112 0.2709154 0.02737929 1.615956 0.2700839 0.04925638 1.600424 0.2619102 0.06439211 1.577833 0.2512848
221 0.001863715 1.525596 0.1835473 -0.05436299 1.593171 0.2687065 -0.0008125635 1.639953 0.2994407 0.03436864 1.641869 0.3003909 0.06508482 1.628518 0.2871008 0.08232755 1.595 0.2693929 -0.05405262 1.583223 0.2502472 -0.00257815 1.619172 0.2713888 0.02485999 1.617564 0.2697603 0.04727043 1.603389 0.2608815 0.06335047 1.581333 0.2501819
222 0.001657528 1.525031 0.1841891 -0.05635058 1.590107 0.2705804 -0.003948911 1.640486 0.298834 0.03076684 1.644159 0.2989905 0.06180725 1.632417 0.2850344 0.08067784 1.599576 0.2671711 -0.05527297 1.579904 0.2522855 -0.005322381 1.619147 0.2712067 0.02196419 1.619024 0.2688752 0.04481825 1.606085 0.2595044 0.06186984 1.584663 0.2487248
223 0.001614493 1.524271 0.1843343 -0.0581338 1.587859 0.2712536 -0.007351493 1.641048 0.2973434 0.02696821 1.646941 0.2962259 0.05815433 1.635712 0.2828115 0.07864065 1.603313 0.2650403 -0.05611562 1.577262 0.2532603 -0.008083186 1.61923 0.2701122 0.01903141 1.620523 0.2670531 0.04221026 1.608339 0.2577786 0.0602026 1.587395 0.2470877
224 0.002122078 1.523667 0.1845538 -0.06060964 1.586077 0.2708264 -0.012369 1.640793 0.2965802 0.02166546 1.650141 0.2933893 0.05387519 1.640055 0.2798193 0.07622305 1.608418 0.2621442 -0.05726265 1.574904 0.2533931 -0.01170742 1.618972 0.2693712 0.01524809 1.622298 0.2652338 0.0391627 1.61123 0.2557383 0.05824831 1.590996 0.2451491
225 0.002858206 1.523065 0.1848985 -0.06290474 1.58382 0.2705991 -0.01718896 1.639562 0.296578 0.01597391 1.652623 0.2911265 0.04919708 1.643934 0.2773161 0.07341172 1.613455 0.2594137 -0.05813702 1.572296 0.2537366 -0.01529322 1.618182 0.2690831 0.01123206 1.623698 0.2637607 0.03590003 1.613883 0.2539689 0.05607693 1.594544 0.243376
226 0.003486112 1.522099 0.1861655 -0.06481738 1.581589 0.2710179 -0.02133684 1.639872 0.2954782 0.01049707 1.655141 0.2885568 0.04418711 1.648035 0.2742702 0.06973094 1.618987 0.2563537 -0.059 1.56977 0.254705 -0.01860769 1.617998 0.2684575 0.007236447 1.625224 0.2620962 0.0324056 1.616684 0.2518938 0.05340442 1.598304 0.2415059
227 0.003828221 1.521345 0.1873816 -0.06685593 1.578202 0.2723724 -0.02500716 1.640173 0.2946103 0.005388514 1.656928 0.2865457 0.03881815 1.651534 0.271503 0.06537813 1.624298 0.2529025 -0.0598478 1.56645 0.2565032 -0.02163584 1.617374 0.2684737 0.00332463 1.626152 0.261017 0.02861657 1.619109 0.2499686 0.0502971 1.601995 0.239165
228 0.00423897 1.520624 0.1880629 -0.06896541 1.57479 0.2728713 -0.02899539 1.639927 0.2934747 8.69378E-05 1.658535 0.2837492 0.0330651 1.654854 0.2677715 0.06071258 1.629162 0.2487022 -0.06063595 1.563135 0.25759 -0.02487692 1.616385 0.2681617 -0.0008514499 1.62677 0.2594561 0.0243998 1.621298 0.247414 0.04679235 1.605437 0.2361989
229 0.004886762 1.520326 0.1880157 -0.07048026 1.572733 0.2718948 -0.03392788 1.639621 0.2915862 -0.005756868 1.659956 0.280554 0.02705511 1.657797 0.263882 0.05605397 1.632807 0.2457933 -0.06158975 1.561027 0.2569888 -0.02853433 1.615596 0.2670259 -0.005178535 1.627319 0.257489 0.02009872 1.623168 0.2447703 0.04328621 1.608194 0.2338215
230 0.005962416 1.520461 0.1874823 -0.0712215 1.571768 0.2698405 -0.03890511 1.639478 0.2888772 -0.01172348 1.660922 0.2775858 0.0208953 1.660185 0.2607914 0.05146535 1.63595 0.2440311 -0.06211122 1.559863 0.2552472 -0.03204156 1.615059 0.2651302 -0.009279164 1.627698 0.2555476 0.01602491 1.624723 0.2426393 0.04006796 1.610684 0.2320925
231 0.007783304 1.520758 0.1878062 -0.07096998 1.570182 0.2693222 -0.04280523 1.638862 0.2876199 -0.01695435 1.66147 0.2760545 0.01482549 1.662567 0.2584871 0.04704377 1.639703 0.2420742 -0.06173129 1.558236 0.2548336 -0.03474043 1.614289 0.264366 -0.01280203 1.627963 0.2546381 0.0122332 1.626359 0.2412881 0.03713048 1.613543 0.2307021
232 0.009309627 1.520773 0.1887678 -0.07099339 1.568454 0.269641 -0.04497576 1.638953 0.2864444 -0.01976639 1.662372 0.2741744 0.01106505 1.664156 0.2566881 0.04383195 1.642269 0.2407717 -0.06129633 1.556629 0.2553435 -0.03639818 1.614016 0.2637424 -0.01497677 1.628394 0.2536283 0.009674301 1.627564 0.2401453 0.03490382 1.615698 0.2295231
233 0.01070372 1.520822 0.1893766 -0.07103732 1.565517 0.2703818 -0.04769177 1.638244 0.2854819 -0.02292922 1.662383 0.2730465 0.007676181 1.664922 0.2557352 0.04032392 1.644182 0.2402359 -0.06110915 1.55398 0.2560075 -0.0384161 1.613348 0.2630069 -0.0174014 1.628423 0.2526632 0.007068335 1.628466 0.2388753 0.03238177 1.617587 0.2283424
234 0.01196471 1.521064 0.1903622 -0.0716709 1.562499 0.2710909 -0.05111897 1.637352 0.2849298 -0.02671747 1.661731 0.2735096 0.004096001 1.665754 0.2553118 0.03709798 1.64605 0.2400215 -0.06137588 1.551292 0.2567051 -0.04079182 1.612682 0.2626213 -0.02009632 1.628254 0.2526028 0.004412762 1.62932 0.2383118 0.02996063 1.619368 0.2277511
235 0.01306717 1.521313 0.1918144 -0.0720747 1.560674 0.2718959 -0.05404776 1.637406 0.2838462 -0.02995886 1.6617 0.2733252 0.0007805345 1.666734 0.2544487 0.03409282 1.647908 0.2393036 -0.06165865 1.549514 0.2575581 -0.04286594 1.612696 0.261985 -0.02243028 1.628524 0.2522177 0.002011989 1.630276 0.2374991 0.02777406 1.620995 0.2270459
236 0.01441197 1.52212 0.1928037 -0.07144483 1.558917 0.2731152 -0.05681496 1.637929 0.2819587 -0.03359691 1.662157 0.2720549 -0.003379938 1.667983 0.2530049 0.03011601 1.650539 0.2372097 -0.06116898 1.547774 0.2586593 -0.04484966 1.612969 0.2608097 -0.02498238 1.629079 0.2512011 -0.0008466478 1.631536 0.2361574 0.02504292 1.623155 0.2254119
237 0.01569277 1.522917 0.1938933 -0.07118391 1.557622 0.2736915 -0.05933906 1.638557 0.2797011 -0.03752916 1.662842 0.2695566 -0.008300601 1.669141 0.2503696 0.02547936 1.653025 0.2338561 -0.06086905 1.546407 0.2593391 -0.04670038 1.613234 0.2594958 -0.02762389 1.629586 0.249717 -0.003964781 1.632525 0.2344524 0.02205002 1.624941 0.2233271
238 0.01696077 1.523694 0.1946813 -0.07072385 1.556982 0.2739175 -0.06121125 1.638624 0.2782925 -0.04098977 1.663252 0.2672555 -0.01248477 1.669877 0.2482935 0.02151368 1.654925 0.2308707 -0.0602029 1.545686 0.2597881 -0.04807281 1.61316 0.2586469 -0.02981962 1.629793 0.2485446 -0.00654227 1.633155 0.2332748 0.01953255 1.626292 0.2216191
239 0.0185375 1.524574 0.1949392 -0.06958 1.556381 0.2740253 -0.06281376 1.638059 0.2772653 -0.04412163 1.663103 0.2653943 -0.0162767 1.670225 0.2465465 0.01826967 1.656474 0.2280534 -0.05885185 1.545057 0.2600768 -0.04904485 1.612607 0.2580636 -0.03164772 1.629607 0.2476363 -0.008743531 1.633491 0.2323453 0.01751783 1.627406 0.2201078
240 0.02005967 1.525374 0.1948972 -0.06838696 1.555898 0.2740038 -0.06446432 1.637286 0.2761501 -0.04679767 1.662725 0.2637354 -0.01942337 1.670357 0.2448399 0.01568646 1.657576 0.2258184 -0.05749429 1.544561 0.2601886 -0.04994211 1.611898 0.2574035 -0.0331947 1.629269 0.2467098 -0.01055596 1.633622 0.2313874 0.01591805 1.628217 0.2189036
241 0.02191899 1.526481 0.1949264 -0.06718707 1.555474 0.2736416 -0.06705202 1.636202 0.2742297 -0.05039463 1.662133 0.2614149 -0.02376977 1.670588 0.2416993 0.01194318 1.658931 0.2226192 -0.05576736 1.544308 0.2601153 -0.05138588 1.610974 0.2561934 -0.03536568 1.628843 0.2452687 -0.0130713 1.633829 0.2297054 0.01361367 1.629295 0.2171978
242 0.02387602 1.527724 0.1949406 -0.06575856 1.554662 0.2738261 -0.0695575 1.63499 0.272326 -0.05396706 1.661436 0.2589806 -0.02849881 1.670647 0.2376023 0.007160036 1.660056 0.2188887 -0.05367858 1.543861 0.2605704 -0.05278188 1.609942 0.2550039 -0.03757687 1.628321 0.2437403 -0.01591807 1.633929 0.227325 0.01068037 1.630364 0.2151831
243 0.02558313 1.529041 0.1953555 -0.06442094 1.554394 0.2742698 -0.07159287 1.63429 0.2707383 -0.0566338 1.661209 0.2569618 -0.03199082 1.670867 0.2344375 0.003622314 1.661018 0.2163492 -0.05192139 1.543816 0.2612223 -0.05390273 1.609463 0.2539957 -0.03925561 1.628263 0.2424132 -0.01806499 1.634276 0.2254337 0.0084145 1.631458 0.2135542
244 0.02742814 1.530579 0.1958817 -0.06333867 1.554378 0.274233 -0.07344939 1.633573 0.2694039 -0.05883212 1.661013 0.2555355 -0.03445 1.671225 0.2324515 0.001606604 1.662144 0.2150727 -0.0504895 1.543954 0.2614027 -0.05484911 1.609196 0.2529849 -0.0405625 1.628427 0.2412441 -0.01951734 1.634868 0.2240717 0.007078122 1.632722 0.2124537
245 0.02895425 1.532097 0.1963874 -0.06287244 1.554456 0.2737298 -0.07515397 1.633091 0.2679566 -0.06088081 1.660962 0.2538259 -0.03645091 1.671597 0.2306897 0.0003814645 1.663227 0.2143196 -0.04975044 1.544135 0.261102 -0.05578803 1.6092 0.251755 -0.04174728 1.62877 0.2398341 -0.02059113 1.635532 0.2228479 0.006317156 1.633941 0.2117359
246 0.03062498 1.533732 0.1970743 -0.06295905 1.55456 0.2723881 -0.07758967 1.632527 0.2652622 -0.06376739 1.660788 0.2506221 -0.03882845 1.671824 0.228542 -0.001046958 1.664344 0.2137657 -0.04958892 1.544224 0.2600489 -0.05729047 1.609156 0.2495154 -0.04347648 1.629044 0.2373485 -0.02192331 1.636169 0.221174 0.005452738 1.635217 0.210985
247 0.03284191 1.535584 0.19785 -0.06292032 1.554032 0.2706997 -0.0806682 1.630842 0.2622657 -0.06774728 1.6595 0.2471362 -0.04241936 1.671277 0.2263337 -0.003851598 1.665101 0.212894 -0.04919903 1.543786 0.2586847 -0.05917214 1.608241 0.2470376 -0.04583766 1.628527 0.2347072 -0.02396734 1.636321 0.2194808 0.003773737 1.636289 0.210058
248 0.03486519 1.536815 0.1985654 -0.06227694 1.552624 0.269911 -0.08296183 1.628483 0.2600783 -0.07108715 1.657393 0.2445221 -0.04569993 1.669949 0.2248563 -0.00668976 1.665149 0.2118129 -0.04820989 1.542608 0.2581074 -0.06055702 1.606598 0.2451548 -0.04781988 1.62722 0.232654 -0.02587029 1.635734 0.2182136 0.002082825 1.636649 0.2091961
249 0.03704725 1.53776 0.1992062 -0.06139517 1.551546 0.2688029 -0.08385767 1.626622 0.2585066 -0.07272342 1.655648 0.2428307 -0.04725632 1.668852 0.2244348 -0.007994173 1.665089 0.2118886 -0.04709484 1.541627 0.257204 -0.06085513 1.605299 0.2437114 -0.04850652 1.62615 0.2312242 -0.0264306 1.635264 0.2177505 0.001676306 1.636873 0.2091214
250 0.03950529 1.538345 0.1998206 -0.06055724 1.5503 0.2669617 -0.08359061 1.624979 0.2574283 -0.07302567 1.654122 0.2415275 -0.04736536 1.667905 0.2242444 -0.007754275 1.664955 0.212597 -0.04599498 1.540468 0.2556259 -0.06028315 1.604193 0.2423998 -0.04813996 1.625229 0.2299053 -0.02581562 1.634828 0.2174764 0.002525001 1.636966 0.2095546
251 0.04178391 1.538578 0.2002919 -0.0597335 1.548877 0.2650189 -0.08289463 1.623384 0.2568406 -0.0727326 1.652766 0.2403087 -0.04682469 1.66702 0.2237298 -0.006770765 1.664667 0.2132868 -0.04494328 1.539103 0.2539394 -0.0593262 1.603132 0.2415145 -0.04729464 1.62436 0.2287525 -0.0246971 1.634308 0.2172019 0.003886215 1.636849 0.2101501
252 0.04384219 1.538606 0.2005128 -0.05880627 1.547346 0.2633978 -0.08243034 1.621767 0.2557631 -0.07242866 1.651365 0.2387934 -0.04633253 1.665991 0.2228407 -0.00601468 1.664178 0.2137506 -0.04372331 1.537746 0.2525716 -0.05843129 1.60193 0.2405847 -0.04648325 1.623329 0.2275363 -0.0237202 1.633565 0.2167042 0.004963619 1.636518 0.2105111
253 0.04621423 1.538929 0.200295 -0.05716018 1.546347 0.2614981 -0.08191697 1.619939 0.2541252 -0.07225509 1.649695 0.2366684 -0.04616182 1.664761 0.2214684 -0.005754293 1.663619 0.2132912 -0.04184163 1.536787 0.2509903 -0.05732887 1.600587 0.2393356 -0.04561389 1.62215 0.2259648 -0.02284269 1.632784 0.2159063 0.005818021 1.636231 0.2101418
254 0.0486127 1.539035 0.2002114 -0.05531607 1.544993 0.2602132 -0.08065704 1.618526 0.2532863 -0.07120408 1.648539 0.2349604 -0.0448455 1.664036 0.2202804 -0.004168097 1.663364 0.2127409 -0.03968899 1.535696 0.2499441 -0.05561327 1.599633 0.2387307 -0.04401646 1.621333 0.2248839 -0.02113175 1.632284 0.2153854 0.007591971 1.636045 0.2099828
255 0.05041316 1.538774 0.2004205 -0.05441639 1.543559 0.2589505 -0.07866721 1.618567 0.2534409 -0.06885311 1.648812 0.2345766 -0.04182329 1.664453 0.220623 -0.0006033022 1.663696 0.2135838 -0.03843381 1.534688 0.2488767 -0.0534846 1.599861 0.2389225 -0.04158039 1.621593 0.2248362 -0.01832851 1.632535 0.2159102 0.01067159 1.636159 0.2109783
256 0.05134466 1.538081 0.2005809 -0.05492977 1.541768 0.2570462 -0.07659712 1.619535 0.2538867 -0.06573495 1.650198 0.2346925 -0.037668 1.665667 0.2215354 0.004163614 1.664178 0.2153312 -0.03839815 1.533656 0.2472436 -0.05148116 1.600829 0.2393037 -0.03879388 1.622606 0.2251665 -0.01494949 1.633219 0.2168607 0.01440929 1.636274 0.2126944
257 0.05162932 1.537038 0.2007845 -0.05615258 1.539791 0.2550649 -0.0754492 1.619948 0.2539292 -0.06364772 1.650908 0.2344723 -0.03478058 1.666095 0.2219635 0.007528679 1.663942 0.2166013 -0.03894699 1.532604 0.2457264 -0.05033926 1.601191 0.239454 -0.03695679 1.622979 0.2253305 -0.01265848 1.633248 0.2174561 0.0169619 1.635824 0.2140108
258 0.05187986 1.535921 0.2011694 -0.05731365 1.538121 0.2530512 -0.07488106 1.619762 0.2535715 -0.06239892 1.650934 0.2339415 -0.03298327 1.665914 0.2218613 0.009705411 1.663359 0.2174051 -0.03947478 1.531732 0.24432 -0.04969852 1.601009 0.2392567 -0.03579929 1.622812 0.2252211 -0.01117946 1.632843 0.2176249 0.01864498 1.635128 0.2148339
259 0.05248759 1.534722 0.2013446 -0.05783359 1.537245 0.2512611 -0.07401694 1.619501 0.2528907 -0.06082531 1.650842 0.2332523 -0.03105886 1.665511 0.2214692 0.01193721 1.662569 0.2180993 -0.03956224 1.531386 0.2430621 -0.04875984 1.600676 0.2388353 -0.03434823 1.622487 0.2250092 -0.009494637 1.632244 0.2177182 0.02049523 1.634247 0.2155381
260 0.05286529 1.533482 0.2011931 -0.05828961 1.536562 0.2496547 -0.07288255 1.619558 0.2523494 -0.05859754 1.651248 0.2327987 -0.02851332 1.665403 0.2218724 0.01482676 1.661838 0.21974 -0.03978205 1.531067 0.2417475 -0.04769097 1.600658 0.2383304 -0.03252754 1.622512 0.2247241 -0.00744579 1.631851 0.2180927 0.02276389 1.633405 0.2165644
261 0.05300089 1.531914 0.2012733 -0.05887258 1.535593 0.2486304 -0.07161573 1.62003 0.2516693 -0.05585533 1.652049 0.2323463 -0.02537804 1.665477 0.2227233 0.01828344 1.660984 0.2221745 -0.0402387 1.530443 0.2408027 -0.0466057 1.600831 0.2377556 -0.03046031 1.622667 0.2245353 -0.005132105 1.631447 0.2188268 0.02532095 1.632364 0.2180972
262 0.05272702 1.530309 0.2012168 -0.05946363 1.534588 0.2482153 -0.07060649 1.620572 0.2509147 -0.05350286 1.652717 0.2315689 -0.02271264 1.665405 0.2232495 0.02119912 1.65994 0.2239222 -0.04089014 1.529534 0.2402016 -0.04583431 1.60095 0.2371749 -0.02879798 1.622662 0.2241549 -0.0032929 1.630891 0.2194111 0.02734035 1.631168 0.2193556
263 0.05232049 1.528773 0.2013631 -0.06039682 1.533013 0.2473821 -0.0700943 1.620767 0.2500895 -0.05204432 1.652785 0.2310826 -0.02109817 1.664926 0.2234631 0.02321274 1.658829 0.2243681 -0.04173126 1.528143 0.2394867 -0.04553649 1.600729 0.2365721 -0.02787953 1.622266 0.2238076 -0.002276614 1.630073 0.2196947 0.02855221 1.629884 0.2200658
264 0.05198678 1.5271 0.2017719 -0.0614216 1.532197 0.2458826 -0.06933057 1.621233 0.2489351 -0.05034407 1.652879 0.230811 -0.01938533 1.664434 0.2237492 0.02528947 1.657685 0.2247159 -0.04253988 1.527319 0.2385264 -0.04503763 1.600641 0.2357611 -0.02680543 1.621901 0.2234237 -0.001164957 1.629262 0.219917 0.02987863 1.62859 0.2204912
265 0.05139315 1.52539 0.2019324 -0.06278718 1.533278 0.2433867 -0.06772729 1.622878 0.2478107 -0.04751762 1.654016 0.2305955 -0.01626829 1.664713 0.2249381 0.02837319 1.656687 0.2258696 -0.04372919 1.527934 0.2368222 -0.04397382 1.601488 0.2348384 -0.02496599 1.622295 0.2230459 0.0008178923 1.629004 0.2204898 0.03200785 1.627433 0.221039
266 0.05051512 1.523782 0.2016864 -0.06395669 1.535233 0.2414502 -0.0656971 1.625019 0.2469794 -0.04403092 1.655714 0.2298053 -0.01247704 1.665289 0.2254 0.0317892 1.655656 0.2269172 -0.04495578 1.529237 0.2352635 -0.04258115 1.602866 0.2340712 -0.02263665 1.623142 0.2223726 0.003299046 1.628996 0.2205933 0.03440105 1.626381 0.2215608
267 0.04975622 1.522183 0.2013111 -0.06490106 1.536987 0.2397344 -0.0637264 1.626719 0.2465069 -0.04045878 1.657208 0.2292506 -0.008503783 1.665697 0.2259199 0.03574669 1.654443 0.2280276 -0.04604721 1.530393 0.2336786 -0.04113771 1.604003 0.2335874 -0.02019983 1.623852 0.2219954 0.00591664 1.628847 0.2208818 0.03705811 1.625145 0.222262
268 0.04854452 1.520635 0.2004537 -0.06605441 1.538828 0.2378321 -0.0620954 1.628171 0.2462395 -0.03719356 1.65844 0.2291147 -0.004780179 1.665847 0.2269296 0.03935757 1.652903 0.2293842 -0.04748581 1.531494 0.2317311 -0.04002198 1.604966 0.2332534 -0.01809418 1.624393 0.2218291 0.008217025 1.628522 0.2213669 0.03933723 1.623676 0.2230795
269 0.0470727 1.518874 0.1996966 -0.06725443 1.540382 0.2361722 -0.06087332 1.629121 0.245927 -0.03455029 1.659077 0.2292538 -0.001734954 1.665497 0.2279738 0.04175908 1.65102 0.2308314 -0.04900367 1.53233 0.2300163 -0.03932291 1.605468 0.2328572 -0.01655972 1.624483 0.2216917 0.00992645 1.627833 0.2217157 0.04079179 1.621981 0.2237589
270 0.04564103 1.517159 0.1987794 -0.06809501 1.54138 0.2354051 -0.05979523 1.629581 0.245794 -0.03252146 1.659132 0.2298794 0.0006140278 1.664797 0.228792 0.04327293 1.649133 0.2315983 -0.05023155 1.532687 0.2289899 -0.03880937 1.605556 0.2324805 -0.01549643 1.6242 0.2216426 0.01114538 1.626923 0.2217938 0.04167023 1.620286 0.2238844
271 0.04447853 1.51556 0.1976908 -0.0684751 1.542246 0.2347082 -0.05840729 1.62986 0.245923 -0.0303713 1.658955 0.2307702 0.002910344 1.663962 0.2294173 0.04482247 1.647335 0.2317063 -0.05106062 1.532873 0.2280166 -0.03807083 1.605491 0.232237 -0.0143365 1.623787 0.2216209 0.01238778 1.625942 0.2217212 0.04259713 1.61863 0.2236193
272 0.04334343 1.513951 0.1967093 -0.06890732 1.543892 0.2329679 -0.05636005 1.630707 0.2458385 -0.02719595 1.659084 0.2314745 0.005999113 1.663133 0.2302158 0.04708754 1.645379 0.2318374 -0.05190608 1.533761 0.2263379 -0.03680027 1.605883 0.2318737 -0.01243308 1.623652 0.2213878 0.01425975 1.625022 0.2216715 0.04409575 1.616849 0.2234169
273 0.04211538 1.512454 0.1958154 -0.06971453 1.544915 0.2309638 -0.05418877 1.631735 0.2455972 -0.02364547 1.659168 0.232769 0.009378342 1.66224 0.2316393 0.04996474 1.643186 0.232872 -0.05283204 1.534456 0.2245693 -0.03538923 1.606392 0.231576 -0.0102819 1.623572 0.2215841 0.01631898 1.624083 0.2222537 0.04590525 1.614959 0.2239269
274 0.04096659 1.510646 0.1950776 -0.07007051 1.546018 0.2296379 -0.05218884 1.632236 0.2451799 -0.02057491 1.65861 0.2336331 0.01206172 1.660711 0.2331146 0.05235443 1.640574 0.2338523 -0.0536217 1.534937 0.2231613 -0.03411391 1.60635 0.2312243 -0.008392134 1.622881 0.2217105 0.01800268 1.622594 0.2229401 0.04741513 1.612622 0.2244994
275 0.03964837 1.508795 0.1945015 -0.07031339 1.546922 0.2289548 -0.0505074 1.63245 0.2447862 -0.01805331 1.657851 0.2335508 0.01414926 1.659053 0.2337131 0.05428315 1.637961 0.2342331 -0.05446953 1.535156 0.2221899 -0.03310087 1.60605 0.2309695 -0.006843945 1.621891 0.2215564 0.01929779 1.620896 0.2233263 0.04856529 1.610153 0.2248945
276 0.03816137 1.507272 0.1941389 -0.07106718 1.547526 0.2281569 -0.04921553 1.632892 0.2442257 -0.01605944 1.657327 0.2336644 0.01607672 1.657809 0.2341482 0.05595981 1.635806 0.2344581 -0.05548211 1.535451 0.2213316 -0.03232244 1.606052 0.2306104 -0.005585631 1.621222 0.2215395 0.02044846 1.619567 0.2237214 0.0495185 1.608074 0.2253294
277 0.03621365 1.505487 0.1942582 -0.07249676 1.549005 0.2266886 -0.04724385 1.63446 0.2425447 -0.01288004 1.657235 0.2337169 0.0195369 1.65647 0.2353243 0.058598 1.632922 0.2355625 -0.05701857 1.536666 0.2200957 -0.03100176 1.606864 0.2296252 -0.003476609 1.620931 0.2213867 0.02252272 1.618205 0.2244369 0.05112316 1.6055 0.2262049
278 0.03437545 1.504185 0.1941585 -0.07390708 1.550644 0.2254395 -0.04495995 1.636487 0.2401668 -0.009039655 1.657573 0.2329774 0.0236073 1.655359 0.2362656 0.0617307 1.629849 0.2377187 -0.05850449 1.53816 0.2189254 -0.02939559 1.608087 0.2281196 -0.0008835017 1.620918 0.2207656 0.02496656 1.617045 0.2251123 0.05300458 1.602963 0.2277414
279 0.03275673 1.503466 0.1939462 -0.07502395 1.552435 0.2248371 -0.04217502 1.638861 0.2381411 -0.004942892 1.658313 0.2325383 0.02794757 1.654551 0.237476 0.06455488 1.62732 0.2397545 -0.05961044 1.539927 0.2183665 -0.02747384 1.609608 0.2269743 0.001741058 1.621223 0.2208693 0.02752423 1.616266 0.2260257 0.05476061 1.600969 0.2291996
280 0.03130411 1.502804 0.1938775 -0.07552833 1.554756 0.2246071 -0.03934006 1.640845 0.2370651 -0.001033982 1.658993 0.2322617 0.03230012 1.653565 0.2388898 0.06742636 1.624632 0.242047 -0.06031872 1.542011 0.2180703 -0.02545817 1.610968 0.2263647 0.004356968 1.621456 0.2211227 0.03016293 1.615415 0.2270506 0.05659889 1.598936 0.230783
281 0.02992088 1.502291 0.1938697 -0.07587627 1.557052 0.2248755 -0.03673927 1.642347 0.2373735 0.002523068 1.659423 0.2333106 0.03607785 1.652484 0.2405165 0.06991695 1.621995 0.2442633 -0.06088378 1.544091 0.218227 -0.02363341 1.612058 0.2267489 0.00670463 1.621586 0.2221581 0.03242083 1.614482 0.228469 0.05815406 1.59694 0.2324264
282 0.02829966 1.501944 0.1939434 -0.07583138 1.559623 0.2262638 -0.03378433 1.643899 0.238232 0.00618006 1.659756 0.2350916 0.03988446 1.651305 0.2422558 0.07226586 1.619475 0.2461686 -0.06125991 1.546363 0.2192626 -0.02161911 1.61315 0.2277829 0.009064983 1.621669 0.2238762 0.03468737 1.613496 0.2301254 0.05963213 1.594984 0.23402
283 0.02655622 1.502227 0.1937657 -0.07480855 1.563981 0.2286385 -0.02949788 1.646264 0.2393725 0.01058827 1.659948 0.239134 0.0445751 1.649795 0.2454868 0.07488067 1.616554 0.2490797 -0.0610989 1.550204 0.2209178 -0.01872832 1.614982 0.2289515 0.01198094 1.62212 0.2267814 0.03758954 1.612592 0.2323803 0.0614109 1.592958 0.2360697
284 0.02478125 1.50261 0.1937837 -0.07347718 1.568128 0.2319334 -0.02437909 1.648501 0.241347 0.01521103 1.659561 0.2446131 0.04953234 1.647948 0.2490867 0.07776484 1.613421 0.2519993 -0.06039542 1.55403 0.2237156 -0.0153148 1.616615 0.2311205 0.01515489 1.622299 0.2305569 0.04071293 1.611449 0.2351081 0.06342278 1.590785 0.2382277
285 0.02293728 1.50336 0.1942422 -0.07311599 1.57247 0.2332282 -0.01815896 1.650893 0.2436974 0.02080556 1.659339 0.2498054 0.05445132 1.645849 0.2534453 0.08058261 1.609968 0.255675 -0.05964675 1.558302 0.2258314 -0.01135555 1.61824 0.2341952 0.01866001 1.622211 0.2354371 0.04374614 1.610039 0.2389899 0.06532478 1.588349 0.2412857
286 0.02073367 1.505039 0.1952135 -0.07276146 1.578128 0.2338199 -0.01125331 1.653409 0.2479763 0.02714076 1.658921 0.2565498 0.06016104 1.643195 0.2596015 0.0835362 1.605548 0.2617283 -0.05876492 1.563844 0.2277707 -0.006911599 1.62025 0.2387135 0.02265375 1.62216 0.2416853 0.04713041 1.608404 0.2445459 0.06717901 1.585429 0.2463996
287 0.01869931 1.506969 0.1971021 -0.07034504 1.585525 0.2354205 -0.005245992 1.655514 0.2539748 0.03262564 1.657841 0.2654149 0.06551927 1.63999 0.2675267 0.08581162 1.600903 0.2691929 -0.05702957 1.570457 0.2297111 -0.00266886 1.622409 0.2437827 0.02650616 1.622154 0.2485505 0.05046083 1.606735 0.2508887 0.06871678 1.582541 0.2525026
288 0.01715042 1.509572 0.1989832 -0.06675842 1.592733 0.2392129 0.0001931343 1.657383 0.2610571 0.03744701 1.656828 0.2743717 0.07002179 1.63723 0.2753996 0.08772906 1.597316 0.2757475 -0.05486722 1.576893 0.2325137 0.001435827 1.624696 0.2492781 0.03013963 1.622458 0.2552538 0.05351211 1.605628 0.2569107 0.07019418 1.580537 0.2578626
289 0.01615285 1.512159 0.2005035 -0.0642291 1.597836 0.2427611 0.003945506 1.659143 0.2662245 0.04091932 1.656915 0.2799526 0.07308662 1.636318 0.2800723 0.08941264 1.596138 0.2790613 -0.05332074 1.581632 0.2352604 0.004321937 1.626799 0.2534079 0.03273737 1.623375 0.2596441 0.05568879 1.605763 0.2605847 0.07150384 1.580247 0.2607259
290 0.01483621 1.514741 0.2017608 -0.06278449 1.602706 0.2444407 0.00753904 1.661624 0.2684785 0.04423397 1.658046 0.2823961 0.07559785 1.636722 0.2820033 0.09087434 1.596386 0.2801368 -0.0523793 1.586205 0.2368737 0.006837427 1.629303 0.2556049 0.03506304 1.624978 0.2617264 0.05743781 1.606795 0.2622159 0.07258502 1.580963 0.2617879
291 0.01365091 1.517156 0.2024744 -0.06147312 1.607172 0.2453688 0.01086804 1.664155 0.2692228 0.04695792 1.659311 0.2836735 0.07747015 1.63737 0.2830976 0.09179097 1.596898 0.2807229 -0.05175848 1.59041 0.2374502 0.008989897 1.631789 0.2565347 0.03693039 1.626639 0.2627476 0.0586895 1.60795 0.2630886 0.07320029 1.581826 0.2623731
292 0.01231236 1.519332 0.2033671 -0.05942772 1.611888 0.2463699 0.0141892 1.666247 0.2704311 0.04950244 1.660047 0.2855032 0.07899465 1.637266 0.2851572 0.09209043 1.596667 0.2823618 -0.05087512 1.594831 0.2377642 0.01107665 1.633959 0.2577218 0.03856858 1.627805 0.2643304 0.05958645 1.608492 0.2647602 0.07329051 1.582062 0.2638502
293 0.01090254 1.520932 0.2041923 -0.0571997 1.616238 0.2465205 0.0167901 1.667266 0.2723827 0.05113559 1.659441 0.288684 0.07974033 1.635803 0.2885579 0.09165859 1.594986 0.2852009 -0.04976292 1.598877 0.2375038 0.01268317 1.635182 0.2594457 0.03957733 1.62787 0.2668697 0.05987078 1.607905 0.267413 0.07279425 1.581137 0.2662069
294 0.009380714 1.522321 0.2051784 -0.0547389 1.620394 0.2464483 0.01928814 1.667625 0.275183 0.05231563 1.657879 0.2931851 0.08011025 1.63351 0.2929828 0.09086795 1.592566 0.288828 -0.04842577 1.602763 0.2370931 0.01422924 1.635852 0.261826 0.04036787 1.627249 0.2702861 0.05991356 1.606653 0.2708305 0.07201511 1.579557 0.2692579
